<?xml version="1.0" encoding="UTF-8"?>
<map version="1.10" tiledversion="1.11.2" orientation="orthogonal" renderorder="right-down" width="200" height="150" tilewidth="16" tileheight="16" infinite="0" nextlayerid="21" nextobjectid="262">
 <tileset firstgid="1" source="Nature.tsx"/>
 <tileset firstgid="721" source="maison.tsx"/>
 <tileset firstgid="913" source="labyrinthe.tsx"/>
 <layer id="12" name="background" width="200" height="150" locked="1">
  <data encoding="csv">
282,283,284,282,283,284,282,283,284,282,283,284,282,283,284,282,283,284,282,283,284,282,283,284,282,283,284,282,283,284,282,283,284,282,283,284,282,283,284,282,283,284,282,283,284,282,283,284,282,283,284,282,283,284,282,283,284,282,283,284,282,283,284,282,283,284,282,283,284,282,283,284,282,283,284,282,283,284,282,283,284,282,283,284,282,283,284,282,283,284,282,283,284,282,283,284,282,283,284,282,283,284,282,283,284,282,283,284,282,283,284,282,283,284,282,283,284,282,283,284,323,324,322,323,324,322,323,324,322,323,324,322,323,324,322,323,324,322,323,324,322,323,324,322,323,324,322,323,324,322,323,324,322,323,324,322,323,324,322,323,324,322,323,324,322,323,324,322,323,324,322,323,324,322,323,324,322,323,324,322,323,324,322,323,324,322,323,324,322,323,324,322,323,324,322,323,324,322,323,324,
322,323,324,322,323,324,322,323,324,322,323,324,322,323,324,322,323,324,322,323,324,322,323,324,322,323,324,322,323,324,322,323,324,322,323,324,322,323,324,322,323,324,322,323,324,322,323,324,322,323,324,322,323,324,322,323,324,322,323,324,322,323,324,322,323,324,322,323,324,322,323,324,322,323,324,322,323,324,322,323,324,322,323,324,322,323,324,322,323,324,322,323,324,322,323,324,322,323,324,322,323,324,322,323,324,322,323,324,322,323,324,322,323,324,322,323,324,322,323,324,363,364,362,363,364,362,363,364,362,363,364,362,363,364,362,363,364,362,363,364,362,363,364,362,363,364,362,363,364,362,363,364,362,363,364,362,363,364,362,363,364,362,363,364,362,363,364,362,363,364,362,363,364,362,363,364,362,363,364,362,363,364,362,363,364,362,363,364,362,363,364,362,363,364,362,363,364,362,363,364,
362,363,364,362,363,364,362,363,364,362,363,364,362,363,364,362,363,364,362,363,364,362,363,364,362,363,364,362,363,364,362,363,364,362,363,364,362,363,364,362,363,364,362,363,364,362,363,364,362,363,364,362,363,364,362,363,364,362,363,364,362,363,364,362,363,364,362,363,364,362,363,364,362,363,364,362,363,364,362,363,364,362,363,364,362,363,364,362,363,364,362,363,364,362,363,364,362,363,364,362,363,364,362,363,364,362,363,364,362,363,364,362,363,364,362,363,364,362,363,364,283,284,282,283,284,282,283,284,282,283,284,282,283,284,282,283,284,282,283,284,282,283,284,282,283,284,282,283,284,282,283,284,282,283,284,282,283,284,282,283,284,282,283,284,282,283,284,282,283,284,282,283,284,282,283,284,282,283,284,282,283,284,282,283,284,282,283,284,282,283,284,282,283,284,282,283,284,282,283,284,
282,283,284,282,283,284,282,283,284,282,283,284,282,283,284,282,283,284,282,283,284,282,283,284,282,283,284,282,283,284,282,283,284,282,283,284,282,283,284,282,283,284,282,283,284,282,283,284,282,283,284,282,283,284,282,283,284,282,283,284,282,283,284,282,283,284,282,283,284,282,283,284,282,283,284,282,283,284,282,283,284,282,283,284,282,283,284,282,283,284,282,283,284,282,283,284,282,283,284,282,283,284,282,283,284,282,283,284,282,283,284,282,283,284,282,283,284,282,283,284,323,324,322,323,324,322,323,324,322,323,324,322,323,324,322,323,324,322,323,324,322,323,324,322,323,324,322,323,324,322,323,324,322,323,324,322,323,324,322,323,324,322,323,324,322,323,324,322,323,324,322,323,324,322,323,324,322,323,324,322,323,324,322,323,324,322,323,324,322,323,324,322,323,324,322,323,324,322,323,324,
322,323,324,322,323,324,322,323,324,322,323,324,322,323,324,322,323,324,322,323,324,322,323,324,322,323,324,322,323,324,322,323,324,322,323,324,322,323,324,322,323,324,322,323,324,322,323,324,322,323,324,322,323,324,322,323,324,322,323,324,322,323,324,322,323,324,322,323,324,322,323,324,322,323,324,322,323,324,322,323,324,322,323,324,322,323,324,322,323,324,322,323,324,322,323,324,322,323,324,322,323,324,322,323,324,322,323,324,322,323,324,322,323,324,322,323,324,322,323,324,363,364,362,363,364,362,363,364,362,363,364,362,363,364,362,363,364,362,363,364,362,363,364,362,363,364,362,363,364,362,363,364,362,363,364,362,363,364,362,363,364,362,363,364,362,363,364,362,363,364,362,363,364,362,363,364,362,363,364,362,363,364,362,363,364,362,363,364,362,363,364,362,363,364,362,363,364,362,363,364,
362,363,364,362,363,364,362,363,364,362,363,364,362,363,364,362,363,364,362,363,364,362,363,364,362,363,364,362,363,364,362,363,364,362,363,364,362,363,364,362,363,364,362,363,364,362,363,364,362,363,364,362,363,364,362,363,364,362,363,364,362,363,364,362,363,364,362,363,364,362,363,364,362,363,364,362,363,364,362,363,364,362,363,364,362,363,364,362,363,364,362,363,364,362,363,364,362,363,364,362,363,364,362,363,364,362,363,364,362,363,364,362,363,364,362,363,364,362,363,364,283,284,282,283,284,282,283,284,282,283,284,282,283,284,282,283,284,282,283,284,282,283,284,282,283,284,282,283,284,282,283,284,282,283,284,282,283,284,282,283,284,282,283,284,282,283,284,282,283,284,282,283,284,282,283,284,282,283,284,282,283,284,282,283,284,282,283,284,282,283,284,282,283,284,282,283,284,282,283,284,
282,283,284,282,283,284,282,283,284,282,283,284,282,283,284,282,283,284,282,283,284,282,283,284,282,283,284,282,283,284,282,283,284,282,283,284,282,283,284,282,283,284,282,283,284,282,283,284,282,283,284,282,283,284,282,283,284,282,283,284,282,283,284,282,283,284,282,283,284,282,283,284,282,283,284,282,283,284,282,283,284,282,283,284,282,283,284,282,283,284,282,283,284,282,283,284,282,283,284,282,283,284,282,283,284,282,283,284,282,283,284,282,283,284,282,283,284,282,283,284,323,324,322,323,324,322,323,324,322,323,324,322,323,324,322,323,324,322,323,324,322,323,324,322,323,324,322,323,324,322,323,324,322,323,324,322,323,324,322,323,324,322,323,324,322,323,324,322,323,324,322,323,324,322,323,324,322,323,324,322,323,324,322,323,324,322,323,324,322,323,324,322,323,324,322,323,324,322,323,324,
322,323,324,322,323,324,322,323,324,322,323,324,322,323,324,322,323,324,322,323,324,322,323,324,322,323,324,322,323,324,322,323,324,322,323,324,322,323,324,322,323,324,322,323,324,322,323,324,322,323,324,322,323,324,322,323,324,322,323,324,322,323,324,322,323,324,322,323,324,322,323,324,322,323,324,322,323,324,322,323,324,322,323,324,322,323,324,322,323,324,322,323,324,322,323,324,322,323,324,322,323,324,322,323,324,322,323,324,322,323,324,322,323,324,322,323,324,322,323,324,363,364,362,363,364,362,363,364,362,363,364,362,363,364,362,363,364,362,363,364,362,363,364,362,363,364,362,363,364,362,363,364,362,363,364,362,363,364,362,363,364,362,363,364,362,363,364,362,363,364,362,363,364,362,363,364,362,363,364,362,363,364,362,363,364,362,363,364,362,363,364,362,363,364,362,363,364,362,363,364,
362,363,364,362,363,364,362,363,364,362,363,364,362,363,364,362,363,364,362,363,364,362,363,364,362,363,364,362,363,364,362,363,364,362,363,364,362,363,364,362,363,364,362,363,364,362,363,364,362,363,364,362,363,364,362,363,364,362,363,364,362,363,364,362,363,364,362,363,364,362,363,364,362,363,364,362,363,364,362,363,364,362,363,364,362,363,364,362,363,364,362,363,364,362,363,364,362,363,364,362,363,364,362,363,364,362,363,364,362,363,364,362,363,364,362,363,364,362,363,364,283,284,282,283,284,282,283,284,282,283,284,282,283,284,282,283,284,282,283,284,282,283,284,282,283,284,282,283,284,282,283,284,282,283,284,282,283,284,282,283,284,282,283,284,282,283,284,282,283,284,282,283,284,282,283,284,282,283,284,282,283,284,282,283,284,282,283,284,282,283,284,282,283,284,282,283,284,282,283,284,
282,283,284,282,283,284,282,283,284,282,283,284,282,283,284,282,283,284,282,283,284,282,283,284,282,283,284,282,283,284,282,283,284,282,283,284,282,283,284,282,283,284,282,283,284,282,283,284,282,283,284,282,283,284,282,283,284,282,283,284,282,283,284,282,283,284,282,283,284,282,283,284,282,283,284,282,283,284,282,283,284,282,283,284,282,283,284,282,283,284,282,283,284,282,283,284,282,283,284,282,283,284,282,283,284,282,283,284,282,283,284,282,283,284,282,283,284,282,283,284,323,324,322,323,324,322,323,324,322,323,324,322,323,324,322,323,324,322,323,324,322,323,324,322,323,324,322,323,324,322,323,324,322,323,324,322,323,324,322,323,324,322,323,324,322,323,324,322,323,324,322,323,324,322,323,324,322,323,324,322,323,324,322,323,324,322,323,324,322,323,324,322,323,324,322,323,324,322,323,324,
322,323,324,322,323,324,322,323,324,322,323,324,322,323,324,322,323,324,322,323,324,322,323,324,322,323,324,322,323,324,322,323,324,322,323,324,322,323,324,322,323,324,322,323,324,322,323,324,322,323,324,322,323,324,322,323,324,322,323,324,322,323,324,322,323,324,322,323,324,322,323,324,322,323,324,322,323,324,322,323,324,322,323,324,322,323,324,322,323,324,322,323,324,322,323,324,322,323,324,322,323,324,322,323,324,322,323,324,322,323,324,322,323,324,322,323,324,322,323,324,363,364,362,363,364,362,363,364,362,363,364,362,363,364,362,363,364,362,363,364,362,363,364,362,363,364,362,363,364,362,363,364,362,363,364,362,363,364,362,363,364,362,363,364,362,363,364,362,363,364,362,363,364,362,363,364,362,363,364,362,363,364,362,363,364,362,363,364,362,363,364,362,363,364,362,363,364,362,363,364,
362,363,364,362,363,364,362,363,364,362,363,364,362,363,364,362,363,364,362,363,364,362,363,364,362,363,364,362,363,364,362,363,364,362,363,364,362,363,364,362,363,364,362,363,364,362,363,364,362,363,364,362,363,364,362,363,364,362,363,364,362,363,364,362,363,364,362,363,364,362,363,364,362,363,364,362,363,364,362,363,364,362,363,364,362,363,364,362,363,364,362,363,364,362,363,364,362,363,364,362,363,364,362,363,364,362,363,364,362,363,364,362,363,364,362,363,364,362,363,364,283,284,282,283,284,282,283,284,282,283,284,282,283,284,282,283,284,282,283,284,282,283,284,282,283,284,282,283,284,282,283,284,282,283,284,282,283,284,282,283,284,282,283,284,282,283,284,282,283,284,282,283,284,282,283,284,282,283,284,282,283,284,282,283,284,282,283,284,282,283,284,282,283,284,282,283,284,282,283,284,
282,283,284,282,283,284,282,283,284,282,283,284,282,283,284,282,283,284,282,283,284,282,283,284,282,283,284,282,283,284,282,283,284,282,283,284,282,283,284,282,283,284,282,283,284,282,283,284,282,283,284,282,283,284,282,283,284,282,283,284,282,283,284,282,283,284,282,283,284,282,283,284,282,283,284,282,283,284,282,283,284,282,283,284,282,283,284,282,283,284,282,283,284,282,283,284,282,283,284,282,283,284,282,283,284,282,283,284,282,283,284,282,283,284,282,283,284,282,283,284,323,324,322,323,324,322,323,324,322,323,324,322,323,324,322,323,324,322,323,324,322,323,324,322,323,324,322,323,324,322,323,324,322,323,324,322,323,324,322,323,324,322,323,324,322,323,324,322,323,324,322,323,324,322,323,324,322,323,324,322,323,324,322,323,324,322,323,324,322,323,324,322,323,324,322,323,324,322,323,324,
322,323,324,322,323,324,322,323,324,322,323,324,322,323,324,322,323,324,322,323,324,322,323,324,322,323,324,322,323,324,322,323,324,322,323,324,322,323,324,322,323,324,322,323,324,322,323,324,322,323,324,322,323,324,322,323,324,322,323,324,322,323,324,322,323,324,322,323,324,322,323,324,322,323,324,322,323,324,322,323,324,322,323,324,322,323,324,322,323,324,322,323,324,322,323,324,322,323,324,322,323,324,322,323,324,322,323,324,322,323,324,322,323,324,322,323,324,322,323,324,363,364,362,363,364,362,363,364,362,363,364,362,363,364,362,363,364,362,363,364,362,363,364,362,363,364,362,363,364,362,363,364,362,363,364,362,363,364,362,363,364,362,363,364,362,363,364,362,363,364,362,363,364,362,363,364,362,363,364,362,363,364,362,363,364,362,363,364,362,363,364,362,363,364,362,363,364,362,363,364,
362,363,364,362,363,364,362,363,364,362,363,364,362,363,364,362,363,364,362,363,364,362,363,364,362,363,364,362,363,364,362,363,364,362,363,364,362,363,364,362,363,364,362,363,364,362,363,364,362,363,364,362,363,364,362,363,364,362,363,364,362,363,364,362,363,364,362,363,364,362,363,364,362,363,364,362,363,364,362,363,364,362,363,364,362,363,364,362,363,364,362,363,364,362,363,364,362,363,364,362,363,364,362,363,364,362,363,364,362,363,364,362,363,364,362,363,364,362,363,364,283,284,282,283,284,282,283,284,282,283,284,282,283,284,282,283,284,282,283,284,282,283,284,282,283,284,282,283,284,282,283,284,282,283,284,282,283,284,282,283,284,282,283,284,282,283,284,282,283,284,282,283,284,282,283,284,282,283,284,282,283,284,282,283,284,282,283,284,282,283,284,282,283,284,282,283,284,282,283,284,
282,283,284,282,283,284,282,283,284,282,283,284,282,283,284,282,283,284,282,283,284,282,283,284,282,283,284,282,283,284,282,283,284,282,283,284,282,283,284,282,283,284,282,283,284,282,283,284,282,283,284,282,283,284,282,283,284,282,283,284,282,283,284,282,283,284,282,283,284,282,283,284,282,283,284,282,283,284,282,283,284,282,283,284,282,283,284,282,283,284,282,283,284,282,283,284,282,283,284,282,283,284,282,283,284,282,283,284,282,283,284,282,283,284,282,283,284,282,283,284,323,324,322,323,324,322,323,324,322,323,324,322,323,324,322,323,324,322,323,324,322,323,324,322,323,324,322,323,324,322,323,324,322,323,324,322,323,324,322,323,324,322,323,324,322,323,324,322,323,324,322,323,324,322,323,324,322,323,324,322,323,324,322,323,324,322,323,324,322,323,324,322,323,324,322,323,324,322,323,324,
322,323,324,322,323,324,322,323,324,322,323,324,322,323,324,322,323,324,322,323,324,322,323,324,322,323,324,322,323,324,322,323,324,322,323,324,322,323,324,322,323,324,322,323,324,322,323,324,322,323,324,322,323,324,322,323,324,322,323,324,322,323,324,322,323,324,322,323,324,322,323,324,322,323,324,322,323,324,322,323,324,322,323,324,322,323,324,322,323,324,322,323,324,322,323,324,322,323,324,322,323,324,322,323,324,322,323,324,322,323,324,322,323,324,322,323,324,322,323,324,363,364,362,363,364,362,363,364,362,363,364,362,363,364,362,363,364,362,363,364,362,363,364,362,363,364,362,363,364,362,363,364,362,363,364,362,363,364,362,363,364,362,363,364,362,363,364,362,363,364,362,363,364,362,363,364,362,363,364,362,363,364,362,363,364,362,363,364,362,363,364,362,363,364,362,363,364,362,363,364,
362,363,364,362,363,364,362,363,364,362,363,364,362,363,364,362,363,364,362,363,364,362,363,364,362,363,364,362,363,364,362,363,364,362,363,364,362,363,364,362,363,364,362,363,364,362,363,364,362,363,364,362,363,364,362,363,364,362,363,364,362,363,364,362,363,364,362,363,364,362,363,364,362,363,364,362,363,364,362,363,364,362,363,364,362,363,364,362,363,364,362,363,364,362,363,364,362,363,364,362,363,364,362,363,364,362,363,364,362,363,364,362,363,364,362,363,364,362,363,364,283,284,282,283,284,282,283,284,282,283,284,282,283,284,282,283,284,282,283,284,282,283,284,282,283,284,282,283,284,282,283,284,282,283,284,282,283,284,282,283,284,282,283,284,282,283,284,282,283,284,282,283,284,282,283,284,282,283,284,282,283,284,282,283,284,282,283,284,282,283,284,282,283,284,282,283,284,282,283,284,
282,283,284,282,283,284,282,283,284,282,283,284,282,283,284,282,283,284,282,283,284,282,283,284,282,283,284,282,283,284,282,283,284,282,283,284,282,283,284,282,283,284,282,283,284,282,283,284,282,283,284,282,283,284,282,283,284,282,283,284,282,283,284,282,283,284,282,283,284,282,283,284,282,283,284,282,283,284,282,283,284,282,283,284,282,283,284,282,283,284,282,283,284,282,283,284,282,283,284,282,283,284,282,283,284,282,283,284,282,283,284,282,283,284,282,283,284,282,283,284,323,324,322,323,324,322,323,324,322,323,324,322,323,324,322,323,324,322,323,324,322,323,324,322,323,324,322,323,324,322,323,324,322,323,324,322,323,324,322,323,324,322,323,324,322,323,324,322,323,324,322,323,324,322,323,324,322,323,324,322,323,324,322,323,324,322,323,324,322,323,324,322,323,324,322,323,324,322,323,324,
322,323,324,322,323,324,322,323,324,322,323,324,322,323,324,322,323,324,322,323,324,322,323,324,322,323,324,322,323,324,322,323,324,322,323,324,322,323,324,322,323,324,322,323,324,322,323,324,322,323,324,322,323,324,322,323,324,322,323,324,322,323,324,322,323,324,322,323,324,322,323,324,322,323,324,322,323,324,322,323,324,322,323,324,322,323,324,322,323,324,322,323,324,322,323,324,322,323,324,322,323,324,322,323,324,322,323,324,322,323,324,322,323,324,322,323,324,322,323,324,363,364,362,363,364,362,363,364,362,363,364,362,363,364,362,363,364,362,363,364,362,363,364,362,363,364,362,363,364,362,363,364,362,363,364,362,363,364,362,363,364,362,363,364,362,363,364,362,363,364,362,363,364,362,363,364,362,363,364,362,363,364,362,363,364,362,363,364,362,363,364,362,363,364,362,363,364,362,363,364,
362,363,364,362,363,364,362,363,364,362,363,364,362,363,364,362,363,364,362,363,364,362,363,364,362,363,364,362,363,364,362,363,364,362,363,364,362,363,364,362,363,364,362,363,364,362,363,364,362,363,364,362,363,364,362,363,364,362,363,364,362,363,364,362,363,364,362,363,364,362,363,364,362,363,364,362,363,364,362,363,364,362,363,364,362,363,364,362,363,364,362,363,364,362,363,364,362,363,364,362,363,364,362,363,364,362,363,364,362,363,364,362,363,364,362,363,364,362,363,364,283,284,282,283,284,282,283,284,282,283,284,282,283,284,282,283,284,282,283,284,282,283,284,282,283,284,282,283,284,282,283,284,282,283,284,282,283,284,282,283,284,282,283,284,282,283,284,282,283,284,282,283,284,282,283,284,282,283,284,282,283,284,282,283,284,282,283,284,282,283,284,282,283,284,282,283,284,282,283,284,
282,283,284,282,283,284,282,283,284,282,283,284,282,283,284,282,283,284,282,283,284,282,283,284,282,283,284,282,283,284,282,283,284,282,283,284,282,283,284,282,283,284,282,283,284,282,283,284,282,283,284,282,283,284,282,283,284,282,283,284,282,283,284,282,283,284,282,283,284,282,283,284,282,283,284,282,283,284,282,283,284,282,283,284,282,283,284,282,283,284,282,283,284,282,283,284,282,283,284,282,283,284,282,283,284,282,283,284,282,283,284,282,283,284,282,283,284,282,283,284,323,324,322,323,324,322,323,324,322,323,324,322,323,324,322,323,324,322,323,324,322,323,324,322,323,324,322,323,324,322,323,324,322,323,324,322,323,324,322,323,324,322,323,324,322,323,324,322,323,324,322,323,324,322,323,324,322,323,324,322,323,324,322,323,324,322,323,324,322,323,324,322,323,324,322,323,324,322,323,324,
322,323,324,322,323,324,322,323,324,322,323,324,322,323,324,322,323,324,322,323,324,322,323,324,322,323,324,322,323,324,322,323,324,322,323,324,322,323,324,322,323,324,322,323,324,322,323,324,322,323,324,322,323,324,322,323,324,322,323,324,322,323,324,322,323,324,322,323,324,322,323,324,322,323,324,322,323,324,322,323,324,322,323,324,322,323,324,322,323,324,322,323,324,322,323,324,322,323,324,322,323,324,322,323,324,322,323,324,322,323,324,322,323,324,322,323,324,322,323,324,363,364,362,363,364,362,363,364,362,363,364,362,363,364,362,363,364,362,363,364,362,363,364,362,363,364,362,363,364,362,363,364,362,363,364,362,363,364,362,363,364,362,363,364,362,363,364,362,363,364,362,363,364,362,363,364,362,363,364,362,363,364,362,363,364,362,363,364,362,363,364,362,363,364,362,363,364,362,363,364,
362,363,364,362,363,364,362,363,364,362,363,364,362,363,364,362,363,364,362,363,364,362,363,364,362,363,364,362,363,364,362,363,364,362,363,364,362,363,364,362,363,364,362,363,364,362,363,364,362,363,364,362,363,364,362,363,364,362,363,364,362,363,364,362,363,364,362,363,364,362,363,364,362,363,364,362,363,364,362,363,364,362,363,364,362,363,364,362,363,364,362,363,364,362,363,364,362,363,364,362,363,364,362,363,364,362,363,364,362,363,364,362,363,364,362,363,364,362,363,364,283,284,282,283,284,282,283,284,282,283,284,282,283,284,282,283,284,282,283,284,282,283,284,282,283,284,282,283,284,282,283,284,282,283,284,282,283,284,282,283,284,282,283,284,282,283,284,282,283,284,282,283,284,282,283,284,282,283,284,282,283,284,282,283,284,282,283,284,282,283,284,282,283,284,282,283,284,282,283,284,
282,283,284,282,283,284,282,283,284,282,283,284,282,283,284,282,283,284,282,283,284,282,283,284,282,283,284,282,283,284,282,283,284,282,283,284,282,283,284,282,283,284,282,283,284,282,283,284,282,283,284,282,283,284,282,283,284,282,283,284,282,283,284,282,283,284,282,283,284,282,283,284,282,283,284,282,283,284,282,283,284,282,283,284,282,283,284,282,283,284,282,283,284,282,283,284,282,283,284,282,283,284,282,283,284,282,283,284,282,283,284,282,283,284,282,283,284,282,283,284,323,324,322,323,324,322,323,324,322,323,324,322,323,324,322,323,324,322,323,324,322,323,324,322,323,324,322,323,324,322,323,324,322,323,324,322,323,324,322,323,324,322,323,324,322,323,324,322,323,324,322,323,324,322,323,324,322,323,324,322,323,324,322,323,324,322,323,324,322,323,324,322,323,324,322,323,324,322,323,324,
322,323,324,322,323,324,322,323,324,322,323,324,322,323,324,322,323,324,322,323,324,322,323,324,322,323,324,322,323,324,322,323,324,322,323,324,322,323,324,322,323,324,322,323,324,322,323,324,322,323,324,322,323,324,322,323,324,322,323,324,322,323,324,322,323,324,322,323,324,322,323,324,322,323,324,322,323,324,322,323,324,322,323,324,322,323,324,322,323,324,322,323,324,322,323,324,322,323,324,322,323,324,322,323,324,322,323,324,322,323,324,322,323,324,322,323,324,322,323,324,363,364,362,363,364,362,363,364,362,363,364,362,363,364,362,363,364,362,363,364,362,363,364,362,363,364,362,363,364,362,363,364,362,363,364,362,363,364,362,363,364,362,363,364,362,363,364,362,363,364,362,363,364,362,363,364,362,363,364,362,363,364,362,363,364,362,363,364,362,363,364,362,363,364,362,363,364,362,363,364,
362,363,364,362,363,364,362,363,364,362,363,364,362,363,364,362,363,364,362,363,364,362,363,364,362,363,364,362,363,364,362,363,364,362,363,364,362,363,364,362,363,364,362,363,364,362,363,364,362,363,364,362,363,364,362,363,364,362,363,364,362,363,364,362,363,364,362,363,364,362,363,364,362,363,364,362,363,364,362,363,364,362,363,364,362,363,364,362,363,364,362,363,364,362,363,364,362,363,364,362,363,364,362,363,364,362,363,364,362,363,364,362,363,364,362,363,364,362,363,364,283,284,282,283,284,282,283,284,282,283,284,282,283,284,282,283,284,282,283,284,282,283,284,282,283,284,282,283,284,282,283,284,282,283,284,282,283,284,282,283,284,282,283,284,282,283,284,282,283,284,282,283,284,282,283,284,282,283,284,282,283,284,282,283,284,282,283,284,282,283,284,282,283,284,282,283,284,282,283,284,
282,283,284,282,283,284,282,283,284,282,283,284,282,283,284,282,283,284,282,283,284,282,283,284,282,283,284,282,283,284,282,283,284,282,283,284,282,283,284,282,283,284,282,283,284,282,283,284,282,283,284,282,283,284,282,283,284,282,283,284,282,283,284,282,283,284,282,283,284,282,283,284,282,283,284,282,283,284,282,283,284,282,283,284,282,283,284,282,283,284,282,283,284,282,283,284,282,283,284,282,283,284,282,283,284,282,283,284,282,283,284,282,283,284,282,283,284,282,283,284,323,324,322,323,324,322,323,324,322,323,324,322,323,324,322,323,324,322,323,324,322,323,324,322,323,324,322,323,324,322,323,324,322,323,324,322,323,324,322,323,324,322,323,324,322,323,324,322,323,324,322,323,324,322,323,324,322,323,324,322,323,324,322,323,324,322,323,324,322,323,324,322,323,324,322,323,324,322,323,324,
322,323,324,322,323,324,322,323,324,322,323,324,322,323,324,322,323,324,322,323,324,322,323,324,322,323,324,322,323,324,322,323,324,322,323,324,322,323,324,322,323,324,322,323,324,322,323,324,322,323,324,322,323,324,322,323,324,322,323,324,322,323,324,322,323,324,322,323,324,322,323,324,322,323,324,322,323,324,322,323,324,322,323,324,322,323,324,322,323,324,322,323,324,322,323,324,322,323,324,322,323,324,322,323,324,322,323,324,322,323,324,322,323,324,322,323,324,322,323,324,363,364,362,363,364,362,363,364,362,363,364,362,363,364,362,363,364,362,363,364,362,363,364,362,363,364,362,363,364,362,363,364,362,363,364,362,363,364,362,363,364,362,363,364,362,363,364,362,363,364,362,363,364,362,363,364,362,363,364,362,363,364,362,363,364,362,363,364,362,363,364,362,363,364,362,363,364,362,363,364,
362,363,364,362,363,364,362,363,364,362,363,364,362,363,364,362,363,364,362,363,364,362,363,364,362,363,364,362,363,364,362,363,364,362,363,364,362,363,364,362,363,364,362,363,364,362,363,364,362,363,364,362,363,364,362,363,364,362,363,364,362,363,364,362,363,364,362,363,364,362,363,364,362,363,364,362,363,364,362,363,364,362,363,364,362,363,364,362,363,364,362,363,364,362,363,364,362,363,364,362,363,364,362,363,364,362,363,364,362,363,364,362,363,364,362,363,364,362,363,364,283,284,282,283,284,282,283,284,282,283,284,282,283,284,282,283,284,282,283,284,282,283,284,282,283,284,282,283,284,282,283,284,282,283,284,282,283,284,282,283,284,282,283,284,282,283,284,282,283,284,282,283,284,282,283,284,282,283,284,282,283,284,282,283,284,282,283,284,282,283,284,282,283,284,282,283,284,282,283,284,
282,283,284,282,283,284,282,283,284,282,283,284,282,283,284,282,283,284,282,283,284,282,283,284,282,283,284,282,283,284,282,283,284,282,283,284,282,283,284,282,283,284,282,283,284,282,283,284,282,283,284,282,283,284,282,283,284,282,283,284,282,283,284,282,283,284,282,283,284,282,283,284,282,283,284,282,283,284,282,283,284,282,283,284,282,283,284,282,283,284,282,283,284,282,283,284,282,283,284,282,283,284,282,283,284,282,283,284,282,283,284,282,283,284,282,283,284,282,283,284,323,324,322,323,324,322,323,324,322,323,324,322,323,324,322,323,324,322,323,324,322,323,324,322,323,324,322,323,324,322,323,324,322,323,324,322,323,324,322,323,324,322,323,324,322,323,324,322,323,324,322,323,324,322,323,324,322,323,324,322,323,324,322,323,324,322,323,324,322,323,324,322,323,324,322,323,324,322,323,324,
322,323,324,322,323,324,322,323,324,322,323,324,322,323,324,322,323,324,322,323,324,322,323,324,322,323,324,322,323,324,322,323,324,322,323,324,322,323,324,322,323,324,322,323,324,322,323,324,322,323,324,322,323,324,322,323,324,322,323,324,322,323,324,322,323,324,322,323,324,322,323,324,322,323,324,322,323,324,322,323,324,322,323,324,322,323,324,322,323,324,322,323,324,322,323,324,322,323,324,322,323,324,322,323,324,322,323,324,322,323,324,322,323,324,322,323,324,322,323,324,363,364,362,363,364,362,363,364,362,363,364,362,363,364,362,363,364,362,363,364,362,363,364,362,363,364,362,363,364,362,363,364,362,363,364,362,363,364,362,363,364,362,363,364,362,363,364,362,363,364,362,363,364,362,363,364,362,363,364,362,363,364,362,363,364,362,363,364,362,363,364,362,363,364,362,363,364,362,363,364,
362,363,364,362,363,364,362,363,364,362,363,364,362,363,364,362,363,364,362,363,364,362,363,364,362,363,364,362,363,364,362,363,364,362,363,364,362,363,364,362,363,364,362,363,364,362,363,364,362,363,364,362,363,364,362,363,364,362,363,364,362,363,364,362,363,364,362,363,364,362,363,364,362,363,364,362,363,364,362,363,364,362,363,364,362,363,364,362,363,364,362,363,364,362,363,364,362,363,364,362,363,364,362,363,364,362,363,364,362,363,364,362,363,364,362,363,364,362,363,364,283,284,282,283,284,282,283,284,282,283,284,282,283,284,282,283,284,282,283,284,282,283,284,282,283,284,282,283,284,282,283,284,282,283,284,282,283,284,282,283,284,282,283,284,282,283,284,282,283,284,282,283,284,282,283,284,282,283,284,282,283,284,282,283,284,282,283,284,282,283,284,282,283,284,282,283,284,282,283,284,
282,283,284,282,283,284,282,283,284,282,283,284,282,283,284,282,283,284,282,283,284,282,283,284,282,283,284,282,283,284,282,283,284,282,283,284,282,283,284,282,283,284,282,283,284,282,283,284,282,283,284,282,283,284,282,283,284,282,283,284,282,283,284,282,283,284,282,283,284,282,283,284,282,283,284,282,283,284,282,283,284,282,283,284,282,283,284,282,283,284,282,283,284,282,283,284,282,283,284,282,283,284,282,283,284,282,283,284,282,283,284,282,283,284,282,283,284,282,283,284,323,324,322,323,324,322,323,324,322,323,324,322,323,324,322,323,324,322,323,324,322,323,324,322,323,324,322,323,324,322,323,324,322,323,324,322,323,324,322,323,324,322,323,324,322,323,324,322,323,324,322,323,324,322,323,324,322,323,324,322,323,324,322,323,324,322,323,324,322,323,324,322,323,324,322,323,324,322,323,324,
322,323,324,322,323,324,322,323,324,322,323,324,322,323,324,322,323,324,322,323,324,322,323,324,322,323,324,322,323,324,322,323,324,322,323,324,322,323,324,322,323,324,322,323,324,322,323,324,322,323,324,322,323,324,322,323,324,322,323,324,322,323,324,322,323,324,322,323,324,322,323,324,322,323,324,322,323,324,322,323,324,322,323,324,322,323,324,322,323,324,322,323,324,322,323,324,322,323,324,322,323,324,322,323,324,322,323,324,322,323,324,322,323,324,322,323,324,322,323,324,363,364,362,363,364,362,363,364,362,363,364,362,363,364,362,363,364,362,363,364,362,363,364,362,363,364,362,363,364,362,363,364,362,363,364,362,363,364,362,363,364,362,363,364,362,363,364,362,363,364,362,363,364,362,363,364,362,363,364,362,363,364,362,363,364,362,363,364,362,363,364,362,363,364,362,363,364,362,363,364,
362,363,364,362,363,364,362,363,364,362,363,364,362,363,364,362,363,364,362,363,364,362,363,364,362,363,364,362,363,364,362,363,364,362,363,364,362,363,364,362,363,364,362,363,364,362,363,364,362,363,364,362,363,364,362,363,364,362,363,364,362,363,364,362,363,364,362,363,364,362,363,364,362,363,364,362,363,364,362,363,364,362,363,364,362,363,364,362,363,364,362,363,364,362,363,364,362,363,364,362,363,364,362,363,364,362,363,364,362,363,364,362,363,364,362,363,364,362,363,364,283,284,282,283,284,282,283,284,282,283,284,282,283,284,282,283,284,282,283,284,282,283,284,282,283,284,282,283,284,282,283,284,282,283,284,282,283,284,282,283,284,282,283,284,282,283,284,282,283,284,282,283,284,282,283,284,282,283,284,282,283,284,282,283,284,282,283,284,282,283,284,282,283,284,282,283,284,282,283,284,
282,283,284,282,283,284,282,283,284,282,283,284,282,283,284,282,283,284,282,283,284,282,283,284,282,283,284,282,283,284,282,283,284,282,283,284,282,283,284,282,283,284,282,283,284,282,283,284,282,283,284,282,283,284,282,283,284,282,283,284,282,283,284,282,283,284,282,283,284,282,283,284,282,283,284,282,283,284,282,283,284,282,283,284,282,283,284,282,283,284,282,283,284,282,283,284,282,283,284,282,283,284,282,283,284,282,283,284,282,283,284,282,283,284,282,283,284,282,283,284,323,324,322,323,324,322,323,324,322,323,324,322,323,324,322,323,324,322,323,324,322,323,324,322,323,324,322,323,324,322,323,324,322,323,324,322,323,324,322,323,324,322,323,324,322,323,324,322,323,324,322,323,324,322,323,324,322,323,324,322,323,324,322,323,324,322,323,324,322,323,324,322,323,324,322,323,324,322,323,324,
322,323,324,322,323,324,322,323,324,322,323,324,322,323,324,322,323,324,322,323,324,322,323,324,322,323,324,322,323,324,322,323,324,322,323,324,322,323,324,322,323,324,322,323,324,322,323,324,322,323,324,322,323,324,322,323,324,322,323,324,322,323,324,322,323,324,322,323,324,322,323,324,322,323,324,322,323,324,322,323,324,322,323,324,322,323,324,322,323,324,322,323,324,322,323,324,322,323,324,322,323,324,322,323,324,322,323,324,322,323,324,322,323,324,322,323,324,322,323,324,363,364,362,363,364,362,363,364,362,363,364,362,363,364,362,363,364,362,363,364,362,363,364,362,363,364,362,363,364,362,363,364,362,363,364,362,363,364,362,363,364,362,363,364,362,363,364,362,363,364,362,363,364,362,363,364,362,363,364,362,363,364,362,363,364,362,363,364,362,363,364,362,363,364,362,363,364,362,363,364,
362,363,364,362,363,364,362,363,364,362,363,364,362,363,364,362,363,364,362,363,364,362,363,364,362,363,364,362,363,364,362,363,364,362,363,364,362,363,364,362,363,364,362,363,364,362,363,364,362,363,364,362,363,364,362,363,364,362,363,364,362,363,364,362,363,364,362,363,364,362,363,364,362,363,364,362,363,364,362,363,364,362,363,364,362,363,364,362,363,364,362,363,364,362,363,364,362,363,364,362,363,364,362,363,364,362,363,364,362,363,364,362,363,364,362,363,364,362,363,364,283,284,282,283,284,282,283,284,282,283,284,282,283,284,282,283,284,282,283,284,282,283,284,282,283,284,282,283,284,282,283,284,282,283,284,282,283,284,282,283,284,282,283,284,282,283,284,282,283,284,282,283,284,282,283,284,282,283,284,282,283,284,282,283,284,282,283,284,282,283,284,282,283,284,282,283,284,282,283,284,
282,283,284,282,283,284,282,283,284,282,283,284,282,283,284,282,283,284,282,283,284,282,283,284,282,283,284,282,283,284,282,283,284,282,283,284,282,283,284,282,283,284,282,283,284,282,283,284,282,283,284,282,283,284,282,283,284,282,283,284,282,283,284,282,283,284,282,283,284,282,283,284,282,283,284,282,283,284,282,283,284,282,283,284,282,283,284,282,283,284,282,283,284,282,283,284,282,283,284,282,283,284,282,283,284,282,283,284,282,283,284,282,283,284,282,283,284,282,283,284,323,324,322,323,324,322,323,324,322,323,324,322,323,324,322,323,324,322,323,324,322,323,324,322,323,324,322,323,324,322,323,324,322,323,324,322,323,324,322,323,324,322,323,324,322,323,324,322,323,324,322,323,324,322,323,324,322,323,324,322,323,324,322,323,324,322,323,324,322,323,324,322,323,324,322,323,324,322,323,324,
322,323,324,322,323,324,322,323,324,322,323,324,322,323,324,322,323,324,322,323,324,322,323,324,322,323,324,322,323,324,322,323,324,322,323,324,322,323,324,322,323,324,322,323,324,322,323,324,322,323,324,322,323,324,322,323,324,322,323,324,322,323,324,322,323,324,322,323,324,322,323,324,322,323,324,322,323,324,322,323,324,322,323,324,322,323,324,322,323,324,322,323,324,322,323,324,322,323,324,322,323,324,322,323,324,322,323,324,322,323,324,322,323,324,322,323,324,322,323,324,363,364,362,363,364,362,363,364,362,363,364,362,363,364,362,363,364,362,363,364,362,363,364,362,363,364,362,363,364,362,363,364,362,363,364,362,363,364,362,363,364,362,363,364,362,363,364,362,363,364,362,363,364,362,363,364,362,363,364,362,363,364,362,363,364,362,363,364,362,363,364,362,363,364,362,363,364,362,363,364,
362,363,364,362,363,364,362,363,364,362,363,364,362,363,364,362,363,364,362,363,364,362,363,364,362,363,364,362,363,364,362,363,364,362,363,364,362,363,364,362,363,364,362,363,364,362,363,364,362,363,364,362,363,364,362,363,364,362,363,364,362,363,364,362,363,364,362,363,364,362,363,364,362,363,364,362,363,364,362,363,364,362,363,364,362,363,364,362,363,364,362,363,364,362,363,364,362,363,364,362,363,364,362,363,364,362,363,364,362,363,364,362,363,364,362,363,364,362,363,364,283,284,282,283,284,282,283,284,282,283,284,282,283,284,282,283,284,282,283,284,282,283,284,282,283,284,282,283,284,282,283,284,282,283,284,282,283,284,282,283,284,282,283,284,282,283,284,282,283,284,282,283,284,282,283,284,282,283,284,282,283,284,282,283,284,282,283,284,282,283,284,282,283,284,282,283,284,282,283,284,
282,283,284,282,283,284,282,283,284,282,283,284,282,283,284,282,283,284,282,283,284,282,283,284,282,283,284,282,283,284,282,283,284,282,283,284,282,283,284,282,283,284,282,283,284,282,283,284,282,283,284,282,283,284,282,283,284,282,283,284,282,283,284,282,283,284,282,283,284,282,283,284,282,283,284,282,283,284,282,283,284,282,283,284,282,283,284,282,283,284,282,283,284,282,283,284,282,283,284,282,283,284,282,283,284,282,283,284,282,283,284,282,283,284,282,283,284,282,283,284,323,324,322,323,324,322,323,324,322,323,324,322,323,324,322,323,324,322,323,324,322,323,324,322,323,324,322,323,324,322,323,324,322,323,324,322,323,324,322,323,324,322,323,324,322,323,324,322,323,324,322,323,324,322,323,324,322,323,324,322,323,324,322,323,324,322,323,324,322,323,324,322,323,324,322,323,324,322,323,324,
322,323,324,322,323,324,322,323,324,322,323,324,322,323,324,322,323,324,322,323,324,322,323,324,322,323,324,322,323,324,322,323,324,322,323,324,322,323,324,322,323,324,322,323,324,322,323,324,322,323,324,322,323,324,322,323,324,322,323,324,322,323,324,322,323,324,322,323,324,322,323,324,322,323,324,322,323,324,322,323,324,322,323,324,322,323,324,322,323,324,322,323,324,322,323,324,322,323,324,322,323,324,322,323,324,322,323,324,322,323,324,322,323,324,322,323,324,322,323,324,363,364,362,363,364,362,363,364,362,363,364,362,363,364,362,363,364,362,363,364,362,363,364,362,363,364,362,363,364,362,363,364,362,363,364,362,363,364,362,363,364,362,363,364,362,363,364,362,363,364,362,363,364,362,363,364,362,363,364,362,363,364,362,363,364,362,363,364,362,363,364,362,363,364,362,363,364,362,363,364,
362,363,364,362,363,364,362,363,364,362,363,364,362,363,364,362,363,364,362,363,364,362,363,364,362,363,364,362,363,364,362,363,364,362,363,364,362,363,364,362,363,364,362,363,364,362,363,364,362,363,364,362,363,364,362,363,364,362,363,364,362,363,364,362,363,364,362,363,364,362,363,364,362,363,364,362,363,364,362,363,364,362,363,364,362,363,364,362,363,364,362,363,364,362,363,364,362,363,364,362,363,364,362,363,364,362,363,364,362,363,364,362,363,364,362,363,364,362,363,364,283,284,282,283,284,282,283,284,282,283,284,282,283,284,282,283,284,282,283,284,282,283,284,282,283,284,282,283,284,282,283,284,282,283,284,282,283,284,282,283,284,282,283,284,282,283,284,282,283,284,282,283,284,282,283,284,282,283,284,282,283,284,282,283,284,282,283,284,282,283,284,282,283,284,282,283,284,282,283,284,
282,283,284,282,283,284,282,283,284,282,283,284,282,283,284,282,283,284,282,283,284,282,283,284,282,283,284,282,283,284,282,283,284,282,283,284,282,283,284,282,283,284,282,283,284,282,283,284,282,283,284,282,283,284,282,283,284,282,283,284,282,283,284,282,283,284,282,283,284,282,283,284,282,283,284,282,283,284,282,283,284,282,283,284,282,283,284,282,283,284,282,283,284,282,283,284,282,283,284,282,283,284,282,283,284,282,283,284,282,283,284,282,283,284,282,283,284,282,283,284,323,324,322,323,324,322,323,324,322,323,324,322,323,324,322,323,324,322,323,324,322,323,324,322,323,324,322,323,324,322,323,324,322,323,324,322,323,324,322,323,324,322,323,324,322,323,324,322,323,324,322,323,324,322,323,324,322,323,324,322,323,324,322,323,324,322,323,324,322,323,324,322,323,324,322,323,324,322,323,324,
322,323,324,322,323,324,322,323,324,322,323,324,322,323,324,322,323,324,322,323,324,322,323,324,322,323,324,322,323,324,322,323,324,322,323,324,322,323,324,322,323,324,322,323,324,322,323,324,322,323,324,322,323,324,322,323,324,322,323,324,322,323,324,322,323,324,322,323,324,322,323,324,322,323,324,322,323,324,322,323,324,322,323,324,322,323,324,322,323,324,322,323,324,322,323,324,322,323,324,322,323,324,322,323,324,322,323,324,322,323,324,322,323,324,322,323,324,322,323,324,363,364,362,363,364,362,363,364,362,363,364,362,363,364,362,363,364,362,363,364,362,363,364,362,363,364,362,363,364,362,363,364,362,363,364,362,363,364,362,363,364,362,363,364,362,363,364,362,363,364,362,363,364,362,363,364,362,363,364,362,363,364,362,363,364,362,363,364,362,363,364,362,363,364,362,363,364,362,363,364,
362,363,364,362,363,364,362,363,364,362,363,364,362,363,364,362,363,364,362,363,364,362,363,364,362,363,364,362,363,364,362,363,364,362,363,364,362,363,364,362,363,364,362,363,364,362,363,364,362,363,364,362,363,364,362,363,364,362,363,364,362,363,364,362,363,364,362,363,364,362,363,364,362,363,364,362,363,364,362,363,364,362,363,364,362,363,364,362,363,364,362,363,364,362,363,364,362,363,364,362,363,364,362,363,364,362,363,364,362,363,364,362,363,364,362,363,364,362,363,364,283,284,282,283,284,282,283,284,282,283,284,282,283,284,282,283,284,282,283,284,282,283,284,282,283,284,282,283,284,282,283,284,282,283,284,282,283,284,282,283,284,282,283,284,282,283,284,282,283,284,282,283,284,282,283,284,282,283,284,282,283,284,282,283,284,282,283,284,282,283,284,282,283,284,282,283,284,282,283,284,
282,283,284,282,283,284,282,283,284,282,283,284,282,283,284,282,283,284,282,283,284,282,283,284,282,283,284,282,283,284,282,283,284,282,283,284,282,283,284,282,283,284,282,283,284,282,283,284,282,283,284,282,283,284,282,283,284,282,283,284,282,283,284,282,283,284,282,283,284,282,283,284,282,283,284,282,283,284,282,283,284,282,283,284,282,283,284,282,283,284,282,283,284,282,283,284,282,283,284,282,283,284,282,283,284,282,283,284,282,283,284,282,283,284,282,283,284,282,283,284,323,324,322,323,324,322,323,324,322,323,324,322,323,324,322,323,324,322,323,324,322,323,324,322,323,324,322,323,324,322,323,324,322,323,324,322,323,324,322,323,324,322,323,324,322,323,324,322,323,324,322,323,324,322,323,324,322,323,324,322,323,324,322,323,324,322,323,324,322,323,324,322,323,324,322,323,324,322,323,324,
322,323,324,322,323,324,322,323,324,322,323,324,322,323,324,322,323,324,322,323,324,322,323,324,322,323,324,322,323,324,322,323,324,322,323,324,322,323,324,322,323,324,322,323,324,322,323,324,322,323,324,322,323,324,322,323,324,322,323,324,322,323,324,322,323,324,322,323,324,322,323,324,322,323,324,322,323,324,322,323,324,322,323,324,322,323,324,322,323,324,322,323,324,322,323,324,322,323,324,322,323,324,322,323,324,322,323,324,322,323,324,322,323,324,322,323,324,322,323,324,363,364,362,363,364,362,363,364,362,363,364,362,363,364,362,363,364,362,363,364,362,363,364,362,363,364,362,363,364,362,363,364,362,363,364,362,363,364,362,363,364,362,363,364,362,363,364,362,363,364,362,363,364,362,363,364,362,363,364,362,363,364,362,363,364,362,363,364,362,363,364,362,363,364,362,363,364,362,363,364,
362,363,364,362,363,364,362,363,364,362,363,364,362,363,364,362,363,364,362,363,364,362,363,364,362,363,364,362,363,364,362,363,364,362,363,364,362,363,364,362,363,364,362,363,364,362,363,364,362,363,364,362,363,364,362,363,364,362,363,364,362,363,364,362,363,364,362,363,364,362,363,364,362,363,364,362,363,364,362,363,364,362,363,364,362,363,364,362,363,364,362,363,364,362,363,364,362,363,364,362,363,364,362,363,364,362,363,364,362,363,364,362,363,364,362,363,364,362,363,364,283,284,282,283,284,282,283,284,282,283,284,282,283,284,282,283,284,282,283,284,282,283,284,282,283,284,282,283,284,282,283,284,282,283,284,282,283,284,282,283,284,282,283,284,282,283,284,282,283,284,282,283,284,282,283,284,282,283,284,282,283,284,282,283,284,282,283,284,282,283,284,282,283,284,282,283,284,282,283,284,
282,283,284,282,283,284,282,283,284,282,283,284,282,283,284,282,283,284,282,283,284,282,283,284,282,283,284,282,283,284,282,283,284,282,283,284,282,283,284,282,283,284,282,283,284,282,283,284,282,283,284,282,283,284,282,283,284,282,283,284,282,283,284,282,283,284,282,283,284,282,283,284,282,283,284,282,283,284,282,283,284,282,283,284,282,283,284,282,283,284,282,283,284,282,283,284,282,283,284,282,283,284,282,283,284,282,283,284,282,283,284,282,283,284,282,283,284,282,283,284,323,324,322,323,324,322,323,324,322,323,324,322,323,324,322,323,324,322,323,324,322,323,324,322,323,324,322,323,324,322,323,324,322,323,324,322,323,324,322,323,324,322,323,324,322,323,324,322,323,324,322,323,324,322,323,324,322,323,324,322,323,324,322,323,324,322,323,324,322,323,324,322,323,324,322,323,324,322,323,324,
322,323,324,322,323,324,322,323,324,322,323,324,322,323,324,322,323,324,322,323,324,322,323,324,322,323,324,322,323,324,322,323,324,322,323,324,322,323,324,322,323,324,322,323,324,322,323,324,322,323,324,322,323,324,322,323,324,322,323,324,322,323,324,322,323,324,322,323,324,322,323,324,322,323,324,322,323,324,322,323,324,322,323,324,322,323,324,322,323,324,322,323,324,322,323,324,322,323,324,322,323,324,322,323,324,322,323,324,322,323,324,322,323,324,322,323,324,322,323,324,363,364,362,363,364,362,363,364,362,363,364,362,363,364,362,363,364,362,363,364,362,363,364,362,363,364,362,363,364,362,363,364,362,363,364,362,363,364,362,363,364,362,363,364,362,363,364,362,363,364,362,363,364,362,363,364,362,363,364,362,363,364,362,363,364,362,363,364,362,363,364,362,363,364,362,363,364,362,363,364,
362,363,364,362,363,364,362,363,364,362,363,364,362,363,364,362,363,364,362,363,364,362,363,364,362,363,364,362,363,364,362,363,364,362,363,364,362,363,364,362,363,364,362,363,364,362,363,364,362,363,364,362,363,364,362,363,364,362,363,364,362,363,364,362,363,364,362,363,364,362,363,364,362,363,364,362,363,364,362,363,364,362,363,364,362,363,364,362,363,364,362,363,364,362,363,364,362,363,364,362,363,364,362,363,364,362,363,364,362,363,364,362,363,364,362,363,364,362,363,364,283,284,282,283,284,282,283,284,282,283,284,282,283,284,282,283,284,282,283,284,282,283,284,282,283,284,282,283,284,282,283,284,282,283,284,282,283,284,282,283,284,282,283,284,282,283,284,282,283,284,282,283,284,282,283,284,282,283,284,282,283,284,282,283,284,282,283,284,282,283,284,282,283,284,282,283,284,282,283,284,
282,283,284,282,283,284,282,283,284,282,283,284,282,283,284,282,283,284,282,283,284,282,283,284,282,283,284,282,283,284,282,283,284,282,283,284,282,283,284,282,283,284,282,283,284,282,283,284,282,283,284,282,283,284,282,283,284,282,283,284,282,283,284,282,283,284,282,283,284,282,283,284,282,283,284,282,283,284,282,283,284,282,283,284,282,283,284,282,283,284,282,283,284,282,283,284,282,283,284,282,283,284,282,283,284,282,283,284,282,283,284,282,283,284,282,283,284,282,283,284,323,324,322,323,324,322,323,324,322,323,324,322,323,324,322,323,324,322,323,324,322,323,324,322,323,324,322,323,324,322,323,324,322,323,324,322,323,324,322,323,324,322,323,324,322,323,324,322,323,324,322,323,324,322,323,324,322,323,324,322,323,324,322,323,324,322,323,324,322,323,324,322,323,324,322,323,324,322,323,324,
322,323,324,322,323,324,322,323,324,322,323,324,322,323,324,322,323,324,322,323,324,322,323,324,322,323,324,322,323,324,322,323,324,322,323,324,322,323,324,322,323,324,322,323,324,322,323,324,322,323,324,322,323,324,322,323,324,322,323,324,322,323,324,322,323,324,322,323,324,322,323,324,322,323,324,322,323,324,322,323,324,322,323,324,322,323,324,322,323,324,322,323,324,322,323,324,322,323,324,322,323,324,322,323,324,322,323,324,322,323,324,322,323,324,322,323,324,322,323,324,363,364,362,363,364,362,363,364,362,363,364,362,363,364,362,363,364,362,363,364,362,363,364,362,363,364,362,363,364,362,363,364,362,363,364,362,363,364,362,363,364,362,363,364,362,363,364,362,363,364,362,363,364,362,363,364,362,363,364,362,363,364,362,363,364,362,363,364,362,363,364,362,363,364,362,363,364,362,363,364,
362,363,364,362,363,364,362,363,364,362,363,364,362,363,364,362,363,364,362,363,364,362,363,364,362,363,364,362,363,364,362,363,364,362,363,364,362,363,364,362,363,364,362,363,364,362,363,364,362,363,364,362,363,364,362,363,364,362,363,364,362,363,364,362,363,364,362,363,364,362,363,364,362,363,364,362,363,364,362,363,364,362,363,364,362,363,364,362,363,364,362,363,364,362,363,364,362,363,364,362,363,364,362,363,364,362,363,364,362,363,364,362,363,364,362,363,364,362,363,364,283,284,282,283,284,282,283,284,282,283,284,282,283,284,282,283,284,282,283,284,282,283,284,282,283,284,282,283,284,282,283,284,282,283,284,282,283,284,282,283,284,282,283,284,282,283,284,282,283,284,282,283,284,282,283,284,282,283,284,282,283,284,282,283,284,282,283,284,282,283,284,282,283,284,282,283,284,282,283,284,
282,283,284,282,283,284,282,283,284,282,283,284,282,283,284,282,283,284,282,283,284,282,283,284,282,283,284,282,283,284,282,283,284,282,283,284,282,283,284,282,283,284,282,283,284,282,283,284,282,283,284,282,283,284,282,283,284,282,283,284,282,283,284,282,283,284,282,283,284,282,283,284,282,283,284,282,283,284,282,283,284,282,283,284,282,283,284,282,283,284,282,283,284,282,283,284,282,283,284,282,283,284,282,283,284,282,283,284,282,283,284,282,283,284,282,283,284,282,283,284,323,324,322,323,324,322,323,324,322,323,324,322,323,324,322,323,324,322,323,324,322,323,324,322,323,324,322,323,324,322,323,324,322,323,324,322,323,324,322,323,324,322,323,324,322,323,324,322,323,324,322,323,324,322,323,324,322,323,324,322,323,324,322,323,324,322,323,324,322,323,324,322,323,324,322,323,324,322,323,324,
322,323,324,322,323,324,322,323,324,322,323,324,322,323,324,322,323,324,322,323,324,322,323,324,322,323,324,322,323,324,322,323,324,322,323,324,322,323,324,322,323,324,322,323,324,322,323,324,322,323,324,322,323,324,322,323,324,322,323,324,322,323,324,322,323,324,322,323,324,322,323,324,322,323,324,322,323,324,322,323,324,322,323,324,322,323,324,322,323,324,322,323,324,322,323,324,322,323,324,322,323,324,322,323,324,322,323,324,322,323,324,322,323,324,322,323,324,322,323,324,363,364,362,363,364,362,363,364,362,363,364,362,363,364,362,363,364,362,363,364,362,363,364,362,363,364,362,363,364,362,363,364,362,363,364,362,363,364,362,363,364,362,363,364,362,363,364,362,363,364,362,363,364,362,363,364,362,363,364,362,363,364,362,363,364,362,363,364,362,363,364,362,363,364,362,363,364,362,363,364,
362,363,364,362,363,364,362,363,364,362,363,364,362,363,364,362,363,364,362,363,364,362,363,364,362,363,364,362,363,364,362,363,364,362,363,364,362,363,364,362,363,364,362,363,364,362,363,364,362,363,364,362,363,364,362,363,364,362,363,364,362,363,364,362,363,364,362,363,364,362,363,364,362,363,364,362,363,364,362,363,364,362,363,364,362,363,364,362,363,364,362,363,364,362,363,364,362,363,364,362,363,364,362,363,364,362,363,364,362,363,364,362,363,364,362,363,364,362,363,364,283,284,282,283,284,282,283,284,282,283,284,282,283,284,282,283,284,282,283,284,282,283,284,282,283,284,282,283,284,282,283,284,282,283,284,282,283,284,282,283,284,282,283,284,282,283,284,282,283,284,282,283,284,282,283,284,282,283,284,282,283,284,282,283,284,282,283,284,282,283,284,282,283,284,282,283,284,282,283,284,
282,283,284,282,283,284,282,283,284,282,283,284,282,283,284,282,283,284,282,283,284,282,283,284,282,283,284,282,283,284,282,283,284,282,283,284,282,283,284,282,283,284,282,283,284,282,283,284,282,283,284,282,283,284,282,283,284,282,283,284,282,283,284,282,283,284,282,283,284,282,283,284,282,283,284,282,283,284,282,283,284,282,283,284,282,283,284,282,283,284,282,283,284,282,283,284,282,283,284,282,283,284,282,283,284,282,283,284,282,283,284,282,283,284,282,283,284,282,283,284,323,324,322,323,324,322,323,324,322,323,324,322,323,324,322,323,324,322,323,324,322,323,324,322,323,324,322,323,324,322,323,324,322,323,324,322,323,324,322,323,324,322,323,324,322,323,324,322,323,324,322,323,324,322,323,324,322,323,324,322,323,324,322,323,324,322,323,324,322,323,324,322,323,324,322,323,324,322,323,324,
322,323,324,322,323,324,322,323,324,322,323,324,322,323,324,322,323,324,322,323,324,322,323,324,322,323,324,322,323,324,322,323,324,322,323,324,322,323,324,322,323,324,322,323,324,322,323,324,322,323,324,322,323,324,322,323,324,322,323,324,322,323,324,322,323,324,322,323,324,322,323,324,322,323,324,322,323,324,322,323,324,322,323,324,322,323,324,322,323,324,322,323,324,322,323,324,322,323,324,322,323,324,322,323,324,322,323,324,322,323,324,322,323,324,322,323,324,322,323,324,363,364,362,363,364,362,363,364,362,363,364,362,363,364,362,363,364,362,363,364,362,363,364,362,363,364,362,363,364,362,363,364,362,363,364,362,363,364,362,363,364,362,363,364,362,363,364,362,363,364,362,363,364,362,363,364,362,363,364,362,363,364,362,363,364,362,363,364,362,363,364,362,363,364,362,363,364,362,363,364,
362,363,364,362,363,364,362,363,364,362,363,364,362,363,364,362,363,364,362,363,364,362,363,364,362,363,364,362,363,364,362,363,364,362,363,364,362,363,364,362,363,364,362,363,364,362,363,364,362,363,364,362,363,364,362,363,364,362,363,364,362,363,364,362,363,364,362,363,364,362,363,364,362,363,364,362,363,364,362,363,364,362,363,364,362,363,364,362,363,364,362,363,364,362,363,364,362,363,364,362,363,364,362,363,364,362,363,364,362,363,364,362,363,364,362,363,364,362,363,364,283,284,282,283,284,282,283,284,282,283,284,282,283,284,282,283,284,282,283,284,282,283,284,282,283,284,282,283,284,282,283,284,282,283,284,282,283,284,282,283,284,282,283,284,282,283,284,282,283,284,282,283,284,282,283,284,282,283,284,282,283,284,282,283,284,282,283,284,282,283,284,282,283,284,282,283,284,282,283,284,
282,283,284,282,283,284,282,283,284,282,283,284,282,283,284,282,283,284,282,283,284,282,283,284,282,283,284,282,283,284,282,283,284,282,283,284,282,283,284,282,283,284,282,283,284,282,283,284,282,283,284,282,283,284,282,283,284,282,283,284,282,283,284,282,283,284,282,283,284,282,283,284,282,283,284,282,283,284,282,283,284,282,283,284,282,283,284,282,283,284,282,283,284,282,283,284,282,283,284,282,283,284,282,283,284,282,283,284,282,283,284,282,283,284,282,283,284,282,283,284,323,324,322,323,324,322,323,324,322,323,324,322,323,324,322,323,324,322,323,324,322,323,324,322,323,324,322,323,324,322,323,324,322,323,324,322,323,324,322,323,324,322,323,324,322,323,324,322,323,324,322,323,324,322,323,324,322,323,324,322,323,324,322,323,324,322,323,324,322,323,324,322,323,324,322,323,324,322,323,324,
322,323,324,322,323,324,322,323,324,322,323,324,322,323,324,322,323,324,322,323,324,322,323,324,322,323,324,322,323,324,322,323,324,322,323,324,322,323,324,322,323,324,322,323,324,322,323,324,322,323,324,322,323,324,322,323,324,322,323,324,322,323,324,322,323,324,322,323,324,322,323,324,322,323,324,322,323,324,322,323,324,322,323,324,322,323,324,322,323,324,322,323,324,322,323,324,322,323,324,322,323,324,322,323,324,322,323,324,322,323,324,322,323,324,322,323,324,322,323,324,363,364,362,363,364,362,363,364,362,363,364,362,363,364,362,363,364,362,363,364,362,363,364,362,363,364,362,363,364,362,363,364,362,363,364,362,363,364,362,363,364,362,363,364,362,363,364,362,363,364,362,363,364,362,363,364,362,363,364,362,363,364,362,363,364,362,363,364,362,363,364,362,363,364,362,363,364,362,363,364,
362,363,364,362,363,364,362,363,364,362,363,364,362,363,364,362,363,364,362,363,364,362,363,364,362,363,364,362,363,364,362,363,364,362,363,364,362,363,364,362,363,364,362,363,364,362,363,364,362,363,364,362,363,364,362,363,364,362,363,364,362,363,364,362,363,364,362,363,364,362,363,364,362,363,364,362,363,364,362,363,364,362,363,364,362,363,364,362,363,364,362,363,364,362,363,364,362,363,364,362,363,364,362,363,364,362,363,364,362,363,364,362,363,364,362,363,364,362,363,364,283,284,282,283,284,282,283,284,282,283,284,282,283,284,282,283,284,282,283,284,282,283,284,282,283,284,282,283,284,282,283,284,282,283,284,282,283,284,282,283,284,282,283,284,282,283,284,282,283,284,282,283,284,282,283,284,282,283,284,282,283,284,282,283,284,282,283,284,282,283,284,282,283,284,282,283,284,282,283,284,
282,283,284,282,283,284,282,283,284,282,283,284,282,283,284,282,283,284,282,283,284,282,283,284,282,283,284,282,283,284,282,283,284,282,283,284,282,283,284,282,283,284,282,283,284,282,283,284,282,283,284,282,283,284,282,283,284,282,283,284,282,283,284,282,283,284,282,283,284,282,283,284,282,283,284,282,283,284,282,283,284,282,283,284,282,283,284,282,283,284,282,283,284,282,283,284,282,283,284,282,283,284,282,283,284,282,283,284,282,283,284,282,283,284,282,283,284,282,283,284,323,324,322,323,324,322,323,324,322,323,324,322,323,324,322,323,324,322,323,324,322,323,324,322,323,324,322,323,324,322,323,324,322,323,324,322,323,324,322,323,324,322,323,324,322,323,324,322,323,324,322,323,324,322,323,324,322,323,324,322,323,324,322,323,324,322,323,324,322,323,324,322,323,324,322,323,324,322,323,324,
322,323,324,322,323,324,322,323,324,322,323,324,322,323,324,322,323,324,322,323,324,322,323,324,322,323,324,322,323,324,322,323,324,322,323,324,322,323,324,322,323,324,322,323,324,322,323,324,322,323,324,322,323,324,322,323,324,322,323,324,322,323,324,322,323,324,322,323,324,322,323,324,322,323,324,322,323,324,322,323,324,322,323,324,322,323,324,322,323,324,322,323,324,322,323,324,322,323,324,322,323,324,322,323,324,322,323,324,322,323,324,322,323,324,322,323,324,322,323,324,363,364,362,363,364,362,363,364,362,363,364,362,363,364,362,363,364,362,363,364,362,363,364,362,363,364,362,363,364,362,363,364,362,363,364,362,363,364,362,363,364,362,363,364,362,363,364,362,363,364,362,363,364,362,363,364,362,363,364,362,363,364,362,363,364,362,363,364,362,363,364,362,363,364,362,363,364,362,363,364,
362,363,364,362,363,364,362,363,364,362,363,364,362,363,364,362,363,364,362,363,364,362,363,364,362,363,364,362,363,364,362,363,364,362,363,364,362,363,364,362,363,364,362,363,364,362,363,364,362,363,364,362,363,364,362,363,364,362,363,364,362,363,364,362,363,364,362,363,364,362,363,364,362,363,364,362,363,364,362,363,364,362,363,364,362,363,364,362,363,364,362,363,364,362,363,364,362,363,364,362,363,364,362,363,364,362,363,364,362,363,364,362,363,364,362,363,364,362,363,364,283,284,282,283,284,282,283,284,282,283,284,282,283,284,282,283,284,282,283,284,282,283,284,282,283,284,282,283,284,282,283,284,282,283,284,282,283,284,282,283,284,282,283,284,282,283,284,282,283,284,282,283,284,282,283,284,282,283,284,282,283,284,282,283,284,282,283,284,282,283,284,282,283,284,282,283,284,282,283,284,
282,283,284,282,283,284,282,283,284,282,283,284,282,283,284,282,283,284,282,283,284,282,283,284,282,283,284,282,283,284,282,283,284,282,283,284,282,283,284,282,283,284,282,283,284,282,283,284,282,283,284,282,283,284,282,283,284,282,283,284,282,283,284,282,283,284,282,283,284,282,283,284,282,283,284,282,283,284,282,283,284,282,283,284,282,283,284,282,283,284,282,283,284,282,283,284,282,283,284,282,283,284,282,283,284,282,283,284,282,283,284,282,283,284,282,283,284,282,283,284,323,324,322,323,324,322,323,324,322,323,324,322,323,324,322,323,324,322,323,324,322,323,324,322,323,324,322,323,324,322,323,324,322,323,324,322,323,324,322,323,324,322,323,324,322,323,324,322,323,324,322,323,324,322,323,324,322,323,324,322,323,324,322,323,324,322,323,324,322,323,324,322,323,324,322,323,324,322,323,324,
322,323,324,322,323,324,322,323,324,322,323,324,322,323,324,322,323,324,322,323,324,322,323,324,322,323,324,322,323,324,322,323,324,322,323,324,322,323,324,322,323,324,322,323,324,322,323,324,322,323,324,322,323,324,322,323,324,322,323,324,322,323,324,322,323,324,322,323,324,322,323,324,322,323,324,322,323,324,322,323,324,322,323,324,322,323,324,322,323,324,322,323,324,322,323,324,322,323,324,322,323,324,322,323,324,322,323,324,322,323,324,322,323,324,322,323,324,322,323,324,363,364,362,363,364,362,363,364,362,363,364,362,363,364,362,363,364,362,363,364,362,363,364,362,363,364,362,363,364,362,363,364,362,363,364,362,363,364,362,363,364,362,363,364,362,363,364,362,363,364,362,363,364,362,363,364,362,363,364,362,363,364,362,363,364,362,363,364,362,363,364,362,363,364,362,363,364,362,363,364,
362,363,364,362,363,364,362,363,364,362,363,364,362,363,364,362,363,364,362,363,364,362,363,364,362,363,364,362,363,364,362,363,364,362,363,364,362,363,364,362,363,364,362,363,364,362,363,364,362,363,364,362,363,364,362,363,364,362,363,364,362,363,364,362,363,364,362,363,364,362,363,364,362,363,364,362,363,364,362,363,364,362,363,364,362,363,364,362,363,364,362,363,364,362,363,364,362,363,364,362,363,364,362,363,364,362,363,364,362,363,364,362,363,364,362,363,364,362,363,364,283,284,282,283,284,282,283,284,282,283,284,282,283,284,282,283,284,282,283,284,282,283,284,282,283,284,282,283,284,282,283,284,282,283,284,282,283,284,282,283,284,282,283,284,282,283,284,282,283,284,282,283,284,282,283,284,282,283,284,282,283,284,282,283,284,282,283,284,282,283,284,282,283,284,282,283,284,282,283,284,
282,283,284,282,283,284,282,283,284,282,283,284,282,283,284,282,283,284,282,283,284,282,283,284,282,283,284,282,283,284,282,283,284,282,283,284,282,283,284,282,283,284,282,283,284,282,283,284,282,283,284,282,283,284,282,283,284,282,283,284,282,283,284,282,283,284,282,283,284,282,283,284,282,283,284,282,283,284,282,283,284,282,283,284,282,283,284,282,283,284,282,283,284,282,283,284,282,283,284,282,283,284,282,283,284,282,283,284,282,283,284,282,283,284,282,283,284,282,283,284,323,324,322,323,324,322,323,324,322,323,324,322,323,324,322,323,324,322,323,324,322,323,324,322,323,324,322,323,324,322,323,324,322,323,324,322,323,324,322,323,324,322,323,324,322,323,324,322,323,324,322,323,324,322,323,324,322,323,324,322,323,324,322,323,324,322,323,324,322,323,324,322,323,324,322,323,324,322,323,324,
322,323,324,322,323,324,322,323,324,322,323,324,322,323,324,322,323,324,322,323,324,322,323,324,322,323,324,322,323,324,322,323,324,322,323,324,322,323,324,322,323,324,322,323,324,322,323,324,322,323,324,322,323,324,322,323,324,322,323,324,322,323,324,322,323,324,322,323,324,322,323,324,322,323,324,322,323,324,322,323,324,322,323,324,322,323,324,322,323,324,322,323,324,322,323,324,322,323,324,322,323,324,322,323,324,322,323,324,322,323,324,322,323,324,322,323,324,322,323,324,363,364,362,363,364,362,363,364,362,363,364,362,363,364,362,363,364,362,363,364,362,363,364,362,363,364,362,363,364,362,363,364,362,363,364,362,363,364,362,363,364,362,363,364,362,363,364,362,363,364,362,363,364,362,363,364,362,363,364,362,363,364,362,363,364,362,363,364,362,363,364,362,363,364,362,363,364,362,363,364,
362,363,364,362,363,364,362,363,364,362,363,364,362,363,364,362,363,364,362,363,364,362,363,364,362,363,364,362,363,364,362,363,364,362,363,364,362,363,364,362,363,364,362,363,364,362,363,364,362,363,364,362,363,364,362,363,364,362,363,364,362,363,364,362,363,364,362,363,364,362,363,364,362,363,364,362,363,364,362,363,364,362,363,364,362,363,364,362,363,364,362,363,364,362,363,364,362,363,364,362,363,364,362,363,364,362,363,364,362,363,364,362,363,364,362,363,364,362,363,364,283,284,282,283,284,282,283,284,282,283,284,282,283,284,282,283,284,282,283,284,282,283,284,282,283,284,282,283,284,282,283,284,282,283,284,282,283,284,282,283,284,282,283,284,282,283,284,282,283,284,282,283,284,282,283,284,282,283,284,282,283,284,282,283,284,282,283,284,282,283,284,282,283,284,282,283,284,282,283,284,
282,283,284,282,283,284,282,283,284,282,283,284,282,283,284,282,283,284,282,283,284,282,283,284,282,283,284,282,283,284,282,283,284,282,283,284,282,283,284,282,283,284,282,283,284,282,283,284,282,283,284,282,283,284,282,283,284,282,283,284,282,283,284,282,283,284,282,283,284,282,283,284,282,283,284,282,283,284,282,283,284,282,283,284,282,283,284,282,283,284,282,283,284,282,283,284,282,283,284,282,283,284,282,283,284,282,283,284,282,283,284,282,283,284,282,283,284,282,283,284,323,324,322,323,324,322,323,324,322,323,324,322,323,324,322,323,324,322,323,324,322,323,324,322,323,324,322,323,324,322,323,324,322,323,324,322,323,324,322,323,324,322,323,324,322,323,324,322,323,324,322,323,324,322,323,324,322,323,324,322,323,324,322,323,324,322,323,324,322,323,324,322,323,324,322,323,324,322,323,324,
322,323,324,322,323,324,322,323,324,322,323,324,322,323,324,322,323,324,322,323,324,322,323,324,322,323,324,322,323,324,322,323,324,322,323,324,322,323,324,322,323,324,322,323,324,322,323,324,322,323,324,322,323,324,322,323,324,322,323,324,322,323,324,322,323,324,322,323,324,322,323,324,322,323,324,322,323,324,322,323,324,322,323,324,322,323,324,322,323,324,322,323,324,322,323,324,322,323,324,322,323,324,322,323,324,322,323,324,322,323,324,322,323,324,322,323,324,322,323,324,363,364,362,363,364,362,363,364,362,363,364,362,363,364,362,363,364,362,363,364,362,363,364,362,363,364,362,363,364,362,363,364,362,363,364,362,363,364,362,363,364,362,363,364,362,363,364,362,363,364,362,363,364,362,363,364,362,363,364,362,363,364,362,363,364,362,363,364,362,363,364,362,363,364,362,363,364,362,363,364,
362,363,364,362,363,364,362,363,364,362,363,364,362,363,364,362,363,364,362,363,364,362,363,364,362,363,364,362,363,364,362,363,364,362,363,364,362,363,364,362,363,364,362,363,364,362,363,364,362,363,364,362,363,364,362,363,364,362,363,364,362,363,364,362,363,364,362,363,364,362,363,364,362,363,364,362,363,364,362,363,364,362,363,364,362,363,364,362,363,364,362,363,364,362,363,364,362,363,364,362,363,364,362,363,364,362,363,364,362,363,364,362,363,364,362,363,364,362,363,364,283,284,282,283,284,282,283,284,282,283,284,282,283,284,282,283,284,282,283,284,282,283,284,282,283,284,282,283,284,282,283,284,282,283,284,282,283,284,282,283,284,282,283,284,282,283,284,282,283,284,282,283,284,282,283,284,282,283,284,282,283,284,282,283,284,282,283,284,282,283,284,282,283,284,282,283,284,282,283,284,
282,283,284,282,283,284,282,283,284,282,283,284,282,283,284,282,283,284,282,283,284,282,283,284,282,283,284,282,283,284,282,283,284,282,283,284,282,283,284,282,283,284,282,283,284,282,283,284,282,283,284,282,283,284,282,283,284,282,283,284,282,283,284,282,283,284,282,283,284,282,283,284,282,283,284,282,283,284,282,283,284,282,283,284,282,283,284,282,283,284,282,283,284,282,283,284,282,283,284,282,283,284,282,283,284,282,283,284,282,283,284,282,283,284,282,283,284,282,283,284,323,324,322,323,324,322,323,324,322,323,324,322,323,324,322,323,324,322,323,324,322,323,324,322,323,324,322,323,324,322,323,324,322,323,324,322,323,324,322,323,324,322,323,324,322,323,324,322,323,324,322,323,324,322,323,324,322,323,324,322,323,324,322,323,324,322,323,324,322,323,324,322,323,324,322,323,324,322,323,324,
322,364,324,322,364,324,322,364,324,322,364,324,322,364,324,322,364,324,322,364,324,322,364,324,322,364,324,322,364,324,322,364,324,322,364,324,322,364,324,322,364,324,322,364,324,322,364,324,322,364,324,322,364,324,322,364,324,322,364,324,322,364,324,322,364,324,322,364,324,322,364,324,322,364,324,322,364,324,322,364,324,322,364,324,322,364,324,322,364,324,322,364,324,322,364,324,322,364,324,322,364,324,322,364,324,322,364,324,322,364,324,322,364,324,322,364,324,322,364,324,363,364,362,363,364,362,363,364,362,363,364,362,363,364,362,363,364,362,363,364,362,363,364,362,363,364,362,363,364,362,363,364,362,363,364,362,363,364,362,363,364,362,363,364,362,363,364,362,363,364,362,363,364,362,363,364,362,363,364,362,363,364,362,363,364,362,363,364,362,363,364,362,363,364,362,363,364,362,363,364,
283,284,282,283,284,282,283,284,282,283,284,282,283,284,282,283,284,282,283,284,282,283,284,282,283,284,282,283,284,282,283,284,282,283,284,282,283,284,282,283,284,282,283,284,282,283,284,282,283,284,282,283,284,282,283,284,282,283,284,282,283,284,282,283,284,282,283,284,282,283,284,282,283,284,282,283,284,282,283,284,282,283,284,282,283,284,282,283,284,282,283,284,282,283,284,282,283,284,282,283,284,282,283,284,282,283,284,282,283,284,282,283,284,282,283,284,282,283,284,282,283,284,282,283,284,282,283,284,282,283,284,282,283,284,282,283,284,282,283,284,282,283,284,282,283,284,282,283,284,282,283,284,282,283,284,282,283,284,282,283,284,282,283,284,282,283,284,282,283,284,282,283,284,282,283,284,282,283,284,282,283,284,282,283,284,282,283,284,282,283,284,282,283,284,282,283,284,282,283,284,
323,324,322,323,324,322,323,324,322,323,324,322,323,324,322,323,324,322,323,324,322,323,324,322,323,324,322,323,324,322,323,324,322,323,324,322,323,324,322,323,324,322,323,324,322,323,324,322,323,324,322,323,324,322,323,324,322,323,324,322,323,324,322,323,324,322,323,324,322,323,324,322,323,324,322,323,324,322,323,324,322,323,324,322,323,324,322,323,324,322,323,324,322,323,324,322,323,324,322,323,324,322,323,324,322,323,324,322,323,324,322,323,324,322,323,324,322,323,324,322,323,324,322,323,324,322,323,324,322,323,324,322,323,324,322,323,324,322,323,324,322,323,324,322,323,324,322,323,324,322,323,324,322,323,324,322,323,324,322,323,324,322,323,324,322,323,324,322,323,324,322,323,324,322,323,324,322,323,324,322,323,324,322,323,324,322,323,324,322,323,324,322,323,324,322,323,324,322,323,324,
363,364,362,363,364,362,363,364,362,363,364,362,363,364,362,363,364,362,363,364,362,363,364,362,363,364,362,363,364,362,363,364,362,363,364,362,363,364,362,363,364,362,363,364,362,363,364,362,363,364,362,363,364,362,363,364,362,363,364,362,363,364,362,363,364,362,363,364,362,363,364,362,363,364,362,363,364,362,363,364,362,363,364,362,363,364,362,363,364,362,363,364,362,363,364,362,363,364,362,363,364,362,363,364,362,363,364,362,363,364,362,363,364,362,363,364,362,363,364,362,363,364,362,363,364,362,363,364,362,363,364,362,363,364,362,363,364,362,363,364,362,363,364,362,363,364,362,363,364,362,363,364,362,363,364,362,363,364,362,363,364,362,363,364,362,363,364,362,363,364,362,363,364,362,363,364,362,363,364,362,363,364,362,363,364,362,363,364,362,363,364,362,363,364,362,363,364,362,363,364,
283,284,282,283,284,282,283,284,282,283,284,282,283,284,282,283,284,282,283,284,282,283,284,282,283,284,282,283,284,282,283,284,282,283,284,282,283,284,282,283,284,282,283,284,282,283,284,282,283,284,282,283,284,282,283,284,282,283,284,282,283,284,282,283,284,282,283,284,282,283,284,282,283,284,282,283,284,282,283,284,282,283,284,282,283,284,282,283,284,282,283,284,282,283,284,282,283,284,282,283,284,282,283,284,282,283,284,282,283,284,282,283,284,282,283,284,282,283,284,282,283,284,282,283,284,282,283,284,282,283,284,282,283,284,282,283,284,282,283,284,282,283,284,282,283,284,282,283,284,282,283,284,282,283,284,282,283,284,282,283,284,282,283,284,282,283,284,282,283,284,282,283,284,282,283,284,282,283,284,282,283,284,282,283,284,282,283,284,282,283,284,282,283,284,282,283,284,282,283,284,
323,324,322,323,324,322,323,324,322,323,324,322,323,324,322,323,324,322,323,324,322,323,324,322,323,324,322,323,324,322,323,324,322,323,324,322,323,324,322,323,324,322,323,324,322,323,324,322,323,324,322,323,324,322,323,324,322,323,324,322,323,324,322,323,324,322,323,324,322,323,324,322,323,324,322,323,324,322,323,324,322,323,324,322,323,324,322,323,324,322,323,324,322,323,324,322,323,324,322,323,324,322,323,324,322,323,324,322,323,324,322,323,324,322,323,324,322,323,324,322,323,324,322,323,324,322,323,324,322,323,324,322,323,324,322,323,324,322,323,324,322,323,324,322,323,324,322,323,324,322,323,324,322,323,324,322,323,324,322,323,324,322,323,324,322,323,324,322,323,324,322,323,324,322,323,324,322,323,324,322,323,324,322,323,324,322,323,324,322,323,324,322,323,324,322,323,324,322,323,324,
363,364,362,363,364,362,363,364,362,363,364,362,363,364,362,363,364,362,363,364,362,363,364,362,363,364,362,363,364,362,363,364,362,363,364,362,363,364,362,363,364,362,363,364,362,363,364,362,363,364,362,363,364,362,363,364,362,363,364,362,363,364,362,363,364,362,363,364,362,363,364,362,363,364,362,363,364,362,363,364,362,363,364,362,363,364,362,363,364,362,363,364,362,363,364,362,363,364,362,363,364,362,363,364,362,363,364,362,363,364,362,363,364,362,363,364,362,363,364,362,363,364,362,363,364,362,363,364,362,363,364,362,363,364,362,363,364,362,363,364,362,363,364,362,363,364,362,363,364,362,363,364,362,363,364,362,363,364,362,363,364,362,363,364,362,363,364,362,363,364,362,363,364,362,363,364,362,363,364,362,363,364,362,363,364,362,363,364,362,363,364,362,363,364,362,363,364,362,363,364,
283,284,282,283,284,282,283,284,282,283,284,282,283,284,282,283,284,282,283,284,282,283,284,282,283,284,282,283,284,282,283,284,282,283,284,282,283,284,282,283,284,282,283,284,282,283,284,282,283,284,282,283,284,282,283,284,282,283,284,282,283,284,282,283,284,282,283,284,282,283,284,282,283,284,282,283,284,282,283,284,282,283,284,282,283,284,282,283,284,282,283,284,282,283,284,282,283,284,282,283,284,282,283,284,282,283,284,282,283,284,282,283,284,282,283,284,282,283,284,282,283,284,282,283,284,282,283,284,282,283,284,282,283,284,282,283,284,282,283,284,282,283,284,282,283,284,282,283,284,282,283,284,282,283,284,282,283,284,282,283,284,282,283,284,282,283,284,282,283,284,282,283,284,282,283,284,282,283,284,282,283,284,282,283,284,282,283,284,282,283,284,282,283,284,282,283,284,282,283,284,
323,324,322,323,324,322,323,324,322,323,324,322,323,324,322,323,324,322,323,324,322,323,324,322,323,324,322,323,324,322,323,324,322,323,324,322,323,324,322,323,324,322,323,324,322,323,324,322,323,324,322,323,324,322,323,324,322,323,324,322,323,324,322,323,324,322,323,324,322,323,324,322,323,324,322,323,324,322,323,324,322,323,324,322,323,324,322,323,324,322,323,324,322,323,324,322,323,324,322,323,324,322,323,324,322,323,324,322,323,324,322,323,324,322,323,324,322,323,324,322,323,324,322,323,324,322,323,324,322,323,324,322,323,324,322,323,324,322,323,324,322,323,324,322,323,324,322,323,324,322,323,324,322,323,324,322,323,324,322,323,324,322,323,324,322,323,324,322,323,324,322,323,324,322,323,324,322,323,324,322,323,324,322,323,324,322,323,324,322,323,324,322,323,324,322,323,324,322,323,324,
363,364,362,363,364,362,363,364,362,363,364,362,363,364,362,363,364,362,363,364,362,363,364,362,363,364,362,363,364,362,363,364,362,363,364,362,363,364,362,363,364,362,363,364,362,363,364,362,363,364,362,363,364,362,363,364,362,363,364,362,363,364,362,363,364,362,363,364,362,363,364,362,363,364,362,363,364,362,363,364,362,363,364,362,363,364,362,363,364,362,363,364,362,363,364,362,363,364,362,363,364,362,363,364,362,363,364,362,363,364,362,363,364,362,363,364,362,363,364,362,363,364,362,363,364,362,363,364,362,363,364,362,363,364,362,363,364,362,363,364,362,363,364,362,363,364,362,363,364,362,363,364,362,363,364,362,363,364,362,363,364,362,363,364,362,363,364,362,363,364,362,363,364,362,363,364,362,363,364,362,363,364,362,363,364,362,363,364,362,363,364,362,363,364,362,363,364,362,363,364,
283,284,282,283,284,282,283,284,282,283,284,282,283,284,282,283,284,282,283,284,282,283,284,282,283,284,282,283,284,282,283,284,282,283,284,282,283,284,282,283,284,282,283,284,282,283,284,282,283,284,282,283,284,282,283,284,282,283,284,282,283,284,282,283,284,282,283,284,282,283,284,282,283,284,282,283,284,282,283,284,282,283,284,282,283,284,282,283,284,282,283,284,282,283,284,282,283,284,282,283,284,282,283,284,282,283,284,282,283,284,282,283,284,282,283,284,282,283,284,282,283,284,282,283,284,282,283,284,282,283,284,282,283,284,282,283,284,282,283,284,282,283,284,282,283,284,282,283,284,282,283,284,282,283,284,282,283,284,282,283,284,282,283,284,282,283,284,282,283,284,282,283,284,282,283,284,282,283,284,282,283,284,282,283,284,282,283,284,282,283,284,282,283,284,282,283,284,282,283,284,
323,324,322,323,324,322,323,324,322,323,324,322,323,324,322,323,324,322,323,324,322,323,324,322,323,324,322,323,324,322,323,324,322,323,324,322,323,324,322,323,324,322,323,324,322,323,324,322,323,324,322,323,324,322,323,324,322,323,324,322,323,324,322,323,324,322,323,324,322,323,324,322,323,324,322,323,324,322,323,324,322,323,324,322,323,324,322,323,324,322,323,324,322,323,324,322,323,324,322,323,324,322,323,324,322,323,324,322,323,324,322,323,324,322,323,324,322,323,324,322,323,324,322,323,324,322,323,324,322,323,324,322,323,324,322,323,324,322,323,324,322,323,324,322,323,324,322,323,324,322,323,324,322,323,324,322,323,324,322,323,324,322,323,324,322,323,324,322,323,324,322,323,324,322,323,324,322,323,324,322,323,324,322,323,324,322,323,324,322,323,324,322,323,324,322,323,324,322,323,324,
363,364,362,363,364,362,363,364,362,363,364,362,363,364,362,363,364,362,363,364,362,363,364,362,363,364,362,363,364,362,363,364,362,363,364,362,363,364,362,363,364,362,363,364,362,363,364,362,363,364,362,363,364,362,363,364,362,363,364,362,363,364,362,363,364,362,363,364,362,363,364,362,363,364,362,363,364,362,363,364,362,363,364,362,363,364,362,363,364,362,363,364,362,363,364,362,363,364,362,363,364,362,363,364,362,363,364,362,363,364,362,363,364,362,363,364,362,363,364,362,363,364,362,363,364,362,363,364,362,363,364,362,363,364,362,363,364,362,363,364,362,363,364,362,363,364,362,363,364,362,363,364,362,363,364,362,363,364,362,363,364,362,363,364,362,363,364,362,363,364,362,363,364,362,363,364,362,363,364,362,363,364,362,363,364,362,363,364,362,363,364,362,363,364,362,363,364,362,363,364,
283,284,282,283,284,282,283,284,282,283,284,282,283,284,282,283,284,282,283,284,282,283,284,282,283,284,282,283,284,282,283,284,282,283,284,282,283,284,282,283,284,282,283,284,282,283,284,282,283,284,282,283,284,282,283,284,282,283,284,282,283,284,282,283,284,282,283,284,282,283,284,282,283,284,282,283,284,282,283,284,282,283,284,282,283,284,282,283,284,282,283,284,282,283,284,282,283,284,282,283,284,282,283,284,282,283,284,282,283,284,282,283,284,282,283,284,282,283,284,282,283,284,282,283,284,282,283,284,282,283,284,282,283,284,282,283,284,282,283,284,282,283,284,282,283,284,282,283,284,282,283,284,282,283,284,282,283,284,282,283,284,282,283,284,282,283,284,282,283,284,282,283,284,282,283,284,282,283,284,282,283,284,282,283,284,282,283,284,282,283,284,282,283,284,282,283,284,282,283,284,
323,324,322,323,324,322,323,324,322,323,324,322,323,324,322,323,324,322,323,324,322,323,324,322,323,324,322,323,324,322,323,324,322,323,324,322,323,324,322,323,324,322,323,324,322,323,324,322,323,324,322,323,324,322,323,324,322,323,324,322,323,324,322,323,324,322,323,324,322,323,324,322,323,324,322,323,324,322,323,324,322,323,324,322,323,324,322,323,324,322,323,324,322,323,324,322,323,324,322,323,324,322,323,324,322,323,324,322,323,324,322,323,324,322,323,324,322,323,324,322,323,324,322,323,324,322,323,324,322,323,324,322,323,324,322,323,324,322,323,324,322,323,324,322,323,324,322,323,324,322,323,324,322,323,324,322,323,324,322,323,324,322,323,324,322,323,324,322,323,324,322,323,324,322,323,324,322,323,324,322,323,324,322,323,324,322,323,324,322,323,324,322,323,324,322,323,324,322,323,324,
363,364,362,363,364,362,363,364,362,363,364,362,363,364,362,363,364,362,363,364,362,363,364,362,363,364,362,363,364,362,363,364,362,363,364,362,363,364,362,363,364,362,363,364,362,363,364,362,363,364,362,363,364,362,363,364,362,363,364,362,363,364,362,363,364,362,363,364,362,363,364,362,363,364,362,363,364,362,363,364,362,363,364,362,363,364,362,363,364,362,363,364,362,363,364,362,363,364,362,363,364,362,363,364,362,363,364,362,363,364,362,363,364,362,363,364,362,363,364,362,363,364,362,363,364,362,363,364,362,363,364,362,363,364,362,363,364,362,363,364,362,363,364,362,363,364,362,363,364,362,363,364,362,363,364,362,363,364,362,363,364,362,363,364,362,363,364,362,363,364,362,363,364,362,363,364,362,363,364,362,363,364,362,363,364,362,363,364,362,363,364,362,363,364,362,363,364,362,363,364,
283,284,282,283,284,282,283,284,282,283,284,282,283,284,282,283,284,282,283,284,282,283,284,282,283,284,282,283,284,282,283,284,282,283,284,282,283,284,282,283,284,282,283,284,282,283,284,282,283,284,282,283,284,282,283,284,282,283,284,282,283,284,282,283,284,282,283,284,282,283,284,282,283,284,282,283,284,282,283,284,282,283,284,282,283,284,282,283,284,282,283,284,282,283,284,282,283,284,282,283,284,282,283,284,282,283,284,282,283,284,282,283,284,282,283,284,282,283,284,282,283,284,282,283,284,282,283,284,282,283,284,282,283,284,282,283,284,282,283,284,282,283,284,282,283,284,282,283,284,282,283,284,282,283,284,282,283,284,282,283,284,282,283,284,282,283,284,282,283,284,282,283,284,282,283,284,282,283,284,282,283,284,282,283,284,282,283,284,282,283,284,282,283,284,282,283,284,282,283,284,
323,324,322,323,324,322,323,324,322,323,324,322,323,324,322,323,324,322,323,324,322,323,324,322,323,324,322,323,324,322,323,324,322,323,324,322,323,324,322,323,324,322,323,324,322,323,324,322,323,324,322,323,324,322,323,324,322,323,324,322,323,324,322,323,324,322,323,324,322,323,324,322,323,324,322,323,324,322,323,324,322,323,324,322,323,324,322,323,324,322,323,324,322,323,324,322,323,324,322,323,324,322,323,324,322,323,324,322,323,324,322,323,324,322,323,324,322,323,324,322,323,324,322,323,324,322,323,324,322,323,324,322,323,324,322,323,324,322,323,324,322,323,324,322,323,324,322,323,324,322,323,324,322,323,324,322,323,324,322,323,324,322,323,324,322,323,324,322,323,324,322,323,324,322,323,324,322,323,324,322,323,324,322,323,324,322,323,324,322,323,324,322,323,324,322,323,324,322,323,324,
363,364,362,363,364,362,363,364,362,363,364,362,363,364,362,363,364,362,363,364,362,363,364,362,363,364,362,363,364,362,363,364,362,363,364,362,363,364,362,363,364,362,363,364,362,363,364,362,363,364,362,363,364,362,363,364,362,363,364,362,363,364,362,363,364,362,363,364,362,363,364,362,363,364,362,363,364,362,363,364,362,363,364,362,363,364,362,363,364,362,363,364,362,363,364,362,363,364,362,363,364,362,363,364,362,363,364,362,363,364,362,363,364,362,363,364,362,363,364,362,363,364,362,363,364,362,363,364,362,363,364,362,363,364,362,363,364,362,363,364,362,363,364,362,363,364,362,363,364,362,363,364,362,363,364,362,363,364,362,363,364,362,363,364,362,363,364,362,363,364,362,363,364,362,363,364,362,363,364,362,363,364,362,363,364,362,363,364,362,363,364,362,363,364,362,363,364,362,363,364,
283,284,282,283,284,282,283,284,282,283,284,282,283,284,282,283,284,282,283,284,282,283,284,282,283,284,282,283,284,282,283,284,282,283,284,282,283,284,282,283,284,282,283,284,282,283,284,282,283,284,282,283,284,282,283,284,282,283,284,282,283,284,282,283,284,282,283,284,282,283,284,282,283,284,282,283,284,282,283,284,282,283,284,282,283,284,282,283,284,282,283,284,282,283,284,282,283,284,282,283,284,282,283,284,282,283,284,282,283,284,282,283,284,282,283,284,282,283,284,282,283,284,282,283,284,282,283,284,282,283,284,282,283,284,282,283,284,282,283,284,282,283,284,282,283,284,282,283,284,282,283,284,282,283,284,282,283,284,282,283,284,282,283,284,282,283,284,282,283,284,282,283,284,282,283,284,282,283,284,282,283,284,282,283,284,282,283,284,282,283,284,282,283,284,282,283,284,282,283,284,
323,324,322,323,324,322,323,324,322,323,324,322,323,324,322,323,324,322,323,324,322,323,324,322,323,324,322,323,324,322,323,324,322,323,324,322,323,324,322,323,324,322,323,324,322,323,324,322,323,324,322,323,324,322,323,324,322,323,324,322,323,324,322,323,324,322,323,324,322,323,324,322,323,324,322,323,324,322,323,324,322,323,324,322,323,324,322,323,324,322,323,324,322,323,324,322,323,324,322,323,324,322,323,324,322,323,324,322,323,324,322,323,324,322,323,324,322,323,324,322,323,324,322,323,324,322,323,324,322,323,324,322,323,324,322,323,324,322,323,324,322,323,324,322,323,324,322,323,324,322,323,324,322,323,324,322,323,324,322,323,324,322,323,324,322,323,324,322,323,324,322,323,324,322,323,324,322,323,324,322,323,324,322,323,324,322,323,324,322,323,324,322,323,324,322,323,324,322,323,324,
363,364,362,363,364,362,363,364,362,363,364,362,363,364,362,363,364,362,363,364,362,363,364,362,363,364,362,363,364,362,363,364,362,363,364,362,363,364,362,363,364,362,363,364,362,363,364,362,363,364,362,363,364,362,363,364,362,363,364,362,363,364,362,363,364,362,363,364,362,363,364,362,363,364,362,363,364,362,363,364,362,363,364,362,363,364,362,363,364,362,363,364,362,363,364,362,363,364,362,363,364,362,363,364,362,363,364,362,363,364,362,363,364,362,363,364,362,363,364,362,363,364,362,363,364,362,363,364,362,363,364,362,363,364,362,363,364,362,363,364,362,363,364,362,363,364,362,363,364,362,363,364,362,363,364,362,363,364,362,363,364,362,363,364,362,363,364,362,363,364,362,363,364,362,363,364,362,363,364,362,363,364,362,363,364,362,363,364,362,363,364,362,363,364,362,363,364,362,363,364,
283,284,282,283,284,282,283,284,282,283,284,282,283,284,282,283,284,282,283,284,282,283,284,282,283,284,282,283,284,282,283,284,282,283,284,282,283,284,282,283,284,282,283,284,282,283,284,282,283,284,282,283,284,282,283,284,282,283,284,282,283,284,282,283,284,282,283,284,282,283,284,282,283,284,282,283,284,282,283,284,282,283,284,282,283,284,282,283,284,282,283,284,282,283,284,282,283,284,282,283,284,282,283,284,282,283,284,282,283,284,282,283,284,282,283,284,282,283,284,282,283,284,282,283,284,282,283,284,282,283,284,282,283,284,282,283,284,282,283,284,282,283,284,282,283,284,282,283,284,282,283,284,282,283,284,282,283,284,282,283,284,282,283,284,282,283,284,282,283,284,282,283,284,282,283,284,282,283,284,282,283,284,282,283,284,282,283,284,282,283,284,282,283,284,282,283,284,282,283,284,
323,324,322,323,324,322,323,324,322,323,324,322,323,324,322,323,324,322,323,324,322,323,324,322,323,324,322,323,324,322,323,324,322,323,324,322,323,324,322,323,324,322,323,324,322,323,324,322,323,324,322,323,324,322,323,324,322,323,324,322,323,324,322,323,324,322,323,324,322,323,324,322,323,324,322,323,324,322,323,324,322,323,324,322,323,324,322,323,324,322,323,324,322,323,324,322,323,324,322,323,324,322,323,324,322,323,324,322,323,324,322,323,324,322,323,324,322,323,324,322,323,324,322,323,324,322,323,324,322,323,324,322,323,324,322,323,324,322,323,324,322,323,324,322,323,324,322,323,324,322,323,324,322,323,324,322,323,324,322,323,324,322,323,324,322,323,324,322,323,324,322,323,324,322,323,324,322,323,324,322,323,324,322,323,324,322,323,324,322,323,324,322,323,324,322,323,324,322,323,324,
363,364,362,363,364,362,363,364,362,363,364,362,363,364,362,363,364,362,363,364,362,363,364,362,363,364,362,363,364,362,363,364,362,363,364,362,363,364,362,363,364,362,363,364,362,363,364,362,363,364,362,363,364,362,363,364,362,363,364,362,363,364,362,363,364,362,363,364,362,363,364,362,363,364,362,363,364,362,363,364,362,363,364,362,363,364,362,363,364,362,363,364,362,363,364,362,363,364,362,363,364,362,363,364,362,363,364,362,363,364,362,363,364,362,363,364,362,363,364,362,363,364,362,363,364,362,363,364,362,363,364,362,363,364,362,363,364,362,363,364,362,363,364,362,363,364,362,363,364,362,363,364,362,363,364,362,363,364,362,363,364,362,363,364,362,363,364,362,363,364,362,363,364,362,363,364,362,363,364,362,363,364,362,363,364,362,363,364,362,363,364,362,363,364,362,363,364,362,363,364,
283,284,282,283,284,282,283,284,282,283,284,282,283,284,282,283,284,282,283,284,282,283,284,282,283,284,282,283,284,282,283,284,282,283,284,282,283,284,282,283,284,282,283,284,282,283,284,282,283,284,282,283,284,282,283,284,282,283,284,282,283,284,282,283,284,282,283,284,282,283,284,282,283,284,282,283,284,282,283,284,282,283,284,282,283,284,282,283,284,282,283,284,282,283,284,282,283,284,282,283,284,282,283,284,282,283,284,282,283,284,282,283,284,282,283,284,282,283,284,282,283,284,282,283,284,282,283,284,282,283,284,282,283,284,282,283,284,282,283,284,282,283,284,282,283,284,282,283,284,282,283,284,282,283,284,282,283,284,282,283,284,282,283,284,282,283,284,282,283,284,282,283,284,282,283,284,282,283,284,282,283,284,282,283,284,282,283,284,282,283,284,282,283,284,282,283,284,282,283,284,
323,324,322,323,324,322,323,324,322,323,324,322,323,324,322,323,324,322,323,324,322,323,324,322,323,324,322,323,324,322,323,324,322,323,324,322,323,324,322,323,324,322,323,324,322,323,324,322,323,324,322,323,324,322,323,324,322,323,324,322,323,324,322,323,324,322,323,324,322,323,324,322,323,324,322,323,324,322,323,324,322,323,324,322,323,324,322,323,324,322,323,324,322,323,324,322,323,324,322,323,324,322,323,324,322,323,324,322,323,324,322,323,324,322,323,324,322,323,324,322,323,324,322,323,324,322,323,324,322,323,324,322,323,324,322,323,324,322,323,324,322,323,324,322,323,324,322,323,324,322,323,324,322,323,324,322,323,324,322,323,324,322,323,324,322,323,324,322,323,324,322,323,324,322,323,324,322,323,324,322,323,324,322,323,324,322,323,324,322,323,324,322,323,324,322,323,324,322,323,324,
363,364,362,363,364,362,363,364,362,363,364,362,363,364,362,363,364,362,363,364,362,363,364,362,363,364,362,363,364,362,363,364,362,363,364,362,363,364,362,363,364,362,363,364,362,363,364,362,363,364,362,363,364,362,363,364,362,363,364,362,363,364,362,363,364,362,363,364,362,363,364,362,363,364,362,363,364,362,363,364,362,363,364,362,363,364,362,363,364,362,363,364,362,363,364,362,363,364,362,363,364,362,363,364,362,363,364,362,363,364,362,363,364,362,363,364,362,363,364,362,363,364,362,363,364,362,363,364,362,363,364,362,363,364,362,363,364,362,363,364,362,363,364,362,363,364,362,363,364,362,363,364,362,363,364,362,363,364,362,363,364,362,363,364,362,363,364,362,363,364,362,363,364,362,363,364,362,363,364,362,363,364,362,363,364,362,363,364,362,363,364,362,363,364,362,363,364,362,363,364,
283,284,282,283,284,282,283,284,282,283,284,282,283,284,282,283,284,282,283,284,282,283,284,282,283,284,282,283,284,282,283,284,282,283,284,282,283,284,282,283,284,282,283,284,282,283,284,282,283,284,282,283,284,282,283,284,282,283,284,282,283,284,282,283,284,282,283,284,282,283,284,282,283,284,282,283,284,282,283,284,282,283,284,282,283,284,282,283,284,282,283,284,282,283,284,282,283,284,282,283,284,282,283,284,282,283,284,282,283,284,282,283,284,282,283,284,282,283,284,282,283,284,282,283,284,282,283,284,282,283,284,282,283,284,282,283,284,282,283,284,282,283,284,282,283,284,282,283,284,282,283,284,282,283,284,282,283,284,282,283,284,282,283,284,282,283,284,282,283,284,282,283,284,282,283,284,282,283,284,282,283,284,282,283,284,282,283,284,282,283,284,282,283,284,282,283,284,282,283,284,
323,324,322,323,324,322,323,324,322,323,324,322,323,324,322,323,324,322,323,324,322,323,324,322,323,324,322,323,324,322,323,324,322,323,324,322,323,324,322,323,324,322,323,324,322,323,324,322,323,324,322,323,324,322,323,324,322,323,324,322,323,324,322,323,324,322,323,324,322,323,324,322,323,324,322,323,324,322,323,324,322,323,324,322,323,324,322,323,324,322,323,324,322,323,324,322,323,324,322,323,324,322,323,324,322,323,324,322,323,324,322,323,324,322,323,324,322,323,324,322,323,324,322,323,324,322,323,324,322,323,324,322,323,324,322,323,324,322,323,324,322,323,324,322,323,324,322,323,324,322,323,324,322,323,324,322,323,324,322,323,324,322,323,324,322,323,324,322,323,324,322,323,324,322,323,324,322,323,324,322,323,324,322,323,324,322,323,324,322,323,324,322,323,324,322,323,324,322,323,324,
363,364,362,363,364,362,363,364,362,363,364,362,363,364,362,363,364,362,363,364,362,363,364,362,363,364,362,363,364,362,363,364,362,363,364,362,363,364,362,363,364,362,363,364,362,363,364,362,363,364,362,363,364,362,363,364,362,363,364,362,363,364,362,363,364,362,363,364,362,363,364,362,363,364,362,363,364,362,363,364,362,363,364,362,363,364,362,363,364,362,363,364,362,363,364,362,363,364,362,363,364,362,363,364,362,363,364,362,363,364,362,363,364,362,363,364,362,363,364,362,363,364,362,363,364,362,363,364,362,363,364,362,363,364,362,363,364,362,363,364,362,363,364,362,363,364,362,363,364,362,363,364,362,363,364,362,363,364,362,363,364,362,363,364,362,363,364,362,363,364,362,363,364,362,363,364,362,363,364,362,363,364,362,363,364,362,363,364,362,363,364,362,363,364,362,363,364,362,363,364,
283,284,282,283,284,282,283,284,282,283,284,282,283,284,282,283,284,282,283,284,282,283,284,282,283,284,282,283,284,282,283,284,282,283,284,282,283,284,282,283,284,282,283,284,282,283,284,282,283,284,282,283,284,282,283,284,282,283,284,282,283,284,282,283,284,282,283,284,282,283,284,282,283,284,282,283,284,282,283,284,282,283,284,282,283,284,282,283,284,282,283,284,282,283,284,282,283,284,282,283,284,282,283,284,282,283,284,282,283,284,282,283,284,282,283,284,282,283,284,282,283,284,282,283,284,282,283,284,282,283,284,282,283,284,282,283,284,282,283,284,282,283,284,282,283,284,282,283,284,282,283,284,282,283,284,282,283,284,282,283,284,282,283,284,282,283,284,282,283,284,282,283,284,282,283,284,282,283,284,282,283,284,282,283,284,282,283,284,282,283,284,282,283,284,282,283,284,282,283,284,
323,324,322,323,324,322,323,324,322,323,324,322,323,324,322,323,324,322,323,324,322,323,324,322,323,324,322,323,324,322,323,324,322,323,324,322,323,324,322,323,324,322,323,324,322,323,324,322,323,324,322,323,324,322,323,324,322,323,324,322,323,324,322,323,324,322,323,324,322,323,324,322,323,324,322,323,324,322,323,324,322,323,324,322,323,324,322,323,324,322,323,324,322,323,324,322,323,324,322,323,324,322,323,324,322,323,324,322,323,324,322,323,324,322,323,324,322,323,324,322,323,324,322,323,324,322,323,324,322,323,324,322,323,324,322,323,324,322,323,324,322,323,324,322,323,324,322,323,324,322,323,324,322,323,324,322,323,324,322,323,324,322,323,324,322,323,324,322,323,324,322,323,324,322,323,324,322,323,324,322,323,324,322,323,324,322,323,324,322,323,324,322,323,324,322,323,324,322,323,324,
363,364,362,363,364,362,363,364,362,363,364,362,363,364,362,363,364,362,363,364,362,363,364,362,363,364,362,363,364,362,363,364,362,363,364,362,363,364,362,363,364,362,363,364,362,363,364,362,363,364,362,363,364,362,363,364,362,363,364,362,363,364,362,363,364,362,363,364,362,363,364,362,363,364,362,363,364,362,363,364,362,363,364,362,363,364,362,363,364,362,363,364,362,363,364,362,363,364,362,363,364,362,363,364,362,363,364,362,363,364,362,363,364,362,363,364,362,363,364,362,363,364,362,363,364,362,363,364,362,363,364,362,363,364,362,363,364,362,363,364,362,363,364,362,363,364,362,363,364,362,363,364,362,363,364,362,363,364,362,363,364,362,363,364,362,363,364,362,363,364,362,363,364,362,363,364,362,363,364,362,363,364,362,363,364,362,363,364,362,363,364,362,363,364,362,363,364,362,363,364,
283,284,282,283,284,282,283,284,282,283,284,282,283,284,282,283,284,282,283,284,282,283,284,282,283,284,282,283,284,282,283,284,282,283,284,282,283,284,282,283,284,282,283,284,282,283,284,282,283,284,282,283,284,282,283,284,282,283,284,282,283,284,282,283,284,282,283,284,282,283,284,282,283,284,282,283,284,282,283,284,282,283,284,282,283,284,282,283,284,282,283,284,282,283,284,282,283,284,282,283,284,282,283,284,282,283,284,282,283,284,282,283,284,282,283,284,282,283,284,282,283,284,282,283,284,282,283,284,282,283,284,282,283,284,282,283,284,282,283,284,282,283,284,282,283,284,282,283,284,282,283,284,282,283,284,282,283,284,282,283,284,282,283,284,282,283,284,282,283,284,282,283,284,282,283,284,282,283,284,282,283,284,282,283,284,282,283,284,282,283,284,282,283,284,282,283,284,282,283,284,
323,324,322,323,324,322,323,324,322,323,324,322,323,324,322,323,324,322,323,324,322,323,324,322,323,324,322,323,324,322,323,324,322,323,324,322,323,324,322,323,324,322,323,324,322,323,324,322,323,324,322,323,324,322,323,324,322,323,324,322,323,324,322,323,324,322,323,324,322,323,324,322,323,324,322,323,324,322,323,324,322,323,324,322,323,324,322,323,324,322,323,324,322,323,324,322,323,324,322,323,324,322,323,324,322,323,324,322,323,324,322,323,324,322,323,324,322,323,324,322,323,324,322,323,324,322,323,324,322,323,324,322,323,324,322,323,324,322,323,324,322,323,324,322,323,324,322,323,324,322,323,324,322,323,324,322,323,324,322,323,324,322,323,324,322,323,324,322,323,324,322,323,324,322,323,324,322,323,324,322,323,324,322,323,324,322,323,324,322,323,324,322,323,324,322,323,324,322,323,324,
363,364,362,363,364,362,363,364,362,363,364,362,363,364,362,363,364,362,363,364,362,363,364,362,363,364,362,363,364,362,363,364,362,363,364,362,363,364,362,363,364,362,363,364,362,363,364,362,363,364,362,363,364,362,363,364,362,363,364,362,363,364,362,363,364,362,363,364,362,363,364,362,363,364,362,363,364,362,363,364,362,363,364,362,363,364,362,363,364,362,363,364,362,363,364,362,363,364,362,363,364,362,363,364,362,363,364,362,363,364,362,363,364,362,363,364,362,363,364,362,363,364,362,363,364,362,363,364,362,363,364,362,363,364,362,363,364,362,363,364,362,363,364,362,363,364,362,363,364,362,363,364,362,363,364,362,363,364,362,363,364,362,363,364,362,363,364,362,363,364,362,363,364,362,363,364,362,363,364,362,363,364,362,363,364,362,363,364,362,363,364,362,363,364,362,363,364,362,363,364,
283,284,282,283,284,282,283,284,282,283,284,282,283,284,282,283,284,282,283,284,282,283,284,282,283,284,282,283,284,282,283,284,282,283,284,282,283,284,282,283,284,282,283,284,282,283,284,282,283,284,282,283,284,282,283,284,282,283,284,282,283,284,282,283,284,282,283,284,282,283,284,282,283,284,282,283,284,282,283,284,282,283,284,282,283,284,282,283,284,282,283,284,282,283,284,282,283,284,282,283,284,282,283,284,282,283,284,282,283,284,282,283,284,282,283,284,282,283,284,282,283,284,282,283,284,282,283,284,282,283,284,282,283,284,282,283,284,282,283,284,282,283,284,282,283,284,282,283,284,282,283,284,282,283,284,282,283,284,282,283,284,282,283,284,282,283,284,282,283,284,282,283,284,282,283,284,282,283,284,282,283,284,282,283,284,282,283,284,282,283,284,282,283,284,282,283,284,282,283,284,
323,324,322,323,324,322,323,324,322,323,324,322,323,324,322,323,324,322,323,324,322,323,324,322,323,324,322,323,324,322,323,324,322,323,324,322,323,324,322,323,324,322,323,324,322,323,324,322,323,324,322,323,324,322,323,324,322,323,324,322,323,324,322,323,324,322,323,324,322,323,324,322,323,324,322,323,324,322,323,324,322,323,324,322,323,324,322,323,324,322,323,324,322,323,324,322,323,324,322,323,324,322,323,324,322,323,324,322,323,324,322,323,324,322,323,324,322,323,324,322,323,324,322,323,324,322,323,324,322,323,324,322,323,324,322,323,324,322,323,324,322,323,324,322,323,324,322,323,324,322,323,324,322,323,324,322,323,324,322,323,324,322,323,324,322,323,324,322,323,324,322,323,324,322,323,324,322,323,324,322,323,324,322,323,324,322,323,324,322,323,324,322,323,324,322,323,324,322,323,324,
363,364,362,363,364,362,363,364,362,363,364,362,363,364,362,363,364,362,363,364,362,363,364,362,363,364,362,363,364,362,363,364,362,363,364,362,363,364,362,363,364,362,363,364,362,363,364,362,363,364,362,363,364,362,363,364,362,363,364,362,363,364,362,363,364,362,363,364,362,363,364,362,363,364,362,363,364,362,363,364,362,363,364,362,363,364,362,363,364,362,363,364,362,363,364,362,363,364,362,363,364,362,363,364,362,363,364,362,363,364,362,363,364,362,363,364,362,363,364,362,363,364,362,363,364,362,363,364,362,363,364,362,363,364,362,363,364,362,363,364,362,363,364,362,363,364,362,363,364,362,363,364,362,363,364,362,363,364,362,363,364,362,363,364,362,363,364,362,363,364,362,363,364,362,363,364,362,363,364,362,363,364,362,363,364,362,363,364,362,363,364,362,363,364,362,363,364,362,363,364,
283,284,282,283,284,282,283,284,282,283,284,282,283,284,282,283,284,282,283,284,282,283,284,282,283,284,282,283,284,282,283,284,282,283,284,282,283,284,282,283,284,282,283,284,282,283,284,282,283,284,282,283,284,282,283,284,282,283,284,282,283,284,282,283,284,282,283,284,282,283,284,282,283,284,282,283,284,282,283,284,282,283,284,282,283,284,282,283,284,282,283,284,282,283,284,282,283,284,282,283,284,282,283,284,282,283,284,282,283,284,282,283,284,282,283,284,282,283,284,282,283,284,282,283,284,282,283,284,282,283,284,282,283,284,282,283,284,282,283,284,282,283,284,282,283,284,282,283,284,282,283,284,282,283,284,282,283,284,282,283,284,282,283,284,282,283,284,282,283,284,282,283,284,282,283,284,282,283,284,282,283,284,282,283,284,282,283,284,282,283,284,282,283,284,282,283,284,282,283,284,
323,324,322,323,324,322,323,324,322,323,324,322,323,324,322,323,324,322,323,324,322,323,324,322,323,324,322,323,324,322,323,324,322,323,324,322,323,324,322,323,324,322,323,324,322,323,324,322,323,324,322,323,324,322,323,324,322,323,324,322,323,324,322,323,324,322,323,324,322,323,324,322,323,324,322,323,324,322,323,324,322,323,324,322,323,324,322,323,324,322,323,324,322,323,324,322,323,324,322,323,324,322,323,324,322,323,324,322,323,324,322,323,324,322,323,324,322,323,324,322,323,324,322,323,324,322,323,324,322,323,324,322,323,324,322,323,324,322,323,324,322,323,324,322,323,324,322,323,324,322,323,324,322,323,324,322,323,324,322,323,324,322,323,324,322,323,324,322,323,324,322,323,324,322,323,324,322,323,324,322,323,324,322,323,324,322,323,324,322,323,324,322,323,324,322,323,324,322,323,324,
363,364,362,363,364,362,363,364,362,363,364,362,363,364,362,363,364,362,363,364,362,363,364,362,363,364,362,363,364,362,363,364,362,363,364,362,363,364,362,363,364,362,363,364,362,363,364,362,363,364,362,363,364,362,363,364,362,363,364,362,363,364,362,363,364,362,363,364,362,363,364,362,363,364,362,363,364,362,363,364,362,363,364,362,363,364,362,363,364,362,363,364,362,363,364,362,363,364,362,363,364,362,363,364,362,363,364,362,363,364,362,363,364,362,363,364,362,363,364,362,363,364,362,363,364,362,363,364,362,363,364,362,363,364,362,363,364,362,363,364,362,363,364,362,363,364,362,363,364,362,363,364,362,363,364,362,363,364,362,363,364,362,363,364,362,363,364,362,363,364,362,363,364,362,363,364,362,363,364,362,363,364,362,363,364,362,363,364,362,363,364,362,363,364,362,363,364,362,363,364,
283,284,282,283,284,282,283,284,282,283,284,282,283,284,282,283,284,282,283,284,282,283,284,282,283,284,282,283,284,282,283,284,282,283,284,282,283,284,282,283,284,282,283,284,282,283,284,282,283,284,282,283,284,282,283,284,282,283,284,282,283,284,282,283,284,282,283,284,282,283,284,282,283,284,282,283,284,282,283,284,282,283,284,282,283,284,282,283,284,282,283,284,282,283,284,282,283,284,282,283,284,282,283,284,282,283,284,282,283,284,282,283,284,282,283,284,282,283,284,282,283,284,282,283,284,282,283,284,282,283,284,282,283,284,282,283,284,282,283,284,282,283,284,282,283,284,282,283,284,282,283,284,282,283,284,282,283,284,282,283,284,282,283,284,282,283,284,282,283,284,282,283,284,282,283,284,282,283,284,282,283,284,282,283,284,282,283,284,282,283,284,282,283,284,282,283,284,282,283,284,
323,324,322,323,324,322,323,324,322,323,324,322,323,324,322,323,324,322,323,324,322,323,324,322,323,324,322,323,324,322,323,324,322,323,324,322,323,324,322,323,324,322,323,324,322,323,324,322,323,324,322,323,324,322,323,324,322,323,324,322,323,324,322,323,324,322,323,324,322,323,324,322,323,324,322,323,324,322,323,324,322,323,324,322,323,324,322,323,324,322,323,324,322,323,324,322,323,324,322,323,324,322,323,324,322,323,324,322,323,324,322,323,324,322,323,324,322,323,324,322,323,324,322,323,324,322,323,324,322,323,324,322,323,324,322,323,324,322,323,324,322,323,324,322,323,324,322,323,324,322,323,324,322,323,324,322,323,324,322,323,324,322,323,324,322,323,324,322,323,324,322,323,324,322,323,324,322,323,324,322,323,324,322,323,324,322,323,324,322,323,324,322,323,324,322,323,324,322,323,324,
363,364,362,363,364,362,363,364,362,363,364,362,363,364,362,363,364,362,363,364,362,363,364,362,363,364,362,363,364,362,363,364,362,363,364,362,363,364,362,363,364,362,363,364,362,363,364,362,363,364,362,363,364,362,363,364,362,363,364,362,363,364,362,363,364,362,363,364,362,363,364,362,363,364,362,363,364,362,363,364,362,363,364,362,363,364,362,363,364,362,363,364,362,363,364,362,363,364,362,363,364,362,363,364,362,363,364,362,363,364,362,363,364,362,363,364,362,363,364,362,363,364,362,363,364,362,363,364,362,363,364,362,363,364,362,363,364,362,363,364,362,363,364,362,363,364,362,363,364,362,363,364,362,363,364,362,363,364,362,363,364,362,363,364,362,363,364,362,363,364,362,363,364,362,363,364,362,363,364,362,363,364,362,363,364,362,363,364,362,363,364,362,363,364,362,363,364,362,363,364,
283,284,282,283,284,282,283,284,282,283,284,282,283,284,282,283,284,282,283,284,282,283,284,282,283,284,282,283,284,282,283,284,282,283,284,282,283,284,282,283,284,282,283,284,282,283,284,282,283,284,282,283,284,282,283,284,282,283,284,282,283,284,282,283,284,282,283,284,282,283,284,282,283,284,282,283,284,282,283,284,282,283,284,282,283,284,282,283,284,282,283,284,282,283,284,282,283,284,282,283,284,282,283,284,282,283,284,282,283,284,282,283,284,282,283,284,282,283,284,282,283,284,282,283,284,282,283,284,282,283,284,282,283,284,282,283,284,282,283,284,282,283,284,282,283,284,282,283,284,282,283,284,282,283,284,282,283,284,282,283,284,282,283,284,282,283,284,282,283,284,282,283,284,282,283,284,282,283,284,282,283,284,282,283,284,282,283,284,282,283,284,282,283,284,282,283,284,282,283,284,
323,324,322,323,324,322,323,324,322,323,324,322,323,324,322,323,324,322,323,324,322,323,324,322,323,324,322,323,324,322,323,324,322,323,324,322,323,324,322,323,324,322,323,324,322,323,324,322,323,324,322,323,324,322,323,324,322,323,324,322,323,324,322,323,324,322,323,324,322,323,324,322,323,324,322,323,324,322,323,324,322,323,324,322,323,324,322,323,324,322,323,324,322,323,324,322,323,324,322,323,324,322,323,324,322,323,324,322,323,324,322,323,324,322,323,324,322,323,324,322,323,324,322,323,324,322,323,324,322,323,324,322,323,324,322,323,324,322,323,324,322,323,324,322,323,324,322,323,324,322,323,324,322,323,324,322,323,324,322,323,324,322,323,324,322,323,324,322,323,324,322,323,324,322,323,324,322,323,324,322,323,324,322,323,324,322,323,324,322,323,324,322,323,324,322,323,324,322,323,324,
363,364,362,363,364,362,363,364,362,363,364,362,363,364,362,363,364,362,363,364,362,363,364,362,363,364,362,363,364,362,363,364,362,363,364,362,363,364,362,363,364,362,363,364,362,363,364,362,363,364,362,363,364,362,363,364,362,363,364,362,363,364,362,363,364,362,363,364,362,363,364,362,363,364,362,363,364,362,363,364,362,363,364,362,363,364,362,363,364,362,363,364,362,363,364,362,363,364,362,363,364,362,363,364,362,363,364,362,363,364,362,363,364,362,363,364,362,363,364,362,363,364,362,363,364,362,363,364,362,363,364,362,363,364,362,363,364,362,363,364,362,363,364,362,363,364,362,363,364,362,363,364,362,363,364,362,363,364,362,363,364,362,363,364,362,363,364,362,363,364,362,363,364,362,363,364,362,363,364,362,363,364,362,363,364,362,363,364,362,363,364,362,363,364,362,363,364,362,363,364,
283,284,282,283,284,282,283,284,282,283,284,282,283,284,282,283,284,282,283,284,282,283,284,282,283,284,282,283,284,282,283,284,282,283,284,282,283,284,282,283,284,282,283,284,282,283,284,282,283,284,282,283,284,282,283,284,282,283,284,282,283,284,282,283,284,282,283,284,282,283,284,282,283,284,282,283,284,282,283,284,282,283,284,282,283,284,282,283,284,282,283,284,282,283,284,282,283,284,282,283,284,282,283,284,282,283,284,282,283,284,282,283,284,282,283,284,282,283,284,282,283,284,282,283,284,282,283,284,282,283,284,282,283,284,282,283,284,282,283,284,282,283,284,282,283,284,282,283,284,282,283,284,282,283,284,282,283,284,282,283,284,282,283,284,282,283,284,282,283,284,282,283,284,282,283,284,282,283,284,282,283,284,282,283,284,282,283,284,282,283,284,282,283,284,282,283,284,282,283,284,
323,324,322,323,324,322,323,324,322,323,324,322,323,324,322,323,324,322,323,324,322,323,324,322,323,324,322,323,324,322,323,324,322,323,324,322,323,324,322,323,324,322,323,324,322,323,324,322,323,324,322,323,324,322,323,324,322,323,324,322,323,324,322,323,324,322,323,324,322,323,324,322,323,324,322,323,324,322,323,324,322,323,324,322,323,324,322,323,324,322,323,324,322,323,324,322,323,324,322,323,324,322,323,324,322,323,324,322,323,324,322,323,324,322,323,324,322,323,324,322,323,324,322,323,324,322,323,324,322,323,324,322,323,324,322,323,324,322,323,324,322,323,324,322,323,324,322,323,324,322,323,324,322,323,324,322,323,324,322,323,324,322,323,324,322,323,324,322,323,324,322,323,324,322,323,324,322,323,324,322,323,324,322,323,324,322,323,324,322,323,324,322,323,324,322,323,324,322,323,324,
363,364,362,363,364,362,363,364,362,363,364,362,363,364,362,363,364,362,363,364,362,363,364,362,363,364,362,363,364,362,363,364,362,363,364,362,363,364,362,363,364,362,363,364,362,363,364,362,363,364,362,363,364,362,363,364,362,363,364,362,363,364,362,363,364,362,363,364,362,363,364,362,363,364,362,363,364,362,363,364,362,363,364,362,363,364,362,363,364,362,363,364,362,363,364,362,363,364,362,363,364,362,363,364,362,363,364,362,363,364,362,363,364,362,363,364,362,363,364,362,363,364,362,363,364,362,363,364,362,363,364,362,363,364,362,363,364,362,363,364,362,363,364,362,363,364,362,363,364,362,363,364,362,363,364,362,363,364,362,363,364,362,363,364,362,363,364,362,363,364,362,363,364,362,363,364,362,363,364,362,363,364,362,363,364,362,363,364,362,363,364,362,363,364,362,363,364,362,363,364,
283,284,282,283,284,282,283,284,282,283,284,282,283,284,282,283,284,282,283,284,282,283,284,282,283,284,282,283,284,282,283,284,282,283,284,282,283,284,282,283,284,282,283,284,282,283,284,282,283,284,282,283,284,282,283,284,282,283,284,282,283,284,282,283,284,282,283,284,282,283,284,282,283,284,282,283,284,282,283,284,282,283,284,282,283,284,282,283,284,282,283,284,282,283,284,282,283,284,282,283,284,282,283,284,282,283,284,282,283,284,282,283,284,282,283,284,282,283,284,282,283,284,282,283,284,282,283,284,282,283,284,282,283,284,282,283,284,282,283,284,282,283,284,282,283,284,282,283,284,282,283,284,282,283,284,282,283,284,282,283,284,282,283,284,282,283,284,282,283,284,282,283,284,282,283,284,282,283,284,282,283,284,282,283,284,282,283,284,282,283,284,282,283,284,282,283,284,282,283,284,
323,324,322,323,324,322,323,324,322,323,324,322,323,324,322,323,324,322,323,324,322,323,324,322,323,324,322,323,324,322,323,324,322,323,324,322,323,324,322,323,324,322,323,324,322,323,324,322,323,324,322,323,324,322,323,324,322,323,324,322,323,324,322,323,324,322,323,324,322,323,324,322,323,324,322,323,324,322,323,324,322,323,324,322,323,324,322,323,324,322,323,324,322,323,324,322,323,324,322,323,324,322,323,324,322,323,324,322,323,324,322,323,324,322,323,324,322,323,324,322,323,324,322,323,324,322,323,324,322,323,324,322,323,324,322,323,324,322,323,324,322,323,324,322,323,324,322,323,324,322,323,324,322,323,324,322,323,324,322,323,324,322,323,324,322,323,324,322,323,324,322,323,324,322,323,324,322,323,324,322,323,324,322,323,324,322,323,324,322,323,324,322,323,324,322,323,324,322,323,324,
363,364,362,363,364,362,363,364,362,363,364,362,363,364,362,363,364,362,363,364,362,363,364,362,363,364,362,363,364,362,363,364,362,363,364,362,363,364,362,363,364,362,363,364,362,363,364,362,363,364,362,363,364,362,363,364,362,363,364,362,363,364,362,363,364,362,363,364,362,363,364,362,363,364,362,363,364,362,363,364,362,363,364,362,363,364,362,363,364,362,363,364,362,363,364,362,363,364,362,363,364,362,363,364,362,363,364,362,363,364,362,363,364,362,363,364,362,363,364,362,363,364,362,363,364,362,363,364,362,363,364,362,363,364,362,363,364,362,363,364,362,363,364,362,363,364,362,363,364,362,363,364,362,363,364,362,363,364,362,363,364,362,363,364,362,363,364,362,363,364,362,363,364,362,363,364,362,363,364,362,363,364,362,363,364,362,363,364,362,363,364,362,363,364,362,363,364,362,363,364,
283,284,282,283,284,282,283,284,282,283,284,282,283,284,282,283,284,282,283,284,282,283,284,282,283,284,282,283,284,282,283,284,282,283,284,282,283,284,282,283,284,282,283,284,282,283,284,282,283,284,282,283,284,282,283,284,282,283,284,282,283,284,282,283,284,282,283,284,282,283,284,282,283,284,282,283,284,282,283,284,282,283,284,282,283,284,282,283,284,282,283,284,282,283,284,282,283,284,282,283,284,282,283,284,282,283,284,282,283,284,282,283,284,282,283,284,282,283,284,282,283,284,282,283,284,282,283,284,282,283,284,282,283,284,282,283,284,282,283,284,282,283,284,282,283,284,282,283,284,282,283,284,282,283,284,282,283,284,282,283,284,282,283,284,282,283,284,282,283,284,282,283,284,282,283,284,282,283,284,282,283,284,282,283,284,282,283,284,282,283,284,282,283,284,282,283,284,282,283,284,
323,324,322,323,324,322,323,324,322,323,324,322,323,324,322,323,324,322,323,324,322,323,324,322,323,324,322,323,324,322,323,324,322,323,324,322,323,324,322,323,324,322,323,324,322,323,324,322,323,324,322,323,324,322,323,324,322,323,324,322,323,324,322,323,324,322,323,324,322,323,324,322,323,324,322,323,324,322,323,324,322,323,324,322,323,324,322,323,324,322,323,324,322,323,324,322,323,324,322,323,324,322,323,324,322,323,324,322,323,324,322,323,324,322,323,324,322,323,324,322,323,324,322,323,324,322,323,324,322,323,324,322,323,324,322,323,324,322,323,324,322,323,324,322,323,324,322,323,324,322,323,324,322,323,324,322,323,324,322,323,324,322,323,324,322,323,324,322,323,324,322,323,324,322,323,324,322,323,324,322,323,324,322,323,324,322,323,324,322,323,324,322,323,324,322,323,324,322,323,324,
363,364,362,363,364,362,363,364,362,363,364,362,363,364,362,363,364,362,363,364,362,363,364,362,363,364,362,363,364,362,363,364,362,363,364,362,363,364,362,363,364,362,363,364,362,363,364,362,363,364,362,363,364,362,363,364,362,363,364,362,363,364,362,363,364,362,363,364,362,363,364,362,363,364,362,363,364,362,363,364,362,363,364,362,363,364,362,363,364,362,363,364,362,363,364,362,363,364,362,363,364,362,363,364,362,363,364,362,363,364,362,363,364,362,363,364,362,363,364,362,363,364,362,363,364,362,363,364,362,363,364,362,363,364,362,363,364,362,363,364,362,363,364,362,363,364,362,363,364,362,363,364,362,363,364,362,363,364,362,363,364,362,363,364,362,363,364,362,363,364,362,363,364,362,363,364,362,363,364,362,363,364,362,363,364,362,363,364,362,363,364,362,363,364,362,363,364,362,363,364,
283,284,282,283,284,282,283,284,282,283,284,282,283,284,282,283,284,282,283,284,282,283,284,282,283,284,282,283,284,282,283,284,282,283,284,282,283,284,282,283,284,282,283,284,282,283,284,282,283,284,282,283,284,282,283,284,282,283,284,282,283,284,282,283,284,282,283,284,282,283,284,282,283,284,282,283,284,282,283,284,282,283,284,282,283,284,282,283,284,282,283,284,282,283,284,282,283,284,282,283,284,282,283,284,282,283,284,282,283,284,282,283,284,282,283,284,282,283,284,282,283,284,282,283,284,282,283,284,282,283,284,282,283,284,282,283,284,282,283,284,282,283,284,282,283,284,282,283,284,282,283,284,282,283,284,282,283,284,282,283,284,282,283,284,282,283,284,282,283,284,282,283,284,282,283,284,282,283,284,282,283,284,282,283,284,282,283,284,282,283,284,282,283,284,282,283,284,282,283,284,
323,324,322,323,324,322,323,324,322,323,324,322,323,324,322,323,324,322,323,324,322,323,324,322,323,324,322,323,324,322,323,324,322,323,324,322,323,324,322,323,324,322,323,324,322,323,324,322,323,324,322,323,324,322,323,324,322,323,324,322,323,324,322,323,324,322,323,324,322,323,324,322,323,324,322,323,324,322,323,324,322,323,324,322,323,324,322,323,324,322,323,324,322,323,324,322,323,324,322,323,324,322,323,324,322,323,324,322,323,324,322,323,324,322,323,324,322,323,324,322,323,324,322,323,324,322,323,324,322,323,324,322,323,324,322,323,324,322,323,324,322,323,324,322,323,324,322,323,324,322,323,324,322,323,324,322,323,324,322,323,324,322,323,324,322,323,324,322,323,324,322,323,324,322,323,324,322,323,324,322,323,324,322,323,324,322,323,324,322,323,324,322,323,324,322,323,324,322,323,324,
363,364,362,363,364,362,363,364,362,363,364,362,363,364,362,363,364,362,363,364,362,363,364,362,363,364,362,363,364,362,363,364,362,363,364,362,363,364,362,363,364,362,363,364,362,363,364,362,363,364,362,363,364,362,363,364,362,363,364,362,363,364,362,363,364,362,363,364,362,363,364,362,363,364,362,363,364,362,363,364,362,363,364,362,363,364,362,363,364,362,363,364,362,363,364,362,363,364,362,363,364,362,363,364,362,363,364,362,363,364,362,363,364,362,363,364,362,363,364,362,363,364,362,363,364,362,363,364,362,363,364,362,363,364,362,363,364,362,363,364,362,363,364,362,363,364,362,363,364,362,363,364,362,363,364,362,363,364,362,363,364,362,363,364,362,363,364,362,363,364,362,363,364,362,363,364,362,363,364,362,363,364,362,363,364,362,363,364,362,363,364,362,363,364,362,363,364,362,363,364,
283,284,282,283,284,282,283,284,282,283,284,282,283,284,282,283,284,282,283,284,282,283,284,282,283,284,282,283,284,282,283,284,282,283,284,282,283,284,282,283,284,282,283,284,282,283,284,282,283,284,282,283,284,282,283,284,282,283,284,282,283,284,282,283,284,282,283,284,282,283,284,282,283,284,282,283,284,282,283,284,282,283,284,282,283,284,282,283,284,282,283,284,282,283,284,282,283,284,282,283,284,282,283,284,282,283,284,282,283,284,282,283,284,282,283,284,282,283,284,282,283,284,282,283,284,282,283,284,282,283,284,282,283,284,282,283,284,282,283,284,282,283,284,282,283,284,282,283,284,282,283,284,282,283,284,282,283,284,282,283,284,282,283,284,282,283,284,282,283,284,282,283,284,282,283,284,282,283,284,282,283,284,282,283,284,282,283,284,282,283,284,282,283,284,282,283,284,282,283,284,
323,324,322,323,324,322,323,324,322,323,324,322,323,324,322,323,324,322,323,324,322,323,324,322,323,324,322,323,324,322,323,324,322,323,324,322,323,324,322,323,324,322,323,324,322,323,324,322,323,324,322,323,324,322,323,324,322,323,324,322,323,324,322,323,324,322,323,324,322,323,324,322,323,324,322,323,324,322,323,324,322,323,324,322,323,324,322,323,324,322,323,324,322,323,324,322,323,324,322,323,324,322,323,324,322,323,324,322,323,324,322,323,324,322,323,324,322,323,324,322,323,324,322,323,324,322,323,324,322,323,324,322,323,324,322,323,324,322,323,324,322,323,324,322,323,324,322,323,324,322,323,324,322,323,324,322,323,324,322,323,324,322,323,324,322,323,324,322,323,324,322,323,324,322,323,324,322,323,324,322,323,324,322,323,324,322,323,324,322,323,324,322,323,324,322,323,324,322,323,324,
363,364,362,363,364,362,363,364,362,363,364,362,363,364,362,363,364,362,363,364,362,363,364,362,363,364,362,363,364,362,363,364,362,363,364,362,363,364,362,363,364,362,363,364,362,363,364,362,363,364,362,363,364,362,363,364,362,363,364,362,363,364,362,363,364,362,363,364,362,363,364,362,363,364,362,363,364,362,363,364,362,363,364,362,363,364,362,363,364,362,363,364,362,363,364,362,363,364,362,363,364,362,363,364,362,363,364,362,363,364,362,363,364,362,363,364,362,363,364,362,363,364,362,363,364,362,363,364,362,363,364,362,363,364,362,363,364,362,363,364,362,363,364,362,363,364,362,363,364,362,363,364,362,363,364,362,363,364,362,363,364,362,363,364,362,363,364,362,363,364,362,363,364,362,363,364,362,363,364,362,363,364,362,363,364,362,363,364,362,363,364,362,363,364,362,363,364,362,363,364,
283,284,282,283,284,282,283,284,282,283,284,282,283,284,282,283,284,282,283,284,282,283,284,282,283,284,282,283,284,282,283,284,282,283,284,282,283,284,282,283,284,282,283,284,282,283,284,282,283,284,282,283,284,282,283,284,282,283,284,282,283,284,282,283,284,282,283,284,282,283,284,282,283,284,282,283,284,282,283,284,282,283,284,282,283,284,282,283,284,282,283,284,282,283,284,282,283,284,282,283,284,282,283,284,282,283,284,282,283,284,282,283,284,282,283,284,282,283,284,282,283,284,282,283,284,282,283,284,282,283,284,282,283,284,282,283,284,282,283,284,282,283,284,282,283,284,282,283,284,282,283,284,282,283,284,282,283,284,282,283,284,282,283,284,282,283,284,282,283,284,282,283,284,282,283,284,282,283,284,282,283,284,282,283,284,282,283,284,282,283,284,282,283,284,282,283,284,282,283,284,
323,324,322,323,324,322,323,324,322,323,324,322,323,324,322,323,324,322,323,324,322,323,324,322,323,324,322,323,324,322,323,324,322,323,324,322,323,324,322,323,324,322,323,324,322,323,324,322,323,324,322,323,324,322,323,324,322,323,324,322,323,324,322,323,324,322,323,324,322,323,324,322,323,324,322,323,324,322,323,324,322,323,324,322,323,324,322,323,324,322,323,324,322,323,324,322,323,324,322,323,324,322,323,324,322,323,324,322,323,324,322,323,324,322,323,324,322,323,324,322,323,324,322,323,324,322,323,324,322,323,324,322,323,324,322,323,324,322,323,324,322,323,324,322,323,324,322,323,324,322,323,324,322,323,324,322,323,324,322,323,324,322,323,324,322,323,324,322,323,324,322,323,324,322,323,324,322,323,324,322,323,324,322,323,324,322,323,324,322,323,324,322,323,324,322,323,324,322,323,324,
363,364,362,363,364,362,363,364,362,363,364,362,363,364,362,363,364,362,363,364,362,363,364,362,363,364,362,363,364,362,363,364,362,363,364,362,363,364,362,363,364,362,363,364,362,363,364,362,363,364,362,363,364,362,363,364,362,363,364,362,363,364,362,363,364,362,363,364,362,363,364,362,363,364,362,363,364,362,363,364,362,363,364,362,363,364,362,363,364,362,363,364,362,363,364,362,363,364,362,363,364,362,363,364,362,363,364,362,363,364,362,363,364,362,363,364,362,363,364,362,363,364,362,363,364,362,363,364,362,363,364,362,363,364,362,363,364,362,363,364,362,363,364,362,363,364,362,363,364,362,363,364,362,363,364,362,363,364,362,363,364,362,363,364,362,363,364,362,363,364,362,363,364,362,363,364,362,363,364,362,363,364,362,363,364,362,363,364,362,363,364,362,363,364,362,363,364,362,363,364,
283,284,282,283,284,282,283,284,282,283,284,282,283,284,282,283,284,282,283,284,282,283,284,282,283,284,282,283,284,282,283,284,282,283,284,282,283,284,282,283,284,282,283,284,282,283,284,282,283,284,282,283,284,282,283,284,282,283,284,282,283,284,282,283,284,282,283,284,282,283,284,282,283,284,282,283,284,282,283,284,282,283,284,282,283,284,282,283,284,282,283,284,282,283,284,282,283,284,282,283,284,282,283,284,282,283,284,282,283,284,282,283,284,282,283,284,282,283,284,282,283,284,282,283,284,282,283,284,282,283,284,282,283,284,282,283,284,282,283,284,282,283,284,282,283,284,282,283,284,282,283,284,282,283,284,282,283,284,282,283,284,282,283,284,282,283,284,282,283,284,282,283,284,282,283,284,282,283,284,282,283,284,282,283,284,282,283,284,282,283,284,282,283,284,282,283,284,282,283,284,
323,324,322,323,324,322,323,324,322,323,324,322,323,324,322,323,324,322,323,324,322,323,324,322,323,324,322,323,324,322,323,324,322,323,324,322,323,324,322,323,324,322,323,324,322,323,324,322,323,324,322,323,324,322,323,324,322,323,324,322,323,324,322,323,324,322,323,324,322,323,324,322,323,324,322,323,324,322,323,324,322,323,324,322,323,324,322,323,324,322,323,324,322,323,324,322,323,324,322,323,324,322,323,324,322,323,324,322,323,324,322,323,324,322,323,324,322,323,324,322,323,324,322,323,324,322,323,324,322,323,324,322,323,324,322,323,324,322,323,324,322,323,324,322,323,324,322,323,324,322,323,324,322,323,324,322,323,324,322,323,324,322,323,324,322,323,324,322,323,324,322,323,324,322,323,324,322,323,324,322,323,324,322,323,324,322,323,324,322,323,324,322,323,324,322,323,324,322,323,324,
363,364,362,363,364,362,363,364,362,363,364,362,363,364,362,363,364,362,363,364,362,363,364,362,363,364,362,363,364,362,363,364,362,363,364,362,363,364,362,363,364,362,363,364,362,363,364,362,363,364,362,363,364,362,363,364,362,363,364,362,363,364,362,363,364,362,363,364,362,363,364,362,363,364,362,363,364,362,363,364,362,363,364,362,363,364,362,363,364,362,363,364,362,363,364,362,363,364,362,363,364,362,363,364,362,363,364,362,363,364,362,363,364,362,363,364,362,363,364,362,363,364,362,363,364,362,363,364,362,363,364,362,363,364,362,363,364,362,363,364,362,363,364,362,363,364,362,363,364,362,363,364,362,363,364,362,363,364,362,363,364,362,363,364,362,363,364,362,363,364,362,363,364,362,363,364,362,363,364,362,363,364,362,363,364,362,363,364,362,363,364,362,363,364,362,363,364,362,363,364,
283,284,282,283,284,282,283,284,282,283,284,282,283,284,282,283,284,282,283,284,282,283,284,282,283,284,282,283,284,282,283,284,282,283,284,282,283,284,282,283,284,282,283,284,282,283,284,282,283,284,282,283,284,282,283,284,282,283,284,282,283,284,282,283,284,282,283,284,282,283,284,282,283,284,282,283,284,282,283,284,282,283,284,282,283,284,282,283,284,282,283,284,282,283,284,282,283,284,282,283,284,282,283,284,282,283,284,282,283,284,282,283,284,282,283,284,282,283,284,282,283,284,282,283,284,282,283,284,282,283,284,282,283,284,282,283,284,282,283,284,282,283,284,282,283,284,282,283,284,282,283,284,282,283,284,282,283,284,282,283,284,282,283,284,282,283,284,282,283,284,282,283,284,282,283,284,282,283,284,282,283,284,282,283,284,282,283,284,282,283,284,282,283,284,282,283,284,282,283,284
</data>
 </layer>
 <layer id="17" name="parcourt" width="200" height="150" locked="1">
  <data encoding="csv">
324,324,324,324,324,324,324,324,324,324,4095,4096,166,166,166,166,206,206,206,206,4095,4096,324,324,324,324,324,324,324,324,324,324,324,324,324,324,324,324,324,324,324,324,324,324,324,324,324,324,324,324,324,324,324,324,324,324,324,324,324,324,324,324,324,324,324,324,324,324,324,324,324,324,324,324,324,324,324,324,324,324,324,324,324,324,324,324,324,324,324,324,324,324,324,324,324,324,324,324,324,324,324,324,324,324,324,324,324,324,324,324,324,324,324,324,324,324,324,324,324,324,324,324,324,324,324,324,324,324,324,324,324,324,324,324,324,324,324,324,324,324,324,324,324,324,324,324,324,324,324,324,324,324,324,324,324,324,324,324,324,324,324,324,324,324,324,324,324,324,324,324,324,324,324,324,324,324,324,324,324,324,324,324,324,324,324,324,324,324,324,324,324,324,324,324,324,324,324,324,324,324,
324,324,324,324,324,324,324,324,324,324,4162,4163,206,206,206,206,246,246,246,246,4162,4163,324,324,324,324,324,324,324,324,324,324,324,324,324,324,324,324,324,324,324,324,324,324,324,324,324,324,324,324,324,324,324,324,324,324,324,324,324,324,324,324,324,324,324,324,324,324,324,324,324,324,324,324,324,324,324,324,324,324,324,324,324,324,324,324,324,324,324,324,324,324,324,324,324,324,324,324,324,324,324,324,324,324,324,324,324,324,324,324,324,324,324,324,324,324,324,324,324,324,324,324,324,324,324,324,324,324,324,324,324,324,324,324,324,324,324,324,324,324,324,324,324,324,324,324,324,324,324,324,324,324,324,324,324,324,324,324,324,324,324,324,324,324,324,324,324,324,324,324,324,324,324,324,324,324,324,324,324,324,324,324,324,324,324,324,324,324,324,324,324,324,324,324,324,324,324,324,324,324,
324,324,324,324,324,324,324,324,324,324,4229,4230,246,246,246,246,286,286,286,286,4229,4230,324,324,324,324,324,324,324,324,324,324,324,324,324,324,324,324,324,324,324,324,324,324,324,324,324,324,324,324,324,324,324,324,324,324,324,324,324,324,324,324,324,324,324,324,324,324,324,324,324,324,324,324,324,324,324,324,324,324,324,324,324,324,324,324,324,324,324,324,324,324,324,324,324,324,324,324,324,324,324,324,324,324,324,324,324,324,324,324,324,324,324,324,324,324,324,324,324,324,324,324,324,324,324,324,324,324,324,324,324,324,324,324,324,324,324,324,324,324,324,324,324,324,324,324,324,324,324,324,324,324,324,324,324,324,324,324,324,324,324,324,324,324,324,324,324,324,324,324,324,324,324,324,324,324,324,324,324,324,324,324,324,324,324,324,324,324,324,324,324,324,324,324,324,324,324,324,324,324,
324,324,324,324,324,324,324,324,324,324,4296,4297,286,286,286,286,326,326,326,326,4296,4297,324,324,324,324,324,324,324,324,324,324,324,324,324,324,324,324,324,324,324,324,324,324,324,324,324,324,324,324,324,324,324,324,324,324,324,324,324,324,324,324,324,324,324,324,324,324,324,324,324,324,324,324,324,324,324,324,324,324,324,324,324,324,324,324,324,324,324,324,324,324,324,324,324,324,324,324,324,324,324,324,324,324,324,324,324,324,324,324,324,324,324,324,324,324,324,324,324,324,324,324,324,324,324,324,324,324,324,324,324,324,324,324,324,324,324,324,324,324,324,324,324,324,324,324,324,324,324,324,324,324,324,324,324,324,324,324,324,324,324,324,324,324,324,324,324,324,324,324,324,324,324,324,324,324,324,324,324,324,324,324,324,324,324,324,324,324,324,324,324,324,324,324,324,324,324,324,324,324,
324,324,324,324,324,324,324,324,324,324,4363,4364,326,326,326,326,366,366,366,366,4363,4364,324,324,324,324,324,324,324,324,324,324,324,324,324,324,324,324,324,324,324,324,324,324,324,324,324,324,324,324,324,324,324,324,324,324,324,324,324,324,324,324,324,324,324,324,324,324,324,324,324,324,324,324,324,324,324,324,324,324,324,324,324,324,324,324,324,324,324,324,324,324,324,324,324,324,324,324,324,324,324,324,324,324,324,324,324,324,324,324,324,324,324,324,324,324,324,324,324,324,324,324,324,324,324,324,324,324,324,324,324,324,324,324,324,324,324,324,324,324,324,324,324,324,324,324,324,324,324,324,324,324,324,324,324,324,324,324,324,324,324,324,324,324,324,324,324,324,324,324,324,324,324,324,324,324,324,324,324,324,324,324,324,324,324,324,324,324,324,324,324,324,324,324,324,324,324,324,324,324,
324,324,324,324,324,324,324,324,324,324,4430,4431,366,366,366,366,406,406,406,406,4430,4431,324,324,324,324,324,324,324,324,324,324,324,324,324,324,324,324,324,324,324,324,324,324,324,324,324,324,324,324,324,324,324,324,324,324,324,324,324,324,324,324,324,324,333,334,333,334,333,334,333,334,333,334,333,334,333,334,333,334,333,334,333,334,333,334,333,334,333,334,333,334,333,334,333,334,333,334,333,334,333,334,333,334,333,334,333,334,333,334,333,334,333,334,333,334,333,334,333,334,333,334,333,334,333,334,333,334,333,334,333,334,333,334,333,334,333,334,333,334,333,334,333,334,333,334,333,334,333,334,333,334,333,334,333,334,333,334,333,334,333,334,333,334,333,334,333,334,333,334,333,334,333,334,333,334,333,334,333,334,333,334,333,334,333,334,333,334,333,334,333,334,333,334,333,364,324,324,324,324,
324,324,324,324,324,324,324,324,324,324,4497,4498,406,406,406,406,446,446,446,446,4497,4498,324,324,324,324,324,324,324,324,324,324,324,324,324,324,324,324,324,324,324,324,324,324,324,324,324,324,324,324,324,324,324,324,324,324,324,324,324,324,324,324,324,324,373,374,373,374,373,374,373,374,373,374,373,374,373,374,373,374,373,374,373,374,373,374,373,374,373,374,373,374,373,374,373,374,373,374,373,374,373,374,373,374,373,374,373,374,373,374,373,374,373,374,373,374,373,374,373,374,373,374,373,374,373,374,373,374,373,374,373,374,373,374,373,374,373,374,373,374,373,374,373,374,373,374,373,374,373,374,373,374,373,374,373,374,373,374,373,374,373,374,373,374,373,374,373,374,373,374,373,374,373,374,373,374,373,374,373,374,373,374,373,374,373,374,373,374,373,374,373,374,373,374,373,324,324,324,324,324,
324,324,324,324,324,324,324,324,324,324,4564,4565,446,446,446,446,166,166,166,166,4564,4565,324,324,324,324,324,324,324,324,324,324,324,324,324,324,324,324,324,324,324,324,324,324,324,324,324,324,324,324,324,324,324,324,324,324,324,324,324,324,324,324,4095,4095,4028,4029,4028,4029,4028,4029,4028,4029,4028,4029,4028,4029,4028,4029,4028,4029,4028,4029,4028,4029,4028,4029,4028,4029,4028,4029,4028,4029,4028,4029,4028,4029,4028,4029,4028,4029,4028,4029,4028,4029,4028,4029,4028,4029,4028,4029,4028,4029,4028,4029,4028,4029,4028,4029,4028,4029,4028,4029,4028,4029,4028,4029,4028,4029,4028,4029,4028,4029,4028,4029,4028,4029,4028,4029,4028,4029,4028,4029,4028,4029,4028,4029,4028,4029,4028,4029,4028,4029,4028,4029,4028,4029,4028,4029,4028,4029,4028,4029,4028,4029,4028,4029,4028,4029,4028,4029,4028,4029,4028,4029,4028,4029,4028,4029,4028,4029,4028,4029,4028,4029,4028,4029,4028,4029,4028,4029,4028,4095,4096,4095,4096,293,294,324,324,324,
324,324,324,324,324,324,324,324,324,324,4631,4632,166,166,166,166,206,206,206,206,4631,4632,324,324,324,324,324,324,324,324,324,324,324,324,324,324,324,324,324,324,324,324,324,324,324,324,324,246,324,324,324,324,324,324,324,324,324,324,324,324,324,324,4095,4096,4097,4096,4095,4096,4095,4096,4095,4096,4095,4096,4095,4096,4095,4096,4095,4096,4095,4096,4095,4096,4095,4096,4095,4096,4095,4096,4095,4096,4095,4096,4095,4096,4095,4096,4095,4096,4095,4096,4095,4096,4095,4096,4095,4096,4095,4096,4095,4096,4095,4096,4095,4096,4095,4096,4095,4096,4095,4096,4095,4096,4095,4096,4095,4096,4095,4096,4095,4096,4095,4096,4095,4096,4095,4096,4095,4096,4095,4096,4095,4096,4095,4096,4095,4096,4095,4096,4095,4096,4095,4096,4095,4096,4095,4096,4095,4096,4095,4096,4095,4096,4095,4096,4095,4096,4095,4096,4095,4096,4095,4096,4095,4096,4095,4096,4095,4096,4095,4096,4095,4096,4095,4096,4095,4096,4095,4096,4095,4162,4163,4162,4163,333,334,324,324,324,
324,324,324,324,324,324,324,324,324,324,4698,4699,206,206,206,206,246,246,246,246,4698,4699,324,324,324,324,324,324,324,324,324,324,324,324,324,324,324,324,324,324,324,324,324,324,324,324,324,324,324,324,324,324,324,324,324,324,324,324,324,324,324,324,4162,4163,4164,246,246,246,246,246,246,246,246,246,246,246,246,246,246,246,246,246,246,246,246,246,246,246,246,246,246,246,246,246,246,246,246,246,246,246,246,246,246,246,246,246,246,246,246,246,246,246,246,246,246,246,246,246,246,246,246,246,246,246,246,246,246,246,246,246,246,246,246,246,246,246,246,246,246,246,246,246,246,246,246,246,246,246,246,246,246,246,246,246,246,246,246,246,246,246,246,246,246,246,246,246,246,246,246,246,246,246,246,246,246,246,246,286,286,286,286,286,286,286,286,286,286,286,246,246,246,246,246,4229,4230,373,374,324,324,324,
324,324,324,324,324,324,324,324,324,324,4765,4766,246,246,246,246,286,286,286,286,4765,4766,324,324,324,324,324,324,324,324,324,324,324,324,324,324,324,324,324,324,324,324,324,324,324,324,324,324,324,324,324,324,324,324,324,324,324,324,324,324,324,324,4229,4230,4231,286,286,286,286,286,286,286,286,286,286,286,286,286,286,286,286,286,286,286,286,286,286,286,286,286,286,286,286,286,286,286,286,286,286,286,286,286,286,286,286,286,286,286,286,286,286,286,286,286,286,286,286,286,286,286,286,286,286,286,286,286,286,286,286,286,286,286,286,286,286,286,286,286,286,286,286,286,286,286,286,286,286,286,286,286,286,286,286,286,286,286,286,286,286,286,286,286,286,286,286,286,286,286,286,286,286,286,286,286,286,286,286,326,326,326,326,326,326,326,326,326,326,326,286,286,286,286,286,4296,4297,293,294,324,324,324,
324,324,324,324,324,324,324,324,324,324,4832,4833,286,286,286,286,326,326,326,326,4832,4833,324,324,324,324,324,324,324,324,324,324,324,324,324,324,324,324,324,324,324,324,324,324,324,324,324,324,324,324,324,324,324,324,324,324,324,324,324,324,324,324,4296,4297,4298,326,326,326,326,326,326,326,326,326,326,326,326,326,326,326,326,326,326,326,326,326,326,326,326,326,326,326,326,326,326,326,326,326,326,326,326,326,326,326,326,326,326,326,326,326,326,326,326,326,326,326,326,326,326,326,326,326,326,326,326,326,326,326,326,326,326,326,326,326,326,326,326,326,326,326,326,326,326,326,326,326,326,326,326,326,326,326,326,326,326,326,326,326,326,326,326,326,326,326,326,326,326,326,326,326,326,326,326,326,326,326,326,366,366,366,366,366,366,366,366,366,366,366,326,326,326,326,326,4363,4364,333,334,324,324,324,
324,324,324,324,324,324,324,324,324,324,4899,4900,326,326,326,326,366,366,366,366,4899,4900,324,324,324,324,324,324,324,324,324,324,324,324,324,324,324,324,324,324,324,324,324,324,324,324,324,324,324,324,324,324,324,324,324,324,324,324,324,324,324,324,4363,4364,4365,366,366,366,366,366,366,366,366,366,366,366,366,366,366,366,366,366,366,366,366,366,366,366,366,366,366,366,366,366,366,366,366,366,366,366,366,366,366,366,366,366,366,366,366,366,366,366,366,366,366,366,366,366,366,366,366,366,366,366,366,366,366,366,366,366,366,366,366,366,366,366,366,366,366,366,366,366,366,366,366,366,366,366,366,366,366,366,366,366,366,366,366,366,366,366,366,366,366,366,366,366,366,366,366,366,366,366,366,366,366,366,366,406,406,406,406,406,406,406,406,406,406,406,246,246,246,246,246,4430,4431,373,374,324,324,324,
324,324,324,324,324,324,324,324,324,324,4095,4096,366,366,366,366,406,406,406,406,4095,4096,324,324,324,324,324,324,324,324,324,324,324,324,324,324,324,324,324,324,324,324,324,324,324,324,324,324,324,324,324,324,324,324,324,324,324,324,324,324,324,324,4430,4431,4432,406,406,406,406,406,406,406,406,406,406,406,406,406,406,406,406,406,406,406,406,406,406,406,406,406,406,406,406,406,406,406,406,406,406,406,406,406,406,406,406,406,406,406,406,406,406,406,406,406,406,406,406,406,406,406,406,406,406,406,406,406,406,406,406,406,406,406,406,406,406,406,406,406,406,406,406,406,406,406,406,406,406,406,406,406,406,406,406,406,406,406,406,406,406,406,406,406,406,406,406,406,406,406,406,406,406,406,406,406,406,406,406,446,446,446,446,446,446,446,446,446,446,446,286,286,286,286,286,4497,4498,293,294,324,324,324,
324,324,324,324,324,324,324,324,324,324,4162,4163,406,406,406,406,446,446,446,446,4162,4163,324,324,324,324,324,324,324,324,324,324,324,324,324,324,324,324,324,324,324,324,324,324,324,324,324,324,324,324,324,324,324,324,324,324,324,324,324,324,324,324,4497,4498,4499,446,446,446,446,446,166,4095,4096,4029,4028,4029,4028,4029,4028,4029,4028,4029,4028,4029,4028,4029,4028,4029,4028,4029,4028,4029,4028,4029,4028,4029,4028,4029,4028,4029,4028,4029,4028,4029,4028,4029,4028,4029,4028,4029,4028,4029,4028,4029,4028,4029,4028,4029,4028,4029,4028,4029,4028,4029,4028,4029,4028,4029,4028,4029,4028,4029,4028,4029,4028,4029,4028,4029,4028,4029,4028,4029,4028,4029,4028,4029,4028,4029,4028,4029,4028,4029,4028,4029,4028,4029,4028,4029,4028,4029,4028,4029,4028,4029,4028,4029,4028,4029,4028,4029,4028,4029,4028,4029,4028,4029,4028,4029,4028,4029,4028,4029,4028,4029,4028,4029,166,166,326,326,326,326,326,4564,4565,333,334,324,324,324,
324,324,324,324,324,324,324,324,324,324,4229,4230,446,446,446,446,166,166,166,166,4229,4230,324,324,324,324,324,324,324,324,324,324,324,324,324,324,324,324,324,324,324,324,324,324,324,324,324,324,324,324,324,324,324,324,324,324,324,324,324,324,324,324,4564,4565,4566,166,166,166,166,166,206,4162,4163,4096,4095,4096,4095,4096,4095,4096,4095,4096,4095,4096,4095,4096,4095,4096,4095,4096,4095,4096,4095,4096,4095,4096,4095,4096,4095,4096,4095,4096,4095,4096,4095,4096,4095,4096,4095,4096,4095,4096,4095,4096,4095,4096,4095,4096,4095,4096,4095,4096,4095,4096,4095,4096,4095,4096,4095,4096,4095,4096,4095,4096,4095,4096,4095,4096,4095,4096,4095,4096,4095,4096,4095,4096,4095,4096,4095,4096,4095,4096,4095,4096,4095,4096,4095,4096,4095,4096,4095,4096,4095,4096,4095,4096,4095,4096,4095,4096,4095,4096,4095,4096,4095,4096,4095,4096,4095,4096,4095,4096,4095,4096,4095,4096,206,206,246,246,246,246,246,4631,4632,373,374,324,324,324,
324,324,324,324,324,324,324,324,324,324,4296,4297,166,166,166,166,206,206,206,206,4296,4297,324,324,324,324,324,324,324,324,324,324,324,324,324,324,324,324,324,324,324,324,324,324,324,324,324,324,324,324,324,324,324,324,324,324,324,324,324,324,324,324,4631,4632,4633,206,206,206,206,206,246,4229,4230,4163,4162,4163,4162,4163,4162,4163,4162,4163,4162,4163,4162,4163,4162,4163,4162,4163,4162,4163,4162,4163,4162,4163,4162,4163,4162,4163,4162,4163,4162,4163,4162,4163,4162,4163,4162,4163,4162,4163,4162,4163,4162,4163,4162,4163,4162,4163,4162,4163,4162,4163,4162,4163,4162,4163,4162,4163,4162,4163,4162,4163,4162,4163,4162,4163,4162,4163,4162,4163,4162,4163,4162,4163,4162,4163,4162,4163,4162,4163,4162,4163,4162,4163,4162,4163,4162,4163,4162,4163,4162,4163,4162,4163,4162,4163,4162,4163,4162,4163,4162,4163,4162,4163,4162,4163,4162,4163,4162,4163,4162,4163,4162,4163,246,246,286,286,286,286,286,4698,4699,293,294,324,324,324,
324,324,324,324,324,324,324,324,324,324,4363,4364,206,206,206,206,246,246,246,246,4363,4364,324,324,324,324,324,324,324,324,324,324,324,324,324,324,324,324,324,324,324,324,324,324,324,324,324,324,324,324,324,324,324,324,324,324,324,324,324,324,324,324,4698,4699,4700,246,246,246,246,246,286,4296,4297,295,292,293,294,295,292,293,294,295,292,293,294,295,292,293,294,295,292,293,294,295,292,293,294,295,292,293,294,295,292,293,294,295,292,293,294,295,292,293,294,295,292,293,294,295,292,293,294,295,292,293,294,295,292,293,294,295,292,293,294,295,292,293,294,295,292,293,294,295,292,293,294,295,292,293,294,295,292,293,294,295,292,293,294,295,292,293,294,295,292,293,294,295,292,293,294,295,292,293,294,295,292,293,294,295,292,293,294,295,292,293,4229,4230,286,286,326,326,326,326,326,4765,4766,333,334,324,324,324,
324,324,324,324,324,324,324,324,324,324,4430,4431,246,246,246,246,286,286,286,286,4430,4431,324,324,324,324,324,324,324,324,324,324,324,324,324,324,324,324,324,324,324,324,324,324,324,324,324,324,324,324,324,324,324,324,324,324,324,324,324,324,324,324,4765,4766,4767,286,286,286,286,286,286,4363,4364,363,363,363,363,363,363,363,363,363,363,363,363,363,363,363,363,363,363,363,363,363,363,363,363,363,363,363,363,363,363,363,363,363,363,363,363,363,363,363,363,363,363,363,363,363,363,363,363,363,363,363,363,363,363,363,363,363,363,363,363,363,363,363,363,363,363,363,363,363,363,363,363,363,363,363,363,363,363,363,363,363,363,363,363,363,363,363,363,363,363,363,363,363,363,363,363,363,363,363,363,363,363,363,363,363,363,363,363,363,363,363,4296,4297,326,326,246,246,246,246,246,4832,4833,373,374,324,324,324,
324,324,324,324,324,324,324,324,324,324,4497,4498,286,286,286,286,326,326,326,326,4497,4498,324,324,324,324,324,324,324,324,324,324,324,324,324,324,324,324,324,324,324,324,324,324,324,324,324,324,324,324,324,324,324,324,324,324,324,324,324,324,324,324,4832,4833,4834,326,326,326,326,326,326,4430,4431,363,363,324,324,324,324,324,324,324,324,324,324,324,324,324,324,324,324,324,324,324,324,324,324,324,324,324,324,324,324,324,324,324,324,324,324,324,324,324,324,324,324,324,324,324,324,324,324,324,324,324,324,324,324,324,324,324,324,324,324,324,324,324,324,324,324,324,324,324,324,324,324,324,324,324,324,324,324,324,324,324,324,324,324,324,324,324,324,324,324,324,324,324,324,324,324,324,324,324,324,324,364,364,364,364,364,364,364,364,364,364,4363,4364,366,366,286,286,286,286,286,4899,4900,293,294,324,324,324,
324,324,324,324,324,324,324,324,324,324,4564,4565,326,326,326,326,366,366,366,366,4564,4565,324,324,324,324,324,324,324,324,324,324,324,324,324,324,324,324,324,324,324,324,324,324,324,324,324,324,324,324,324,324,324,324,324,324,324,324,324,324,324,324,4899,4900,4901,366,366,366,366,366,366,4497,4498,363,363,324,324,324,324,324,324,324,324,324,324,324,324,324,324,324,324,324,324,324,324,324,324,324,324,324,324,324,324,324,324,324,324,324,324,324,324,324,324,324,324,324,324,324,324,324,324,324,324,324,324,324,324,324,324,324,324,324,324,324,324,324,324,324,324,324,324,324,324,324,324,324,324,324,324,324,324,324,324,324,324,324,324,324,324,324,324,324,324,324,324,324,324,324,324,324,324,324,324,324,364,364,364,364,364,364,364,364,364,364,4430,4431,406,406,326,326,326,326,326,4095,4096,333,334,324,324,324,
324,324,324,324,324,324,324,324,324,324,4631,4632,366,366,366,366,406,406,406,406,4631,4632,324,324,324,324,324,324,324,324,324,324,324,324,324,324,324,324,324,324,324,324,324,324,324,324,324,324,324,324,324,324,324,324,324,324,324,324,324,324,324,324,4095,4096,4097,406,406,406,406,406,406,4564,4565,363,363,324,324,324,324,324,324,324,324,324,324,324,324,324,324,324,324,324,324,324,324,324,324,324,324,324,324,324,324,324,324,324,324,324,324,324,324,324,324,324,324,324,324,324,324,324,324,324,324,324,324,324,324,324,324,324,324,324,324,324,324,324,324,324,324,324,324,324,324,324,324,324,324,324,324,324,324,324,324,324,324,324,324,324,324,324,324,324,324,324,324,324,324,324,324,324,324,324,324,324,364,364,364,364,364,364,364,364,364,364,4497,4498,446,446,246,246,246,246,246,4162,4163,373,374,324,324,324,
324,324,324,324,324,324,324,324,324,324,4698,4699,406,406,406,406,446,446,446,446,4698,4699,324,324,324,324,324,324,324,324,324,324,324,324,324,324,324,324,324,324,324,324,324,324,324,324,324,324,324,324,324,324,324,324,324,324,324,324,324,324,324,324,4162,4163,4164,446,446,446,446,446,446,4631,4632,363,363,324,324,324,324,324,324,324,324,324,324,324,324,324,324,324,324,324,324,324,324,324,324,324,324,324,324,324,324,324,324,324,324,324,324,324,324,324,324,324,324,324,324,324,324,324,324,324,324,324,324,324,324,324,324,324,324,324,324,324,324,324,324,324,324,324,324,324,324,324,324,324,324,324,324,324,324,324,324,324,324,324,324,324,324,324,324,324,324,324,324,324,324,324,324,324,324,324,324,324,364,364,364,364,364,364,364,364,364,364,4564,4565,166,166,286,286,286,286,286,4229,4230,293,294,324,324,324,
324,324,324,324,324,324,324,324,324,324,4765,4766,446,446,446,446,166,166,166,166,4765,4766,324,324,323,323,323,323,323,323,323,323,323,323,323,323,323,323,323,323,324,324,324,324,324,324,324,324,324,324,324,324,324,324,324,324,324,324,324,324,324,324,4229,4230,4231,166,166,166,166,166,166,4698,4699,363,363,324,324,324,324,324,324,324,324,324,324,324,324,324,324,324,324,324,324,324,324,324,324,324,324,324,324,324,324,324,324,324,324,324,324,324,324,324,324,324,324,324,324,324,324,324,324,324,324,324,324,324,324,324,324,324,324,324,324,324,324,324,324,324,324,324,324,324,324,324,324,324,324,324,324,324,324,324,324,324,324,324,324,324,324,324,324,324,324,324,324,324,324,324,324,324,324,324,324,324,364,364,364,364,364,364,364,364,364,364,4631,4632,206,206,326,326,326,326,326,4296,4297,333,334,324,324,324,
324,324,324,324,324,324,324,324,324,324,4832,4833,166,166,166,166,206,206,206,206,4832,4833,324,324,323,323,323,323,323,323,323,323,323,323,323,323,323,323,323,323,324,324,324,324,324,324,324,324,324,324,324,324,324,324,324,324,324,324,324,324,324,324,4296,4297,4298,206,206,206,206,206,206,4765,4766,363,363,324,324,324,324,324,324,324,324,324,324,324,324,324,324,324,324,324,324,324,324,324,324,324,324,324,324,324,324,324,324,324,324,324,324,324,324,324,324,324,324,324,324,324,324,324,324,324,324,324,324,324,324,324,324,324,324,324,324,324,324,324,324,324,324,324,324,324,324,324,324,324,324,324,324,324,324,324,324,324,324,324,324,324,324,324,324,324,324,324,324,324,324,324,324,324,324,324,324,324,364,364,364,364,364,364,364,364,364,364,4698,4699,246,246,246,246,246,246,246,4363,4364,373,374,324,324,324,
324,324,324,324,324,324,324,324,324,324,4899,4900,206,206,206,206,246,246,246,246,4899,4900,324,324,323,323,323,323,323,323,323,323,323,323,323,323,323,323,323,323,324,324,324,324,324,324,324,324,324,324,324,324,324,324,324,324,324,324,324,324,324,324,4363,4364,4365,246,246,246,246,246,246,4832,4833,363,363,324,324,324,324,324,324,324,324,324,324,324,324,324,324,324,324,324,324,324,324,324,324,324,324,324,324,324,324,324,324,324,324,324,324,324,324,324,324,324,324,324,324,324,324,324,324,324,324,324,324,324,324,324,324,324,324,324,324,324,324,324,324,324,324,324,324,324,324,324,324,324,324,324,324,324,324,324,324,324,324,324,324,324,324,324,324,324,324,324,324,324,324,324,324,324,324,324,324,324,364,364,364,364,364,364,364,364,364,364,4765,4766,286,286,286,286,286,286,286,4430,4431,293,294,324,324,324,
324,324,324,324,324,324,324,324,324,324,4095,4096,246,246,246,246,286,286,286,286,4095,4096,324,324,323,323,323,323,323,323,323,323,323,323,323,323,323,323,323,323,324,324,324,324,324,324,324,324,324,324,324,324,324,324,324,324,324,324,324,324,324,324,4430,4431,4432,286,286,286,286,286,286,4899,4900,363,363,324,324,324,324,324,324,324,324,324,324,324,324,324,324,324,324,324,324,324,324,324,324,324,324,324,324,324,324,324,324,324,324,324,324,324,324,324,324,324,324,324,324,324,324,324,324,324,324,324,324,324,324,324,324,324,324,324,324,324,324,324,324,324,324,324,324,324,324,324,324,324,324,324,324,324,324,324,324,324,324,324,324,324,324,324,324,324,324,324,324,324,324,324,324,324,324,324,324,324,364,364,364,364,364,364,364,364,364,364,4832,4833,326,326,326,326,326,326,326,4497,4498,333,334,324,324,324,
324,324,324,324,324,324,324,324,324,324,4162,4163,286,286,286,286,326,326,326,326,4162,4163,324,324,323,323,323,323,323,323,323,323,323,323,323,323,323,323,323,323,324,324,324,324,324,324,324,324,324,324,324,324,324,324,324,324,324,324,324,324,324,324,4497,4498,4499,326,326,326,326,326,326,4095,4096,363,363,324,324,324,324,324,324,324,324,324,324,324,324,324,324,324,324,324,324,324,324,324,324,324,324,324,324,324,324,324,324,324,324,324,324,324,324,324,324,324,324,324,324,324,324,324,324,324,324,324,324,324,324,324,324,324,324,324,324,324,324,324,324,324,324,324,324,324,324,324,324,324,324,324,324,324,324,324,324,324,324,324,324,324,324,324,324,324,324,324,324,324,324,324,324,324,324,324,324,324,364,364,364,364,364,364,364,364,364,364,4899,4900,366,366,246,246,246,246,246,4564,4565,373,374,324,324,324,
324,324,324,324,324,324,324,324,324,324,4229,4230,326,326,326,326,366,366,366,366,4229,4230,324,324,323,323,323,323,323,323,323,323,323,323,323,323,323,323,323,323,324,324,324,324,324,324,324,324,324,324,324,324,324,324,324,324,324,324,324,324,324,324,4564,4565,4566,366,366,366,366,366,366,4162,4163,363,363,324,324,324,324,324,324,324,324,324,324,324,324,324,324,324,324,324,324,324,324,324,324,324,324,324,324,324,324,324,324,324,324,324,324,324,324,324,324,324,324,324,324,324,324,324,324,324,324,324,324,324,324,324,324,324,324,324,324,324,324,324,324,324,324,324,324,324,324,324,324,324,324,324,324,324,324,324,324,324,324,323,324,324,324,324,324,324,324,324,324,324,324,324,324,324,324,324,324,324,364,364,364,364,364,364,364,364,364,364,4095,4096,406,406,286,286,286,286,286,4631,4632,293,294,324,324,324,
324,324,324,324,324,324,324,324,324,324,4296,4297,366,366,366,366,406,406,406,406,4296,4297,324,324,364,364,364,364,364,364,364,364,364,364,364,364,364,364,364,364,364,324,324,324,324,324,324,324,324,324,324,324,324,324,324,324,324,324,324,324,324,324,4631,4632,4633,406,406,406,406,406,406,4229,4230,363,363,324,324,324,324,324,324,324,324,324,324,324,324,324,324,324,324,324,324,324,324,324,324,324,324,324,324,324,324,324,324,324,324,324,324,324,324,324,324,324,324,324,324,324,324,324,324,324,324,324,324,324,324,324,324,324,324,324,324,324,324,324,324,324,324,324,324,324,324,324,324,324,324,324,324,324,324,324,324,324,324,324,324,324,324,324,324,324,324,324,324,324,324,324,324,324,324,324,324,324,364,364,364,364,364,364,364,364,364,364,4162,4163,446,446,326,326,326,326,326,4698,4699,333,334,324,324,324,
324,324,324,324,324,324,324,324,324,324,4363,4364,406,406,406,406,446,446,446,446,4363,4364,324,324,364,364,364,364,364,364,364,364,364,364,364,364,364,364,364,364,364,324,324,324,324,324,324,324,324,324,324,324,324,324,324,324,324,324,324,324,324,324,4698,4699,4095,446,446,446,446,446,446,4296,4297,363,363,324,324,324,324,324,324,324,324,324,324,324,324,324,324,324,324,324,324,324,324,324,324,324,324,324,324,324,325,325,325,325,325,325,325,325,325,325,325,325,325,325,325,325,325,325,325,325,325,325,325,325,325,325,325,325,325,325,325,325,325,325,325,325,325,325,325,325,325,325,325,325,325,325,325,325,325,325,325,325,325,325,325,325,325,325,325,325,324,324,324,324,324,324,324,324,324,324,324,324,364,364,364,364,364,364,364,364,364,364,4229,4230,166,166,246,246,246,246,246,4765,4766,373,374,324,324,324,
324,324,324,324,324,324,324,324,324,324,4430,4431,446,446,446,446,166,166,166,166,4430,4431,4028,4029,4028,4029,4028,4029,4028,4029,4028,4029,4028,4029,4028,4029,4028,4029,4028,4029,4028,4029,4028,4029,4028,4029,4028,4029,4028,4029,4028,4029,4028,4029,4028,4029,4028,4029,4028,4029,4028,4029,4028,4029,4095,166,166,166,166,166,166,4363,4364,363,363,324,324,324,327,327,327,327,327,327,327,327,327,327,327,327,327,327,327,327,327,327,327,327,327,327,327,327,325,325,325,325,325,325,325,325,325,325,325,325,325,325,325,325,325,325,325,325,325,325,325,325,325,325,325,325,325,325,325,325,325,325,325,325,325,325,325,325,325,325,325,325,325,325,325,325,325,325,325,325,325,325,325,325,325,325,325,325,324,324,324,324,324,324,324,324,324,324,324,324,364,364,364,364,364,364,364,364,364,364,4296,4297,206,206,286,286,286,286,286,4832,4833,293,294,324,324,324,
324,324,324,324,324,324,324,324,324,324,4497,4498,166,166,166,166,206,206,206,206,4095,4096,4095,4096,4095,4096,4095,4096,4095,4096,4095,4096,4095,4096,4095,4096,4095,4096,4095,4096,4095,4096,4095,4096,4095,4096,4095,4096,4095,4096,4095,4096,4095,4096,4095,4096,4095,4096,4095,4096,4095,4096,4095,4096,4095,206,206,206,206,206,206,4430,4431,363,363,324,324,324,327,327,327,327,327,327,327,327,327,327,327,327,327,327,327,327,327,327,327,327,327,327,327,327,325,325,325,325,325,325,325,325,325,325,325,325,325,325,325,325,325,325,325,325,325,325,325,325,325,325,325,325,325,325,325,325,325,325,325,325,325,325,325,325,325,325,325,325,325,325,325,325,325,325,325,325,325,325,325,325,325,325,325,325,324,324,324,324,324,324,324,324,324,324,324,324,364,364,364,364,364,364,364,364,364,364,4363,4364,246,246,326,326,326,326,326,4899,4900,333,334,324,324,324,
324,324,324,324,324,324,324,324,324,324,4564,4565,206,206,206,206,166,166,166,166,166,166,166,166,166,166,166,166,166,166,166,166,166,166,166,166,166,166,166,166,166,166,166,166,166,166,166,166,166,166,166,166,166,166,166,166,166,166,166,166,166,166,166,166,166,166,166,166,246,246,246,4497,4498,363,363,324,324,324,327,327,327,327,327,327,327,327,327,327,327,327,327,327,327,327,327,327,327,327,327,327,327,327,325,325,325,325,325,325,325,325,325,325,325,325,325,325,325,325,325,325,325,325,325,325,325,325,325,325,325,325,325,325,325,325,325,325,325,325,325,325,325,325,325,325,325,325,325,325,325,325,325,325,325,325,325,325,325,325,325,325,325,325,324,324,324,324,324,324,324,324,324,324,324,324,364,364,364,364,364,364,364,364,364,364,4430,4431,286,286,246,246,246,246,246,4095,4096,373,374,324,324,324,
324,324,324,324,324,324,324,324,324,324,4631,4632,246,246,246,246,206,206,206,206,206,206,206,206,206,206,206,206,206,206,206,206,206,206,206,206,206,206,206,206,206,206,206,206,206,206,206,206,206,206,206,206,206,206,206,206,206,206,206,206,206,206,206,206,206,206,206,206,206,286,286,4564,4565,363,363,324,324,324,327,327,327,327,327,327,327,327,327,327,327,327,327,327,327,327,327,327,327,327,327,327,327,327,325,4095,4096,4097,4095,4096,4097,4095,4096,4097,4095,4096,4097,4095,4096,4097,4095,4096,4097,4095,4096,4097,4095,4096,4097,4095,4096,4097,4095,4096,4097,4095,4096,4097,4095,4096,4097,4095,4096,4097,4095,4096,4097,4095,4096,4097,4095,4096,4097,4095,4096,4097,4095,4096,4097,4095,4096,4095,4096,4097,324,324,324,324,324,324,324,324,324,324,324,324,364,364,364,364,364,364,364,364,364,364,4497,4498,326,326,286,286,286,286,286,4162,4163,293,294,324,324,324,
324,324,324,324,324,324,324,324,324,324,4698,4699,286,286,286,286,246,246,246,246,246,246,246,246,246,246,246,246,246,246,246,246,246,246,246,246,246,246,246,246,246,246,246,246,246,246,246,246,246,246,246,246,246,246,246,246,246,246,246,246,246,246,246,246,246,246,246,246,246,326,326,4631,4632,363,363,324,324,324,327,327,327,327,327,327,327,327,327,327,327,327,327,327,327,327,327,327,327,327,327,327,327,327,333,4162,4163,4164,4162,4163,4164,4162,4163,4164,4162,4163,4164,4162,4163,4164,4162,4163,4164,4162,4163,4164,4162,4163,4164,4162,4163,4164,4162,4163,4164,4162,4163,4164,4162,4163,4164,4162,4163,4164,4162,4163,4164,4162,4163,4164,4162,4163,4164,4162,4163,4164,4162,4163,4164,4162,4163,4162,4163,4164,333,324,324,324,324,324,324,324,324,324,324,324,364,364,364,364,364,364,364,364,364,364,4564,4565,366,366,326,326,326,326,326,4229,4230,333,334,324,324,324,
324,324,324,324,324,324,324,324,324,324,4765,4766,166,166,166,166,166,166,166,166,166,166,166,166,166,166,246,246,246,246,246,246,246,246,246,246,246,166,166,166,166,166,166,166,166,166,166,166,166,166,166,166,166,166,166,166,166,166,166,166,166,166,166,166,166,166,166,166,166,366,366,4698,4699,363,363,333,324,324,327,327,327,327,327,327,327,327,327,327,327,327,327,327,327,327,327,327,327,327,327,327,327,327,373,4162,4163,166,166,166,166,166,166,166,166,166,166,166,166,166,166,166,166,166,166,166,166,166,166,166,166,166,166,166,166,166,166,166,166,166,166,166,166,166,166,166,166,166,166,166,166,166,166,166,166,166,166,166,166,166,166,4229,4230,4231,373,324,324,324,324,324,324,324,324,324,324,324,364,364,364,364,364,364,364,364,364,364,4631,4632,406,406,246,246,246,246,246,4296,4297,373,374,324,324,324,
324,324,324,324,324,324,324,324,324,324,4832,4833,206,206,206,206,206,206,206,206,206,206,206,206,206,206,246,246,246,246,246,246,246,246,246,246,246,206,206,206,206,206,206,206,206,206,206,206,206,206,206,206,206,206,206,206,206,206,206,206,206,206,206,206,206,206,206,206,206,406,406,4765,4766,363,363,333,334,324,327,327,327,327,327,327,327,327,327,327,327,327,327,327,327,327,327,327,327,327,327,327,327,327,327,4229,4230,206,206,206,206,206,206,206,206,206,206,206,206,206,206,206,206,206,206,206,206,206,206,206,206,206,206,206,206,206,206,206,206,206,206,206,206,206,206,206,206,206,206,206,206,206,206,206,206,206,206,206,206,206,206,4296,4297,4298,324,324,324,324,324,324,324,324,324,324,324,324,364,364,364,364,364,364,364,364,364,364,4698,4699,446,446,286,286,286,286,286,4363,4364,293,294,324,324,324,
324,324,324,324,324,324,324,324,324,324,4899,4900,246,246,246,246,246,246,246,246,246,246,246,246,246,246,246,246,246,246,246,246,246,246,246,246,246,246,246,246,246,246,246,246,246,246,246,246,246,246,246,246,246,246,246,246,246,246,246,246,246,246,246,246,246,246,246,246,246,446,446,4832,4833,363,363,373,374,324,327,327,327,327,327,327,327,327,327,327,327,327,327,327,327,327,327,327,327,327,327,327,327,327,327,4296,4297,166,166,166,166,166,166,166,166,166,166,166,166,166,166,166,166,166,166,166,166,166,166,166,166,166,166,166,166,166,166,166,166,166,166,166,166,166,166,166,166,166,166,166,166,166,366,366,366,366,366,366,366,366,366,4363,4364,4365,324,324,324,324,324,324,324,324,324,324,324,324,364,364,364,364,364,364,364,364,364,364,4765,4766,166,166,326,326,326,326,326,4430,4431,333,334,324,324,324,
324,324,324,324,324,324,324,324,324,324,4095,4096,286,286,286,286,286,286,286,286,286,286,286,286,286,286,246,246,246,246,246,246,246,246,246,246,246,286,286,286,286,286,286,286,286,286,286,286,286,286,286,286,286,286,286,286,286,286,286,286,286,286,286,286,286,286,286,286,286,166,166,4899,4900,363,363,333,334,324,327,327,327,327,327,327,327,327,327,327,327,327,327,327,327,327,327,327,327,327,327,327,327,327,327,4363,4364,166,166,166,166,166,166,166,166,166,166,166,166,166,166,166,166,166,166,166,166,166,166,166,166,166,166,166,166,166,166,166,166,166,166,166,166,166,166,166,166,166,166,166,166,206,406,406,406,406,406,406,406,406,406,4430,4431,4432,324,324,324,324,324,324,324,324,324,324,324,324,364,364,364,364,364,364,364,364,364,364,4832,4833,206,206,246,246,246,246,246,4497,4498,373,374,324,324,324,
324,324,324,324,324,324,324,324,324,324,4162,4163,4029,4028,4029,4028,4029,4028,4029,4028,4029,4028,4029,4028,4029,4028,4029,4028,4029,4028,4029,4028,4029,4028,4029,4028,4029,4028,4029,4028,4029,4028,4029,4028,4029,4028,4029,4028,4029,4028,4029,4028,4029,4028,4029,4028,4029,4028,4029,4028,4029,4028,4029,4028,4029,4028,4029,4028,4029,4028,4029,4095,4096,363,363,324,324,324,327,327,327,327,327,327,327,327,327,327,327,327,327,327,327,327,327,327,327,327,327,327,327,327,327,4430,4431,206,206,206,166,166,166,166,166,166,166,166,166,166,166,166,166,166,166,166,166,166,166,166,166,166,166,166,166,166,166,166,166,166,166,166,166,166,166,166,166,166,166,166,166,166,166,166,166,446,446,446,446,446,446,4497,4498,4499,324,324,324,324,324,324,324,324,324,324,324,324,364,364,364,364,364,364,364,364,364,364,4899,4900,246,246,286,286,286,286,286,4564,4565,293,294,324,324,324,
324,324,324,324,324,324,324,324,324,325,4229,4230,4096,4095,4096,4095,4096,4095,4096,4095,4096,4095,4096,4095,4096,4095,4096,4095,4096,4095,4096,4095,4096,4095,4096,4095,4096,4095,4096,4095,4096,4095,4096,4095,4096,4095,4096,4095,4096,4095,4096,4095,4096,4095,4096,4095,4096,4095,4096,4095,4096,4095,4096,4095,4096,4095,4096,4095,4096,4095,4096,4162,4163,363,363,324,324,324,327,327,327,327,327,327,327,327,327,327,327,327,327,327,327,327,327,327,327,327,327,327,327,327,327,4497,4498,286,286,286,206,206,206,206,206,206,206,206,206,206,206,206,206,206,206,206,206,206,206,206,206,206,206,206,206,206,206,206,206,206,206,206,206,206,206,206,206,206,206,206,206,206,206,206,206,166,166,166,166,166,166,4564,4565,4566,324,324,324,324,324,324,324,324,324,324,324,324,364,364,364,364,364,364,364,364,364,364,4095,4096,286,286,326,326,326,326,326,4631,4632,333,334,324,324,324,
324,324,324,324,324,324,324,324,324,325,4296,4297,4163,4162,4163,4162,4163,4162,4163,4162,4163,4162,4163,4162,4163,4162,4163,4162,4163,4162,4163,4162,4163,4162,4163,4162,4163,4162,4163,4162,4163,4162,4163,4162,4163,4162,4163,4162,4163,4162,4163,4162,4163,4162,4163,4162,4163,4162,4163,4162,4163,4162,4163,4162,4163,4162,4163,4162,4163,4162,4163,4229,4230,363,363,324,324,324,327,327,327,327,327,327,327,327,327,327,327,327,327,327,327,327,327,327,327,327,327,327,327,327,327,4564,4565,286,286,286,246,246,246,166,166,166,4029,4028,4029,4028,4029,4028,4029,4028,4029,4028,4029,4028,4029,4028,4029,4028,4029,4028,4029,4028,4029,4028,4029,4028,4029,4028,4029,4028,4029,4028,4029,4028,4029,4028,4029,4095,4096,343,246,206,206,206,206,206,206,4631,4632,4633,324,324,324,324,324,324,324,324,324,324,324,324,364,364,364,364,364,364,364,364,364,364,4162,4163,326,326,246,246,246,246,246,4698,4699,373,374,324,324,324,
324,324,324,324,324,324,324,324,324,325,325,325,325,325,325,325,325,325,325,325,325,325,325,325,325,325,325,325,325,325,325,325,325,325,325,325,325,325,325,325,325,325,325,325,325,325,325,325,325,325,325,325,325,325,325,325,325,325,325,325,325,325,325,325,325,325,325,325,325,325,325,325,325,324,324,324,324,324,327,327,327,327,327,327,327,327,327,327,327,327,327,327,327,327,327,327,327,327,327,327,327,327,327,4631,4632,286,286,286,286,286,286,206,206,206,4095,4096,4097,4095,4096,4095,4096,4095,4096,4095,4096,4095,4096,4095,4096,4095,4096,4095,4096,4095,4096,4095,4096,4095,4096,4095,4096,4095,4096,4095,4096,4095,4096,4095,4762,4162,4163,343,246,246,246,246,246,246,246,4698,4699,4700,324,324,324,324,324,324,324,324,324,324,324,324,364,364,364,364,364,364,364,364,364,364,4229,4230,366,366,286,286,286,286,286,4765,4766,293,294,324,324,324,
324,324,324,324,324,324,324,324,324,325,325,325,325,325,325,325,325,325,325,325,325,325,325,325,325,325,325,325,325,325,325,325,325,325,325,325,325,325,325,325,325,325,325,325,325,325,325,325,325,325,325,325,325,325,325,325,325,325,325,325,325,325,325,325,325,325,325,325,325,325,325,325,325,324,324,324,324,324,327,327,327,327,327,327,327,327,327,327,327,327,327,327,327,327,327,327,327,327,327,327,327,327,327,4698,4699,286,286,286,286,286,286,246,246,246,4162,4163,4164,324,324,324,324,324,324,324,324,324,324,324,324,324,324,324,324,324,324,324,324,324,324,324,324,324,324,324,324,324,324,324,4829,4229,4230,286,286,286,286,286,286,286,286,4765,4766,4767,324,324,324,324,324,324,324,324,324,324,324,324,364,364,364,364,364,364,364,364,364,364,4296,4297,406,406,326,326,326,326,326,4832,4833,333,334,324,324,324,
324,324,324,324,324,324,324,324,324,324,324,324,324,324,324,324,324,324,324,324,324,324,324,324,324,324,324,324,324,324,324,324,324,324,324,324,324,324,324,324,324,324,324,324,324,324,324,324,324,324,324,324,324,324,324,324,324,324,324,324,324,324,324,324,324,324,324,324,324,324,324,324,324,324,324,324,324,324,327,327,327,327,327,327,327,327,327,327,327,327,327,327,327,327,327,327,327,327,327,327,327,327,327,4765,4766,286,286,286,286,286,286,286,286,286,4229,4230,4231,324,324,324,324,324,324,324,324,324,324,324,324,324,324,324,324,324,324,324,324,324,324,324,324,324,324,324,324,324,324,324,4762,4296,4297,326,326,326,326,326,326,326,326,4832,4833,4834,324,324,324,324,324,324,324,324,324,324,324,324,364,364,364,364,364,364,364,364,364,364,4363,4364,446,446,246,246,246,246,246,4899,4900,373,374,324,324,324,
324,324,324,324,324,324,324,324,324,324,324,324,324,324,324,324,324,324,324,324,324,324,324,324,324,324,324,324,324,324,324,324,324,324,324,324,324,324,324,324,324,324,324,324,324,324,324,324,324,324,324,324,324,324,324,324,324,324,324,324,324,324,324,324,324,324,324,324,324,324,324,324,324,324,324,324,324,324,327,327,327,327,327,327,327,327,327,327,327,327,327,327,327,327,327,327,327,327,327,327,327,327,327,4832,4833,286,286,286,286,286,286,326,326,326,4296,4297,4298,324,324,324,324,324,324,324,324,324,324,324,324,324,324,324,324,324,324,324,324,324,324,324,324,324,324,324,324,324,324,324,4829,4363,4364,366,366,366,366,366,366,366,366,4899,4900,4901,324,324,324,324,324,324,324,324,324,324,324,324,364,364,364,364,364,364,364,364,364,364,4430,4431,166,166,286,286,286,286,286,4095,4096,293,294,324,324,324,
324,324,324,324,324,324,324,324,324,324,324,324,324,324,324,324,324,324,324,324,324,324,324,324,324,324,324,324,324,324,324,324,324,324,324,324,324,324,324,324,324,324,324,324,324,324,324,324,324,324,324,324,324,324,324,324,324,324,324,324,324,324,324,324,324,324,324,323,324,324,324,324,324,324,324,324,324,324,327,327,327,327,327,327,327,327,327,327,327,327,327,327,327,327,327,327,327,327,327,327,327,327,327,4899,4900,286,286,286,286,286,286,366,366,366,4363,4364,4365,324,324,324,324,324,324,324,324,324,324,324,324,324,324,324,324,324,324,324,324,324,324,324,324,324,324,324,324,324,324,324,4762,4430,4431,406,406,406,406,406,406,406,406,4095,4096,4097,324,324,324,324,324,324,324,324,324,324,324,324,364,364,364,364,364,364,364,364,364,364,4497,4498,206,206,326,326,326,326,326,4162,4163,333,334,324,324,324,
324,324,324,324,324,324,324,324,324,333,334,333,334,333,334,333,334,333,334,333,334,333,334,333,334,333,334,333,334,333,334,333,334,333,334,333,334,333,334,333,334,333,334,333,334,333,334,333,334,333,334,333,334,333,334,333,334,333,334,333,334,333,334,333,334,333,334,333,334,333,334,333,334,333,334,333,334,333,334,333,334,333,334,333,334,333,334,333,334,333,334,327,327,327,327,327,327,327,327,327,327,327,327,4095,4096,286,286,286,286,286,286,406,406,406,4430,4431,4432,324,324,324,324,324,324,324,324,324,324,324,324,324,324,324,324,324,324,324,324,324,324,324,324,324,324,324,324,324,324,324,4829,4497,4498,446,446,446,446,446,446,446,446,4162,4163,4164,324,324,324,324,324,324,324,324,324,324,324,324,364,364,364,364,364,364,364,364,364,364,4564,4565,246,246,246,246,246,246,246,4229,4230,373,374,324,324,324,
324,324,324,324,324,324,324,324,4095,4096,4097,4029,4028,4029,4028,4029,4028,4029,4028,4029,4028,4029,4028,4029,4028,4029,4028,4029,4028,4029,4028,4029,4028,4029,4028,4029,4028,4029,4028,4029,4028,4029,4028,4029,4028,4029,4028,4029,4028,4029,4028,4029,4028,4029,4028,4029,4028,4029,4028,4029,4028,4029,4028,4029,4028,4029,4028,4029,4028,4029,4028,4029,4028,4029,4028,4029,4028,4029,4028,4029,4028,4029,4028,4029,4028,4029,4028,4029,4028,4029,4028,4095,4096,327,327,327,327,327,327,327,327,327,327,4162,4163,286,286,286,286,286,286,446,446,446,4497,4498,4499,324,324,324,324,324,324,324,324,324,324,324,324,324,324,324,324,324,324,324,324,324,324,324,324,324,324,324,324,324,324,324,4762,4564,4565,166,166,166,166,166,166,166,166,4229,4230,4231,324,324,324,324,324,324,324,324,324,324,324,324,364,364,364,364,364,364,364,364,364,364,4631,4632,286,286,286,286,286,286,286,4296,4297,293,294,324,324,324,
324,324,324,324,324,324,324,324,4162,4163,4164,4096,4095,4096,4095,4096,4095,4096,4095,4096,4095,4096,4095,4096,4095,4096,4095,4096,4095,4096,4095,4096,4095,4096,4095,4096,4095,4096,4095,4096,4095,4096,4095,4096,4095,4096,4095,4096,4095,4096,4095,4096,4095,4096,4095,4096,4095,4096,4095,4096,4095,4096,4095,4096,4095,4096,4095,4096,4095,4096,4095,4096,4095,4096,4095,4096,4095,4096,4095,4096,4095,4096,4095,4096,4095,4096,4095,4096,4095,4096,4095,4162,4163,324,324,324,324,324,324,324,324,324,324,4229,4230,286,286,286,286,286,286,166,166,166,4564,4565,4566,324,324,324,324,324,324,324,324,324,324,324,324,324,324,324,324,324,324,324,324,324,324,324,324,324,324,324,324,324,324,324,4829,4631,4632,206,206,206,206,206,206,206,206,4296,4297,4298,324,324,324,324,324,324,324,324,324,324,324,324,364,364,364,364,364,364,364,364,364,364,4698,4699,326,326,326,326,326,326,326,4363,4364,333,334,324,324,324,
324,324,324,324,324,324,324,324,4229,4230,4231,206,206,206,206,206,206,206,206,206,206,206,206,206,206,206,206,206,206,206,206,206,206,206,206,206,206,206,206,206,206,206,206,206,206,206,206,206,206,206,206,206,206,206,206,206,206,206,206,206,206,206,206,206,286,286,286,286,286,286,286,286,286,286,286,286,286,286,286,286,286,286,286,286,286,246,246,246,246,246,246,4229,4230,324,324,324,324,324,324,324,324,324,324,4296,4297,286,286,286,286,286,286,206,206,206,4631,4632,4633,324,324,324,324,324,324,324,324,324,324,324,324,324,324,324,324,324,324,324,324,324,324,324,324,324,324,324,324,324,324,324,4762,4698,4699,246,246,246,246,246,246,246,246,4363,4364,4365,324,324,324,324,324,324,324,324,324,324,324,324,364,364,364,364,364,364,364,364,364,364,4765,4766,366,366,246,246,246,246,246,4430,4431,373,374,324,324,324,
324,324,324,324,324,324,324,324,4296,4297,4298,246,246,246,246,246,246,246,246,246,246,246,246,246,246,246,246,246,246,246,246,246,246,246,246,246,246,246,246,246,246,246,246,246,246,246,246,246,246,246,246,246,246,246,246,246,246,246,246,246,246,246,246,246,286,286,286,286,286,286,286,286,286,286,286,286,286,286,286,286,286,286,286,286,286,286,286,286,286,286,286,4296,4297,324,324,324,324,324,324,324,324,324,324,4363,4364,286,286,286,286,286,286,246,246,246,4698,4699,4700,324,324,324,324,324,324,324,324,324,324,324,324,324,324,324,324,324,324,324,324,324,324,324,324,324,324,324,324,324,324,324,4829,4765,4766,286,286,286,286,286,286,286,286,4430,4431,4432,324,324,324,324,324,324,324,324,324,324,324,324,364,364,364,364,364,364,364,364,364,364,4832,4833,406,406,286,286,286,286,286,4497,4498,293,294,324,324,324,
324,324,324,324,324,324,324,324,4363,4364,4365,286,286,286,286,286,286,286,286,286,286,286,286,286,286,286,286,286,286,286,286,286,286,286,286,286,286,286,286,286,286,286,286,286,286,286,286,286,286,286,286,286,286,286,286,286,286,286,286,286,286,286,286,286,286,286,286,286,286,286,286,286,286,286,286,286,286,286,286,286,286,286,286,286,286,326,326,326,326,326,326,4363,4364,324,324,324,324,324,324,324,324,324,324,4430,4431,286,286,286,286,286,286,286,286,286,4765,4766,4767,324,324,324,324,324,324,324,324,324,324,324,324,324,324,324,324,324,324,324,324,324,324,324,324,324,324,324,324,324,324,324,4762,4832,4833,326,326,326,326,326,326,326,326,4497,4498,4499,324,324,324,324,324,324,324,324,324,324,324,324,364,364,364,364,364,364,364,364,364,364,4899,4900,446,446,326,326,326,326,326,4564,4565,333,334,324,324,324,
324,324,324,324,324,324,324,324,4430,4431,4432,326,326,326,326,326,326,326,326,326,326,326,326,326,326,326,326,326,326,326,326,326,326,326,326,326,326,326,326,326,326,326,326,326,326,326,326,326,326,326,326,326,326,326,326,326,326,326,326,326,326,326,326,326,286,286,286,286,286,286,286,286,286,286,286,286,286,286,286,286,286,286,286,286,286,366,366,366,366,366,366,4430,4431,324,324,324,324,324,324,324,324,324,324,4497,4498,286,286,286,286,286,286,326,326,326,4832,4833,4834,324,324,324,324,324,324,324,324,324,324,324,324,324,324,324,324,324,324,324,324,324,324,324,324,324,324,324,324,324,324,324,4829,4899,4900,366,366,366,366,366,366,366,366,4564,4565,4566,324,324,324,324,324,324,324,324,324,324,324,324,364,364,364,364,364,364,364,364,364,364,4095,4096,166,166,246,246,246,246,246,4631,4632,373,374,324,324,324,
324,324,324,324,324,324,324,324,4497,4498,4499,366,366,366,366,366,366,366,366,366,366,366,366,366,366,366,366,366,366,366,366,366,366,366,366,366,366,366,366,366,366,366,366,366,366,366,366,366,366,366,366,366,366,366,366,366,166,166,166,166,366,366,366,366,286,286,286,286,286,286,286,286,286,286,286,286,286,286,286,286,286,286,286,286,286,406,406,406,406,406,406,4497,4498,324,324,324,324,324,324,324,324,324,324,4564,4565,286,286,286,286,286,286,366,366,366,4899,4900,4901,324,324,324,324,324,324,324,324,324,324,324,324,324,324,324,324,324,324,324,324,324,324,324,324,324,324,324,324,324,324,324,4762,4095,4096,406,406,406,406,406,406,406,406,4631,4632,4633,324,324,324,324,324,324,324,324,324,324,324,324,364,364,364,364,364,364,364,364,364,364,4162,4163,206,206,286,286,286,286,286,4698,4699,293,294,324,324,324,
324,324,324,324,324,324,324,324,4564,4565,4566,406,406,406,406,406,166,166,166,166,166,166,166,166,166,166,166,166,166,166,166,166,166,166,166,166,166,166,166,166,166,166,166,166,166,166,166,166,166,166,166,166,166,166,166,166,166,166,166,166,166,166,166,166,166,166,166,166,166,166,166,166,166,166,166,166,166,166,166,166,166,166,166,286,286,446,446,446,446,446,446,4564,4565,324,324,324,324,324,324,324,324,324,324,4631,4632,286,286,286,286,286,286,406,406,406,4095,4096,4097,324,324,324,324,324,324,324,324,324,324,324,324,324,324,324,324,324,324,324,324,324,324,324,324,324,324,324,324,324,324,324,4829,4162,4163,446,446,446,446,446,446,446,446,4698,4699,4700,324,324,324,324,324,324,324,324,324,324,324,324,364,364,364,364,364,364,364,364,364,364,4229,4230,246,246,326,326,326,326,326,4765,4766,333,334,324,324,324,
324,324,324,324,324,324,324,324,4631,4632,4633,446,446,446,446,446,206,206,206,206,206,206,206,206,206,206,206,206,206,206,206,206,206,206,206,206,206,206,206,206,206,206,206,206,206,206,206,206,206,206,206,206,206,206,206,206,206,206,206,206,206,206,206,206,206,206,206,206,206,206,206,206,206,206,206,206,206,206,206,206,206,206,206,286,286,166,166,166,166,166,166,4631,4632,324,324,324,324,324,324,324,324,324,324,4698,4699,286,286,286,286,286,286,446,446,446,4162,4163,4164,324,324,324,324,324,324,324,324,324,324,324,324,324,324,324,324,324,324,324,324,324,324,324,324,324,324,324,324,324,324,324,4762,4229,4230,166,166,166,166,166,166,166,166,4765,4766,4767,324,324,324,324,324,324,324,324,324,324,324,324,364,364,364,364,364,364,364,364,364,364,4296,4297,286,286,246,246,246,246,246,4832,4833,373,374,324,324,324,
324,324,324,324,324,324,324,324,4698,4699,4700,166,166,166,166,166,246,246,246,246,246,246,246,246,246,246,246,246,246,246,246,246,246,246,246,246,246,246,246,246,246,246,246,246,246,246,246,246,246,246,246,246,246,246,246,246,246,246,246,246,246,246,246,246,246,246,246,246,246,246,246,246,246,246,246,246,246,246,246,246,246,246,246,286,286,206,206,206,206,206,206,4698,4699,324,324,324,324,324,324,324,324,324,324,4765,4766,286,286,286,286,286,286,166,166,166,4229,4230,4231,324,324,324,324,324,324,324,324,324,324,324,324,324,324,324,324,324,324,324,324,324,324,324,324,324,324,324,324,324,324,324,4829,4296,4297,206,206,206,206,206,206,206,206,4832,4833,4834,324,324,324,324,324,324,324,324,324,324,324,324,364,364,364,364,364,364,364,364,364,364,4363,4364,326,326,286,286,286,286,286,4899,4900,293,294,324,324,324,
324,324,324,324,324,324,324,324,4765,4766,4767,206,206,206,206,206,286,286,286,286,286,286,286,286,286,286,286,286,286,286,286,286,286,286,286,286,286,286,286,286,286,286,286,286,286,286,286,286,286,286,286,286,286,286,286,286,286,286,286,286,286,286,286,286,286,286,286,286,286,286,286,286,286,286,286,286,286,286,286,286,286,286,286,246,246,246,246,246,246,246,246,4765,4766,324,324,324,324,324,324,324,324,324,324,4832,4833,286,286,286,286,286,286,206,206,206,4296,4297,4298,324,324,324,324,324,324,324,324,324,324,324,324,324,324,324,324,324,324,324,324,324,324,324,324,324,324,324,324,324,324,324,4762,4363,4364,246,246,246,246,246,246,246,246,4899,4900,4901,324,324,324,324,324,324,324,324,324,324,324,324,364,364,364,364,364,364,364,364,364,364,4430,4431,366,366,326,326,326,326,326,4095,4096,333,334,324,324,324,
324,324,324,324,324,324,324,324,4832,4833,4834,246,246,246,246,246,326,166,4964,4162,4163,4164,4162,4163,4164,4162,4163,4164,4162,4163,4164,4162,4163,4164,4162,4163,4164,4162,4163,4164,4162,4163,4164,4162,4163,4164,4162,4163,4164,4162,4163,4164,4162,4163,4164,4162,4163,4164,4162,4163,4164,4162,4163,4164,4162,4163,4164,4162,4163,4164,4162,4163,4164,4162,4163,4164,4162,4163,4164,4162,4163,4164,4162,4163,166,286,286,286,286,286,286,4832,4833,324,324,324,324,324,324,324,324,324,324,4899,4900,286,286,286,286,286,286,246,246,246,4363,4364,4365,324,324,324,324,324,324,324,324,324,324,324,324,324,324,324,324,324,324,324,324,324,324,324,324,324,324,324,324,324,324,324,4829,4430,4431,286,286,286,286,286,286,286,286,4095,4096,4097,324,324,324,324,324,324,324,324,324,324,324,324,364,364,364,364,364,364,364,364,364,364,4497,4498,406,406,246,246,246,246,246,4162,4163,373,374,324,324,324,
324,324,324,324,324,324,324,324,4899,4900,4901,286,286,286,286,286,366,206,4229,4229,4230,4231,4229,4230,4231,4229,4230,4231,4229,4230,4231,4229,4230,4231,4229,4230,4231,4229,4230,4231,4229,4230,4231,4229,4230,4231,4229,4230,4231,4229,4230,4231,4229,4230,4231,4229,4230,4231,4229,4230,4231,4229,4230,4231,4229,4230,4231,4229,4230,4231,4229,4230,4231,4229,4230,4231,4229,4230,4231,4229,4230,4231,4162,4163,166,326,326,326,326,326,326,4899,4900,324,324,324,324,324,324,324,324,324,324,4095,4096,286,286,286,286,286,286,286,286,286,4430,4431,4432,324,324,324,324,324,324,324,324,324,324,324,324,324,324,324,324,324,324,324,324,324,324,324,324,324,324,324,324,324,324,324,4762,4497,4498,326,326,326,326,326,326,326,326,4162,4163,4164,295,292,293,294,295,292,293,294,295,292,293,294,295,292,293,294,295,292,293,294,295,292,4564,4565,446,446,286,286,286,286,286,4229,4230,293,294,324,324,324,
324,324,324,324,324,324,324,324,4095,4096,4097,326,326,326,326,326,406,246,4296,4297,293,292,293,292,293,292,293,292,293,292,293,292,293,292,293,292,293,292,293,292,293,292,293,292,293,292,293,292,293,292,293,292,293,292,293,292,293,292,293,292,293,292,293,292,293,292,293,292,293,292,293,292,293,292,293,292,293,292,293,292,293,292,4229,4230,366,366,366,366,366,366,366,4095,4096,324,324,324,324,324,324,324,324,324,324,4162,4163,286,286,286,286,286,286,326,326,326,4497,4498,4499,324,324,324,324,324,324,324,324,324,324,324,324,324,324,324,324,324,324,324,324,324,324,324,324,324,324,324,324,324,324,324,4829,4564,4565,366,366,366,366,366,366,1610612982,1610613022,4830,4230,4231,4028,4029,4028,4029,4028,4029,4028,4029,4028,4029,4028,4029,4028,4029,4028,4029,4028,4029,4028,4029,4028,4029,4028,4029,1610613062,1610612982,1610613022,1610613062,1610612982,1610613022,1610613062,4296,4297,333,334,324,324,324,
324,324,324,324,324,324,324,324,4162,4163,4164,366,366,366,366,366,446,286,4363,4364,333,332,333,332,333,332,333,332,333,332,333,332,333,332,333,332,333,332,333,332,333,332,333,332,333,332,333,332,333,332,333,332,333,332,333,332,333,332,333,332,333,332,333,332,333,332,333,332,333,332,333,332,333,332,333,332,333,332,333,332,333,332,4296,4297,406,406,406,406,406,406,406,4162,4163,324,324,324,324,324,324,324,324,324,324,4229,4230,286,286,286,286,286,286,366,366,366,4564,4565,4566,324,324,324,324,324,324,324,324,324,324,324,324,324,324,324,324,324,324,324,324,324,324,324,324,324,324,324,324,324,324,324,4762,4631,4632,406,406,406,406,406,406,1610612982,1610613022,4830,4095,4096,4095,4096,4095,4096,4095,4096,4095,4096,4095,4096,4095,4096,4095,4096,4095,4096,4095,4096,4095,4096,4095,4096,4095,4096,1610613062,1610612982,1610613022,1610613062,1610612982,1610613022,1610613062,4363,4364,373,374,324,324,324,
324,324,324,324,324,324,324,324,4229,4230,4231,406,406,406,406,406,166,326,4430,4431,373,372,373,372,373,372,373,372,373,372,373,372,373,372,373,372,373,372,373,372,373,372,373,372,373,372,373,372,373,372,373,372,373,372,373,372,373,372,373,372,373,372,373,372,373,372,373,372,373,372,373,372,373,372,373,372,373,372,373,372,373,372,4363,4364,446,446,446,446,446,446,446,4229,4230,324,324,324,324,324,324,324,324,324,324,4296,4297,286,286,286,286,286,286,406,406,406,4631,4632,4633,324,324,324,324,324,324,324,324,324,324,324,324,324,324,324,324,324,324,324,324,324,324,324,324,324,324,324,324,324,324,324,4829,4698,4699,446,446,446,446,446,446,1610612982,1610613022,1610613062,1610612982,1610613022,1610613062,1610612982,1610613022,1610613062,1610612982,1610613022,1610613062,1610612982,1610613022,1610613062,1610612982,1610613022,1610613062,1610612982,1610613022,1610613062,1610612982,1610613022,1610613062,1610612982,1610613022,1610613062,1610612982,1610613022,1610613062,1610612982,1610613022,1610613062,1610612982,1610613022,1610613062,4430,4431,293,294,324,324,324,
324,324,324,324,324,324,324,324,4296,4297,4298,446,446,446,446,446,446,366,4497,4498,292,293,292,293,292,293,292,293,292,293,292,293,292,293,292,293,292,293,292,293,292,293,292,293,292,293,292,293,292,293,292,293,292,293,292,293,292,293,292,293,292,293,292,293,292,293,292,293,292,293,292,293,292,293,292,293,292,293,292,293,292,293,4430,4431,166,166,166,166,166,166,166,4296,4297,324,324,324,324,324,324,324,324,324,324,4363,4364,286,286,286,286,286,286,446,446,446,4698,4699,4700,324,324,324,324,324,324,324,324,324,324,324,324,324,324,324,324,324,324,324,324,324,324,324,324,324,324,324,324,324,324,324,4762,4765,4766,166,166,166,166,166,166,1610612982,1610613022,1610613062,1610612982,1610613022,1610613062,1610612982,1610613022,1610613062,1610612982,1610613022,1610613062,1610612982,1610613022,1610613062,1610612982,1610613022,1610613062,1610612982,1610613022,1610613062,1610612982,1610613022,1610613062,1610612982,1610613022,1610613062,1610612982,1610613022,1610613062,1610612982,1610613022,1610613062,1610612982,1610613022,1610613062,4497,4498,333,334,324,324,324,
324,324,324,324,324,324,324,324,4363,4364,4365,166,166,166,166,166,166,406,4564,4565,332,333,332,333,332,333,332,333,332,333,332,333,332,333,332,333,332,333,332,333,332,333,332,333,332,333,332,333,332,333,332,333,332,333,332,333,332,333,332,333,332,333,332,333,332,333,332,333,332,333,332,333,332,333,332,333,332,333,332,333,332,333,4497,4498,206,206,206,206,206,206,206,4363,4364,324,324,324,324,324,324,324,324,324,324,4430,4431,286,286,286,286,286,286,166,166,166,4765,4766,4767,324,324,324,324,324,324,324,324,324,324,324,324,324,324,324,324,324,324,324,324,324,324,324,324,324,324,324,324,324,324,324,4829,4832,4833,206,206,206,206,206,206,1610612982,1610613022,1610613062,1610612982,1610613022,1610613062,1610612982,1610613022,1610613062,1610612982,1610613022,1610613062,1610612982,1610613022,1610613062,1610612982,1610613022,1610613062,1610612982,1610613022,1610613062,1610612982,1610613022,1610613062,1610612982,1610613022,1610613062,1610612982,1610613022,1610613062,1610612982,1610613022,1610613062,1610612982,1610613022,1610613062,4564,4565,373,374,324,324,324,
324,324,324,324,324,324,324,324,4430,4431,4432,206,206,206,206,206,206,206,4631,4632,364,364,364,364,364,364,364,364,324,324,324,324,324,324,324,324,324,324,324,324,324,324,324,327,327,327,327,327,327,327,327,327,327,327,327,327,327,327,327,327,327,327,327,327,327,327,327,327,327,327,327,327,327,327,327,327,327,327,327,327,327,327,4229,4230,246,246,246,246,246,246,246,4430,4431,324,324,324,324,324,324,324,324,324,324,4497,4498,286,286,286,286,286,286,206,206,206,4832,4833,4834,324,324,324,324,324,324,324,324,324,324,324,324,324,324,324,324,324,324,324,324,324,324,324,324,324,324,324,324,324,324,324,4762,4899,4900,246,246,246,246,246,246,1610612982,1610613022,1610613062,1610612982,1610613022,1610613062,1610612982,1610613022,1610613062,1610612982,1610613022,1610613062,1610612982,1610613022,1610613062,1610612982,1610613022,1610613062,1610612982,1610613022,1610613062,1610612982,1610613022,1610613062,1610612982,1610613022,1610613062,1610612982,1610613022,1610613062,1610612982,1610613022,1610613062,1610612982,1610613022,1610613062,4631,4632,293,294,324,324,324,
324,324,324,324,324,324,324,324,4497,4498,4499,246,246,246,246,246,246,246,4229,4230,364,364,364,364,364,364,364,364,324,324,324,324,324,324,324,324,324,324,324,324,324,324,324,327,327,327,327,327,327,327,327,327,327,327,327,327,327,327,327,327,327,327,327,327,327,327,327,327,327,327,327,327,327,327,327,327,327,327,327,327,327,327,4296,4297,286,286,286,286,286,286,286,4497,4498,324,324,324,324,324,324,324,324,324,324,4564,4565,286,286,286,286,286,286,246,246,246,4899,4900,4901,324,324,324,324,324,324,324,324,324,324,324,324,324,324,324,324,324,324,324,324,324,324,324,324,324,324,324,324,324,324,324,4829,4095,4096,286,286,286,286,286,286,1610612982,1610613022,1610613062,1610612982,1610613022,1610613062,1610612982,1610613022,1610613062,1610612982,1610613022,1610613062,1610612982,1610613022,1610613062,1610612982,1610613022,1610613062,1610612982,1610613022,1610613062,1610612982,1610613022,1610613062,1610612982,1610613022,1610613062,1610612982,1610613022,1610613062,1610612982,1610613022,1610613062,1610612982,1610613022,1610613062,4698,4699,333,334,324,324,324,
324,324,324,324,324,324,324,324,4564,4565,4566,286,286,286,286,286,286,286,4296,4297,364,364,364,364,364,364,364,364,324,324,324,324,324,324,324,324,324,324,324,324,324,324,324,327,327,327,327,327,327,327,327,327,327,327,327,327,327,327,327,327,327,327,327,327,327,327,327,327,327,327,327,327,327,327,327,327,327,327,327,327,327,327,4363,4364,326,326,326,326,326,326,326,4564,4565,324,324,324,324,324,324,324,324,324,324,4631,4632,286,286,286,286,286,286,286,286,286,4095,4096,4097,324,324,324,324,324,324,324,324,324,324,324,324,324,324,324,324,324,324,324,324,324,324,324,324,324,324,324,324,324,324,324,4762,4762,4163,326,326,326,326,326,326,1610612982,1610613022,1610613062,1610612982,1610613022,1610613062,1610612982,1610613022,1610613062,1610612982,1610613022,1610613062,1610612982,1610613022,1610613062,1610612982,1610613022,1610613062,1610612982,1610613022,1610613062,1610612982,1610613022,1610613062,1610612982,1610613022,1610613062,1610612982,1610613022,1610613062,1610612982,1610613022,1610613062,1610612982,1610613022,1610613062,4765,4766,373,374,324,324,324,
324,324,324,324,324,324,324,324,4631,4632,4633,326,326,326,326,326,326,326,4363,4364,364,364,364,364,364,364,364,364,324,324,324,324,324,324,324,324,324,324,324,324,324,324,324,327,327,327,327,327,327,327,327,327,327,327,327,327,327,327,327,327,327,327,327,327,327,327,327,327,327,327,327,327,327,327,327,327,327,327,327,327,327,327,4430,4431,366,366,366,366,366,366,366,4631,4632,324,324,324,324,324,324,324,324,324,324,4698,4699,286,286,286,286,286,286,326,326,326,4162,4163,4164,324,324,324,324,324,324,324,324,324,324,324,324,324,324,324,324,324,324,324,324,324,324,324,324,324,324,324,324,324,324,324,4829,4762,4230,4029,4028,4029,4028,4029,4028,4029,4028,4029,4028,4029,4028,4029,167,168,167,168,167,168,167,168,4028,4029,4028,4029,4028,4029,4028,4029,4028,4029,4028,4029,4028,4029,4028,4029,4028,4029,4028,4029,4028,4832,4833,293,294,324,324,324,
324,324,324,324,324,324,324,324,4698,4699,4700,366,366,366,366,366,366,366,4430,4431,364,364,364,364,364,364,364,364,324,324,324,324,324,324,324,324,324,324,324,324,324,324,324,327,232,232,232,232,232,232,232,232,232,232,232,232,232,232,232,232,232,232,232,232,232,232,232,232,232,232,232,232,232,232,232,232,232,232,232,232,232,232,167,168,406,406,406,406,406,406,406,4698,4699,324,324,324,324,324,324,324,324,324,324,4765,4766,286,286,286,286,286,286,366,366,366,4229,4230,4231,324,324,324,324,324,324,324,324,324,324,324,324,324,324,324,324,324,324,324,324,324,324,324,324,324,324,324,324,324,324,324,4762,4296,4297,4096,4095,4096,4095,4096,4095,4096,4095,4096,4095,4096,4095,4096,207,208,207,208,207,208,207,208,4095,4096,4095,4096,4095,4096,4095,4096,4095,4096,4095,4096,4095,4096,4095,4096,4095,4096,4095,4096,4095,4899,4900,333,334,324,324,324,
324,324,324,324,324,324,324,324,4765,4766,4767,406,406,406,406,406,406,406,4497,4498,364,364,364,364,364,364,364,364,324,324,324,324,324,324,324,324,324,324,324,324,324,324,324,327,232,232,232,232,232,232,232,232,232,232,232,232,232,232,232,232,232,232,232,232,232,232,232,232,232,232,232,232,232,232,232,232,232,232,232,232,232,232,207,208,446,446,446,446,446,446,446,4765,4766,324,324,324,324,324,324,324,324,324,324,4832,4833,286,286,286,286,286,286,406,406,406,4296,4297,4298,324,324,324,324,324,324,324,324,324,324,324,324,324,324,324,324,324,324,324,324,324,324,324,324,324,324,324,324,324,287,287,4829,4363,4364,4163,4162,4163,4162,4163,4162,4163,4162,4163,4162,4163,4162,4163,167,168,167,168,167,168,167,168,4162,4163,4162,4163,4162,4163,4162,4163,4162,4163,4162,4163,4162,4163,4162,4163,4162,4163,4162,4163,4162,4095,4096,373,374,324,324,324,
324,324,324,324,324,324,324,324,4832,4833,4834,446,446,446,446,446,446,446,4564,4565,364,364,364,364,364,364,364,364,324,324,324,324,324,324,324,324,324,324,324,324,324,324,324,327,232,232,232,232,232,232,232,232,232,232,232,232,232,232,232,232,232,232,232,232,232,232,232,232,232,232,232,232,232,232,232,232,232,232,232,232,232,232,167,168,166,166,166,166,166,166,166,4832,4833,324,324,324,324,324,324,324,324,324,324,4899,4900,286,286,286,286,286,286,446,446,446,4363,4364,4365,324,324,324,324,324,324,324,324,324,324,324,324,324,324,324,324,324,324,324,324,324,324,324,324,324,324,324,324,324,287,287,4762,4095,4229,4230,4229,4230,4229,4230,4229,4230,4229,4230,4229,4230,4229,4230,207,208,207,208,207,208,207,208,4229,4230,4229,4230,4229,4230,4229,4230,4229,4230,4229,4230,4229,4230,4229,4230,4229,4230,4229,4230,4229,4162,4163,293,294,324,324,324,
324,324,324,324,324,324,324,324,4899,4900,4901,166,166,166,166,166,166,166,4631,4632,364,364,364,364,364,364,364,364,324,324,324,324,324,324,324,324,324,324,324,324,324,324,324,327,232,232,232,232,232,232,232,232,232,232,232,232,232,232,232,232,232,232,232,232,232,232,232,232,232,232,232,232,232,232,232,232,232,232,232,232,232,232,207,208,206,206,206,206,206,206,206,4899,4900,324,324,324,324,324,324,324,324,324,324,4095,4096,286,286,286,286,286,286,166,166,166,4430,4431,4432,4095,4096,4097,4095,4096,4097,4095,4096,4097,4095,4096,4097,4095,4096,4097,4095,4096,4097,4095,4096,4097,4095,4096,4095,324,324,324,324,324,287,287,287,287,287,287,287,287,287,287,287,287,287,287,287,287,287,287,232,232,232,232,232,232,232,232,287,287,287,287,287,287,287,287,287,287,287,287,287,287,287,287,287,287,287,287,287,287,287,324,324,324,324,324,
324,324,324,324,324,324,324,324,4095,4096,4097,206,206,206,206,206,206,206,4698,4699,364,364,364,364,364,364,364,364,324,324,324,324,324,324,324,324,324,324,324,324,324,324,324,327,232,232,232,232,232,232,232,232,232,232,232,232,232,232,232,232,232,232,232,232,232,232,232,232,232,232,232,232,232,232,232,232,232,232,232,232,232,232,167,168,246,246,246,246,246,246,246,4095,4096,324,324,324,324,324,324,324,324,324,324,4162,4163,286,286,286,286,286,286,206,206,206,4162,4163,4164,4162,4163,4164,4162,4163,4164,4162,4163,4164,4162,4163,4164,4162,4163,4164,4162,4163,4164,4162,4163,4164,4095,4096,4097,324,324,324,324,324,287,287,287,287,287,287,287,287,287,287,287,287,287,287,287,287,287,287,232,232,232,232,232,232,232,232,287,287,287,287,287,287,287,287,287,287,287,287,287,287,287,287,287,287,287,287,287,287,287,324,324,324,324,324,
324,324,324,324,324,324,324,324,4162,4163,4164,246,246,246,246,246,246,246,4765,4766,364,364,364,364,364,364,364,364,324,324,324,324,324,324,324,324,324,324,324,324,324,324,324,327,232,232,232,232,232,232,232,232,232,232,232,232,232,232,232,232,232,232,232,232,232,232,232,232,232,232,232,232,232,232,232,232,232,232,232,232,232,232,167,168,286,286,286,286,286,286,286,4162,4163,327,327,327,327,327,327,327,327,327,327,4229,4230,286,286,286,286,166,166,246,246,246,166,166,166,166,166,166,166,166,166,166,166,166,166,166,166,166,166,166,166,166,166,166,166,166,4162,4163,4164,324,324,324,324,324,287,287,287,287,287,287,287,287,287,287,287,287,287,287,287,287,287,287,232,232,232,232,232,232,232,232,287,287,287,287,287,287,287,287,287,287,287,287,287,287,287,287,287,287,287,287,287,287,287,324,324,324,324,324,
324,324,324,324,324,324,324,324,4229,4230,4231,286,286,286,286,286,286,286,4832,4833,364,364,364,364,364,364,364,364,324,324,324,324,324,324,324,324,324,324,324,324,324,324,324,327,232,232,232,232,232,232,232,232,232,232,232,232,232,232,232,232,232,232,232,232,232,232,232,232,232,232,232,232,232,232,232,232,232,232,232,232,232,232,207,208,326,326,326,326,326,326,326,4229,4230,327,327,327,327,327,327,327,327,327,327,4296,4297,286,286,286,286,206,206,286,286,286,206,206,206,206,206,206,206,206,206,206,206,206,206,206,206,206,206,206,206,206,206,206,206,206,4229,4230,4231,324,324,324,324,324,287,287,287,287,287,287,287,287,287,287,287,287,287,287,287,287,287,287,232,232,232,232,232,232,232,232,287,287,287,287,287,287,287,287,287,287,287,287,287,287,287,287,287,287,287,287,287,287,287,324,324,324,324,324,
324,324,324,324,324,324,324,324,4296,4297,4298,326,326,326,326,326,326,326,4899,4900,364,364,364,364,364,364,364,364,324,324,324,324,324,324,324,324,324,324,324,324,324,324,324,327,232,232,232,232,232,232,232,232,327,327,327,327,327,327,327,327,327,327,327,327,327,327,327,327,327,327,327,327,327,327,327,327,327,327,327,327,327,327,4095,4096,166,166,166,166,166,166,166,4296,4297,327,327,327,327,327,327,327,327,327,327,4363,4364,286,286,286,286,246,246,326,326,326,246,246,246,246,246,246,246,246,246,246,246,246,246,246,246,246,246,246,246,246,246,246,246,246,4296,4297,4298,324,324,324,324,324,287,287,287,287,287,287,287,287,287,287,287,287,287,287,287,287,287,287,232,232,232,232,232,232,232,232,287,287,287,287,287,287,287,287,287,287,287,287,287,287,287,287,287,287,287,287,287,287,287,324,324,324,324,324,
324,324,324,324,324,324,324,324,4363,4364,4365,366,366,366,366,366,366,366,4095,4096,364,364,364,364,364,364,364,364,324,324,324,324,324,324,324,324,324,324,324,324,324,324,324,327,232,232,232,232,232,232,232,232,327,327,327,327,327,327,327,327,327,327,327,327,327,327,327,327,327,327,327,327,327,327,327,327,327,327,327,327,327,327,4162,4163,206,206,206,206,206,206,206,4363,4364,327,327,327,327,327,327,327,327,327,327,4430,4431,286,286,286,286,286,286,286,286,286,206,206,206,206,206,206,206,206,206,206,206,206,206,206,206,206,206,206,206,206,206,206,206,206,4363,4364,4365,324,324,324,324,324,287,287,287,287,287,287,287,287,287,287,287,287,287,287,287,287,287,287,232,232,232,232,232,232,232,232,287,287,287,287,287,287,287,287,287,287,287,287,287,287,287,287,287,287,287,287,287,287,287,324,324,324,324,324,
324,324,324,324,324,324,324,324,4430,4431,4432,406,406,406,406,406,406,406,4162,4163,364,364,364,364,364,364,364,364,324,324,324,324,324,324,324,324,324,324,324,324,324,324,324,327,232,232,232,232,232,232,232,232,327,327,327,327,327,327,327,327,327,327,327,327,327,327,327,327,327,327,327,327,327,327,327,327,327,327,327,327,327,327,4229,4230,246,246,246,246,246,246,246,4430,4431,327,327,327,327,327,327,327,327,327,327,4497,4498,286,286,286,286,286,286,286,286,286,246,246,246,246,246,246,246,246,246,246,246,246,246,246,246,246,246,246,246,246,246,246,246,246,4430,4431,4432,324,324,324,324,324,287,287,287,287,287,287,287,287,287,287,287,287,287,287,287,287,287,287,232,232,232,232,232,232,232,232,287,287,287,287,287,287,287,287,287,287,287,287,287,287,287,287,287,287,287,287,287,287,287,324,324,324,324,324,
324,324,324,324,324,324,324,324,4497,4498,4499,446,446,446,446,446,446,446,4229,4230,364,364,364,364,364,364,364,364,324,324,324,324,324,324,324,324,324,324,324,324,324,324,324,327,232,232,232,232,232,232,232,232,327,327,327,327,327,327,327,327,327,327,327,327,327,327,327,327,327,327,327,327,327,327,327,327,327,327,327,327,327,327,4296,4297,286,286,286,286,286,286,286,4497,4498,327,327,327,327,327,327,327,327,327,327,4564,4565,286,286,286,286,286,286,286,286,286,286,286,286,286,286,286,286,286,286,286,286,286,286,286,286,286,286,286,286,286,286,286,286,286,4497,4498,4499,324,324,324,324,324,287,287,287,287,287,287,287,287,287,287,287,287,287,287,287,287,287,287,232,232,232,232,232,232,232,232,287,287,287,287,287,287,287,287,287,287,287,287,287,287,287,287,287,287,287,287,287,287,287,324,324,324,324,324,
324,324,324,324,324,324,324,324,4564,4565,4566,166,166,166,166,166,166,166,4296,4297,364,364,364,364,364,364,364,364,324,324,324,324,324,324,324,324,324,324,324,324,324,324,324,327,232,232,232,232,232,232,232,232,327,327,327,327,327,327,327,327,327,327,327,327,327,327,327,327,327,327,327,327,327,327,327,327,327,327,327,327,327,327,4363,4364,326,326,326,326,326,326,326,4564,4565,327,327,327,327,327,327,327,327,327,327,4631,4632,326,326,326,326,326,326,326,326,326,326,326,326,326,326,326,326,326,326,326,326,326,326,326,326,326,326,326,326,326,326,326,326,326,4564,4565,4566,324,324,324,324,324,287,287,287,287,287,287,287,287,287,287,287,287,287,287,287,287,287,287,232,232,232,232,232,232,232,232,287,287,287,287,287,287,287,287,287,287,287,287,287,287,287,287,287,287,287,287,287,287,287,324,324,324,324,324,
324,324,324,324,324,324,324,324,4631,4632,4633,206,206,206,206,206,206,206,4363,4364,364,364,364,364,364,364,364,364,324,324,324,324,324,324,324,324,324,324,324,324,324,324,324,327,232,232,232,232,232,232,232,232,327,327,327,327,327,327,327,327,327,327,327,327,327,327,327,327,327,327,327,327,327,327,327,327,327,327,327,327,327,327,4430,4431,366,366,366,366,366,366,366,4631,4632,327,327,327,327,327,327,327,327,327,327,4698,4699,4097,4095,4096,4097,4095,4096,4097,4095,4096,4097,4095,4096,4097,4095,4096,4097,4095,4096,4097,4095,4096,4097,4095,4096,366,366,366,366,366,366,366,366,366,4631,4632,4633,324,324,324,324,324,287,287,287,287,287,287,287,287,287,287,287,287,287,287,287,287,287,287,232,232,232,232,232,232,232,232,287,287,287,287,287,287,287,287,287,287,287,287,287,287,287,287,287,287,287,287,287,287,287,324,324,324,324,324,
324,324,324,324,324,324,324,324,4698,4699,4700,246,246,246,246,246,246,246,4430,4431,364,364,364,364,364,364,364,364,324,324,324,324,324,324,324,324,324,324,324,324,324,324,324,327,232,232,232,232,232,232,232,232,327,327,327,327,327,327,327,327,327,327,327,327,327,327,327,327,327,327,327,327,327,327,327,327,327,327,327,327,327,327,4497,4498,286,286,286,286,286,286,286,4698,4699,327,327,327,327,327,327,327,327,327,292,4162,4163,4164,4162,4163,4164,4162,4163,4164,4162,4163,4164,4162,4163,4164,4162,4163,4164,4162,4163,4164,4162,4163,4164,4762,4163,406,406,406,406,406,406,406,406,406,4698,4699,4700,324,324,324,324,324,287,287,287,287,287,287,287,287,287,287,287,287,287,287,287,287,287,287,232,232,232,232,232,232,232,232,287,287,287,287,287,287,287,287,287,287,287,287,287,287,287,287,287,287,287,287,287,287,287,324,324,324,324,324,
324,324,324,324,324,324,324,324,4765,4766,4767,286,286,286,286,286,286,286,4497,4498,364,364,364,364,364,364,364,364,324,324,324,324,324,324,324,324,324,324,324,324,324,324,324,327,232,232,232,232,232,232,232,232,327,327,327,327,327,327,327,327,327,327,327,327,327,327,327,327,327,327,327,327,327,327,327,327,327,327,327,327,327,327,4564,4565,286,286,286,286,286,286,286,4765,4766,327,327,327,327,327,327,327,327,327,332,333,334,335,332,333,334,335,332,333,334,335,332,333,334,335,332,333,334,335,332,333,334,335,332,4829,4095,446,446,446,446,446,446,446,446,446,4765,4766,4767,324,324,324,324,324,287,287,287,287,287,287,287,287,287,287,287,287,287,287,287,287,287,287,232,232,232,232,232,232,232,232,287,287,287,287,287,287,287,287,287,287,287,287,287,287,287,287,287,287,287,287,287,287,287,324,324,324,324,324,
324,324,324,324,324,324,324,324,4832,4833,4834,326,326,326,326,326,326,326,4564,4565,364,364,364,364,364,364,364,364,324,324,324,324,324,324,324,324,324,324,324,324,324,324,324,327,232,232,232,232,232,232,232,232,327,327,327,327,327,327,327,327,327,327,327,327,327,327,327,327,327,327,327,327,327,327,327,327,327,327,327,327,327,327,4631,4632,286,286,286,286,286,286,286,4832,4833,327,327,327,327,327,327,327,327,327,372,373,374,375,372,373,374,375,372,373,374,375,372,373,374,375,372,373,374,375,372,373,374,375,372,4762,4162,166,166,166,166,166,166,166,166,166,4832,4833,4834,324,324,324,324,324,287,287,287,287,287,287,287,287,287,287,287,287,287,287,287,287,287,287,232,232,232,232,232,232,232,232,287,287,287,287,287,287,287,287,287,287,287,287,287,287,287,287,287,287,287,287,287,287,287,324,324,324,324,324,
324,324,324,324,324,324,324,324,4899,4900,4901,366,366,366,366,366,366,366,4631,4632,364,364,364,364,364,364,364,364,324,324,324,324,324,324,324,324,324,324,324,324,324,324,324,327,232,232,232,232,232,232,232,232,327,327,327,327,327,327,327,327,327,327,327,327,327,327,327,327,327,327,327,327,327,327,327,327,327,327,327,327,327,327,4698,4699,286,286,286,286,286,286,286,4899,4900,324,324,324,324,324,324,324,324,324,292,293,294,295,292,293,294,295,292,293,294,295,292,293,294,295,292,293,294,295,292,293,294,295,292,4829,4229,206,206,206,206,206,206,206,206,206,4899,4900,4901,324,324,324,324,324,287,287,287,287,287,287,287,287,287,287,287,287,287,287,287,287,287,287,232,232,232,232,232,232,232,232,287,287,287,287,287,287,287,287,287,287,287,287,287,287,287,287,287,287,287,287,287,287,287,324,324,324,324,324,
324,324,324,324,324,324,324,324,4095,4096,4097,406,406,406,406,406,406,406,4698,4699,364,364,364,364,364,364,364,364,324,324,324,324,324,324,324,324,324,324,324,324,324,324,324,327,232,232,232,232,232,232,232,232,327,327,327,327,327,327,327,327,327,327,327,327,327,327,327,327,327,327,327,327,327,327,327,327,327,327,327,327,327,327,4765,4766,286,286,286,286,286,286,245,4095,4762,4763,4764,4765,4762,4763,4764,4765,4762,4763,4764,4765,4762,4763,4764,4765,4762,4763,4764,4765,4762,4763,4764,324,324,324,324,324,324,324,324,324,324,324,324,4762,4296,246,246,246,246,246,246,246,246,246,4095,4096,4097,324,324,324,324,324,287,287,287,287,287,287,287,287,287,287,287,287,287,287,287,287,287,287,232,232,232,232,232,232,232,232,287,287,287,287,287,287,287,287,287,287,287,287,287,287,287,287,287,287,287,287,287,287,287,324,324,324,324,324,
324,324,324,324,324,324,324,324,4162,4163,4164,446,446,446,446,446,446,446,4765,4766,364,364,364,364,364,364,364,364,324,324,324,324,324,324,324,324,324,324,324,324,324,324,324,327,232,232,232,232,232,232,232,232,327,327,327,327,327,327,327,327,327,327,327,327,327,327,327,327,327,327,327,327,327,327,327,327,327,327,327,327,327,327,4832,4833,286,286,286,286,286,286,286,4162,4829,4830,4831,4832,4829,4830,4831,4832,4829,4830,4831,4832,4829,4830,4831,4832,4829,4830,4831,4832,4829,4830,4831,324,324,324,324,324,324,324,324,324,324,324,324,4829,4363,286,286,286,286,286,286,286,286,286,4162,4163,4164,324,324,324,324,324,287,287,287,287,287,287,287,287,287,287,287,287,287,287,287,287,287,287,232,232,232,232,232,232,232,232,287,287,287,287,287,287,287,287,287,287,287,287,287,287,287,287,287,287,287,287,287,287,287,324,324,324,324,324,
324,324,324,324,324,324,324,324,4229,4230,4231,166,166,166,166,166,166,166,4832,4833,364,364,364,364,364,364,364,364,324,324,324,324,324,324,324,324,324,324,324,324,324,324,324,327,232,232,232,232,232,232,232,232,327,327,327,327,327,327,327,327,327,327,327,327,327,327,327,327,327,327,327,327,327,327,327,327,327,327,327,327,327,327,4899,4900,286,286,286,286,286,286,166,166,166,166,166,166,166,166,166,166,166,166,166,166,166,166,166,166,166,166,166,166,166,4095,4096,324,324,324,324,324,324,324,324,324,324,324,324,4762,4430,326,326,326,326,326,326,326,326,326,4229,4230,4231,324,324,324,324,324,287,287,287,287,287,287,287,287,287,287,287,287,287,287,287,287,287,287,232,232,232,232,232,232,232,232,287,287,287,287,287,287,287,287,287,287,287,287,287,287,287,287,287,287,287,287,287,287,287,324,324,324,324,324,
324,324,324,324,324,324,324,324,4296,4297,4298,206,206,206,206,206,206,206,4899,4900,364,364,364,364,364,364,364,364,324,324,324,324,324,324,324,324,324,324,324,324,324,324,324,327,232,232,232,232,232,232,232,232,327,327,327,327,327,327,327,327,327,327,327,327,327,327,327,327,327,327,327,327,327,327,327,327,327,327,327,327,327,327,4095,4096,286,286,286,286,286,286,206,206,206,206,206,206,206,206,206,206,206,206,206,206,206,206,206,206,206,206,206,206,206,4162,4163,324,324,324,324,324,324,324,324,324,324,324,324,4829,4497,366,366,366,366,366,366,366,366,366,4296,4297,4298,324,324,324,324,324,287,287,287,287,287,287,287,287,287,287,287,287,287,287,287,287,287,287,232,232,232,232,232,232,232,232,287,287,287,287,287,287,287,287,287,287,287,287,287,287,287,287,287,287,287,287,287,287,287,324,324,324,324,324,
324,324,324,324,324,324,324,324,4363,4364,4365,246,246,246,246,246,246,246,4095,4096,364,364,364,364,364,364,364,364,324,324,324,324,324,324,324,324,324,324,324,324,324,324,324,327,232,232,232,232,232,232,232,232,327,327,327,327,327,327,327,327,327,327,327,327,327,327,327,327,327,327,327,327,327,327,327,327,327,327,327,327,327,327,4162,4163,286,286,286,286,286,286,246,246,246,246,246,246,246,246,246,246,246,246,246,246,246,246,246,246,246,246,246,246,246,4229,4230,324,324,324,324,324,324,324,324,324,324,324,324,4762,4564,406,406,406,406,406,406,406,406,406,4363,4364,4365,324,324,324,324,324,287,287,287,287,287,287,287,287,287,287,287,287,287,287,287,287,287,287,232,232,232,232,232,232,232,232,287,287,287,287,287,287,287,287,287,287,287,287,287,287,287,287,287,287,287,287,287,287,287,324,324,324,324,324,
324,324,324,324,324,324,324,324,4430,4431,4432,286,286,286,286,286,286,286,4162,4163,364,364,364,364,364,364,364,364,324,324,324,324,324,324,324,324,324,324,324,324,324,324,324,327,232,232,232,232,232,232,232,232,327,327,327,327,327,327,327,327,327,327,327,327,327,327,327,327,327,327,327,327,327,327,327,327,327,327,327,327,327,327,4229,4230,206,206,206,206,206,206,206,206,206,206,206,206,206,206,206,206,206,206,206,206,206,206,206,206,206,206,166,166,166,4296,4297,324,324,324,324,324,324,324,324,324,324,324,324,4829,4631,446,446,446,446,446,446,446,446,446,4430,4431,4432,324,324,324,324,324,287,287,287,287,287,287,287,287,287,287,287,287,287,287,287,287,287,287,232,232,232,232,232,232,232,232,287,287,287,287,287,287,287,287,287,287,287,287,287,287,287,287,287,287,287,287,287,287,287,324,324,324,324,324,
324,324,324,324,324,324,324,324,4497,4498,4499,326,326,326,326,326,326,326,4229,4230,364,364,364,364,364,364,364,364,324,324,324,324,324,324,324,324,324,324,324,324,324,324,324,327,232,232,232,232,232,232,232,232,327,327,327,327,327,327,327,327,327,327,327,327,327,327,327,327,327,327,327,327,327,327,327,327,327,327,327,327,327,327,4296,4297,246,246,246,246,246,246,246,246,246,246,246,246,246,246,246,246,246,246,246,246,246,246,246,246,246,246,206,206,206,4363,4364,324,324,324,324,324,324,324,324,324,324,324,324,4762,4698,166,166,166,166,166,166,166,166,166,4497,4498,4499,324,324,324,324,324,324,324,324,324,324,324,324,324,324,324,324,324,324,324,324,324,324,324,167,167,167,167,168,232,232,232,324,324,324,324,324,324,324,324,324,324,324,324,324,324,324,324,324,324,324,324,324,324,324,324,324,324,324,324,
324,324,324,324,324,324,324,324,4564,4565,4566,366,366,366,366,366,366,366,4296,4297,364,364,364,364,364,364,364,364,324,324,324,324,324,324,324,324,324,324,324,324,324,324,324,327,232,232,232,232,232,232,232,232,327,327,327,327,327,327,327,327,327,327,327,327,327,327,327,327,327,327,327,327,327,327,327,327,327,327,327,327,327,327,4363,4364,206,206,206,206,206,206,206,206,206,206,206,206,206,206,206,206,206,206,206,206,206,206,206,206,206,206,246,246,246,4430,4431,324,324,324,324,324,324,324,324,324,324,324,324,4829,4765,206,206,206,206,206,206,206,206,206,4564,4565,4566,324,324,324,324,324,324,324,324,324,324,324,324,324,324,324,324,324,324,324,324,324,324,324,167,167,167,167,167,167,167,168,324,324,324,324,324,324,324,324,324,324,324,324,324,324,324,324,324,324,324,324,324,324,324,324,324,324,324,324,
324,324,324,324,324,324,324,324,4631,4632,4633,406,406,406,406,406,406,406,4363,4364,364,364,364,364,364,364,364,364,324,324,324,324,324,324,324,324,324,324,324,324,324,324,324,327,232,232,232,232,232,232,232,232,327,327,327,327,327,327,327,327,327,327,327,327,327,327,327,327,327,327,327,327,327,327,327,327,327,327,327,327,327,327,4430,4431,4028,4029,4028,4029,4028,4029,4028,4029,4028,4029,4028,4029,4028,4029,4028,4029,4028,4029,4028,4029,246,246,246,246,246,246,286,286,286,4497,4498,324,324,324,324,324,324,324,324,324,324,324,324,4762,4832,246,246,246,246,246,246,246,246,246,4631,4632,4633,294,295,292,293,294,295,292,293,294,295,292,293,294,295,292,293,294,295,292,293,294,295,292,207,207,207,207,207,207,207,208,293,294,295,292,293,294,295,292,293,294,295,292,293,294,295,292,324,324,324,324,324,324,324,324,324,324,324,324,
324,324,324,324,324,324,324,324,4698,4699,4700,446,446,446,446,446,446,446,4430,4431,364,364,364,364,364,364,364,364,324,324,324,324,324,324,324,324,324,324,324,324,324,324,324,327,232,232,232,232,232,232,232,232,327,327,327,327,327,327,327,327,327,327,327,327,327,327,327,327,327,327,327,327,327,327,327,327,327,327,327,327,327,292,4497,4498,4095,4096,4095,4096,4095,4096,4095,4096,4095,4096,4095,4096,4095,4096,4095,4096,4095,4096,4095,4096,286,286,286,286,286,286,326,326,326,4564,4565,324,324,324,324,324,324,324,324,324,324,324,324,4829,4899,286,286,286,286,286,286,286,286,286,4698,4699,4700,3866,3867,3868,3869,3870,3871,3872,3873,3874,3875,3876,3877,3878,3879,3880,3881,3882,3883,3884,3885,3886,3863,3864,167,168,167,168,167,168,167,168,3873,3874,3875,3876,3877,3878,3879,3880,3881,3882,3883,3884,3885,3886,3863,4095,4095,4096,324,324,324,324,324,324,324,324,324,324,
324,324,324,324,324,324,324,324,4765,4766,4767,166,166,166,166,166,166,166,4497,4498,364,364,364,364,364,364,364,364,324,324,324,324,324,324,324,324,324,324,324,324,324,324,324,327,232,232,232,232,232,232,232,232,327,327,327,327,327,327,327,327,327,327,327,327,327,327,327,327,327,327,327,327,327,327,327,327,327,327,327,327,327,332,4564,4565,4162,4163,4162,4163,4162,4163,4162,4163,4162,4163,4162,4163,4162,4163,4162,4163,4162,4163,4162,4163,326,326,326,326,326,326,366,366,366,4631,4632,324,324,324,324,324,324,324,324,324,324,324,324,4762,4095,326,326,326,326,326,326,326,326,326,3930,3931,3932,3933,3934,3935,3936,3937,3938,3939,3940,3941,3942,3943,3944,3945,3946,3947,3948,3949,3950,3951,3952,3953,3930,3931,207,208,207,208,207,208,207,208,3940,3941,3942,3943,3944,3945,3946,3947,3948,3949,3950,3951,3952,3953,3930,4162,4162,4163,324,324,324,324,324,324,324,324,324,324,
324,324,324,324,324,324,324,324,4832,4833,4834,206,206,206,206,206,206,206,4564,4565,364,364,364,364,364,364,364,364,324,324,324,324,324,324,324,324,324,324,324,324,324,324,324,327,232,232,232,232,232,232,232,232,327,327,327,327,327,327,327,327,327,327,327,327,327,327,327,327,327,327,327,327,327,327,327,327,327,327,327,327,327,372,373,374,375,372,373,374,375,372,373,374,375,372,373,374,375,372,373,374,375,372,4229,4230,366,366,366,366,366,366,406,406,406,4698,4699,324,324,324,324,324,324,324,324,324,324,324,324,4829,4162,366,366,366,366,366,366,366,366,366,166,166,166,166,166,166,166,166,166,166,166,166,166,166,166,166,166,166,166,166,166,166,166,166,166,166,166,166,166,166,166,166,166,166,166,166,166,166,166,166,166,166,166,166,166,166,166,166,166,166,4229,4230,324,324,324,324,324,324,324,324,324,324,
324,324,324,324,324,324,324,324,4899,4900,4901,246,246,246,246,246,246,246,4631,4632,364,364,364,364,364,364,364,364,324,324,324,324,324,324,324,324,324,324,324,324,324,324,324,327,232,232,232,232,232,232,232,232,327,327,327,327,327,327,327,327,327,327,327,327,327,327,327,327,327,327,327,327,327,327,327,327,327,327,327,327,327,292,293,294,295,292,293,294,295,292,293,294,295,292,293,294,295,292,293,294,295,292,4296,4297,366,366,366,366,366,366,446,446,446,4765,4766,324,324,324,324,324,324,324,324,324,324,324,324,4762,4229,406,406,406,406,406,406,406,406,406,206,206,206,206,206,206,206,206,206,206,206,206,206,206,206,206,206,206,206,206,206,206,206,206,206,206,206,206,206,206,206,206,206,206,206,206,206,206,206,206,206,206,206,206,206,206,206,206,206,206,4296,4297,324,324,324,324,324,324,324,324,324,324,
324,324,324,324,324,324,324,324,4095,4096,4097,286,286,286,286,286,286,286,4698,4699,364,364,364,364,364,364,364,364,324,324,324,324,324,324,324,324,324,324,324,324,324,324,324,324,232,232,232,232,232,232,232,232,324,324,324,324,324,324,324,324,324,324,324,324,324,324,324,324,324,324,324,324,324,324,324,324,324,324,324,324,324,247,247,247,247,247,247,247,247,247,247,247,247,247,247,247,247,247,247,247,247,247,4363,4364,406,406,406,406,406,406,166,166,166,4832,4833,324,324,324,324,324,324,324,324,324,324,324,324,4829,4296,446,446,446,446,446,166,166,166,166,246,246,246,246,246,246,246,246,246,246,246,246,246,246,246,246,246,246,246,246,246,246,246,246,246,246,246,246,246,246,246,246,246,246,289,246,246,246,246,246,246,246,246,246,246,246,246,246,246,246,4363,4364,324,324,324,324,324,324,324,324,324,324,
324,324,324,324,324,324,324,324,4162,4163,4164,326,326,326,326,326,326,326,4765,4766,364,364,364,364,364,364,364,364,324,324,324,324,324,324,324,324,324,324,324,324,324,324,324,324,232,232,232,232,232,232,232,232,324,324,324,324,324,324,324,324,324,324,324,324,324,324,324,324,324,324,324,324,324,324,324,324,324,324,324,324,324,247,247,247,247,247,247,247,247,247,247,247,247,247,247,247,247,247,247,247,247,247,4430,4431,446,446,446,446,446,446,206,206,206,4899,4900,324,324,324,324,324,324,324,324,324,324,324,324,4762,4363,166,166,166,166,166,206,206,206,206,206,206,206,206,206,206,206,206,206,206,206,206,206,206,206,206,206,206,206,206,206,206,206,206,206,206,206,206,206,206,206,206,206,206,206,206,206,206,206,206,206,206,206,206,206,206,206,206,206,206,4430,4431,324,324,324,324,324,324,324,324,324,324,
324,324,324,324,324,324,324,324,4229,4230,4231,366,366,366,366,366,366,366,4832,4833,364,364,364,364,364,364,364,364,324,324,324,324,324,324,324,324,324,324,324,324,324,324,324,324,232,232,232,232,232,232,232,232,324,324,324,324,324,324,324,324,324,324,324,324,324,324,324,324,324,324,324,324,324,324,324,324,324,324,324,324,324,324,324,324,324,324,324,324,324,324,324,324,324,324,324,324,324,324,324,324,247,247,4497,4498,166,166,166,166,166,166,246,246,246,4095,4096,324,324,324,324,324,324,324,324,324,324,324,324,4829,4430,166,166,166,166,166,246,246,246,246,246,246,246,246,246,246,246,246,246,246,246,246,246,246,246,246,246,246,246,246,246,246,246,246,246,246,246,246,246,246,246,246,246,246,246,246,246,246,246,246,206,206,206,206,206,206,206,206,206,206,4497,4498,324,324,324,324,324,324,324,324,324,324,
324,324,324,324,324,324,324,324,4296,4297,4298,406,406,406,406,406,406,406,4899,4900,364,364,364,364,364,364,364,364,324,324,324,324,324,324,324,324,324,324,324,324,324,324,324,324,232,232,232,232,232,232,232,232,324,324,324,324,324,324,324,324,324,324,324,324,324,324,324,324,324,324,324,324,324,324,324,324,324,324,324,324,324,324,324,324,324,324,324,324,324,324,324,324,324,324,324,324,324,324,324,324,247,247,4564,4565,206,206,206,206,206,206,286,286,286,4162,4163,324,324,324,324,324,324,324,324,324,324,324,324,4762,4497,206,206,206,206,206,206,206,206,206,206,206,206,206,206,206,206,206,206,206,206,206,206,206,206,206,206,206,206,206,206,206,206,206,206,206,206,206,206,206,206,206,206,206,206,206,206,206,206,206,246,246,246,246,246,246,246,246,246,246,4564,4565,324,324,324,324,324,324,324,324,324,324,
324,324,324,324,324,324,324,324,4363,4364,4365,446,446,446,446,446,446,446,4095,4096,364,364,364,364,364,364,364,364,324,324,324,324,324,324,324,324,324,324,324,324,324,324,324,324,232,232,232,232,232,232,232,232,324,324,324,324,324,324,324,324,324,324,324,324,324,324,324,324,324,324,324,324,324,324,324,324,324,324,324,324,324,324,324,324,324,324,324,324,324,324,324,324,324,324,324,324,324,324,324,324,247,247,4631,4632,246,246,246,246,246,246,326,326,326,4229,4230,324,324,324,324,324,324,324,324,324,324,324,324,4829,4564,4028,4029,4028,4029,4028,4029,4028,4029,4028,4029,4028,4029,4028,4029,4028,4029,4028,4029,4028,4029,4028,4029,4028,4029,4028,4029,4028,4029,4028,4029,4028,4029,4028,4029,4028,4029,4028,4029,4028,4029,4028,4029,4028,4029,4028,4029,4028,4029,4028,4029,4028,4029,286,286,286,286,286,286,286,4631,4632,324,324,324,324,324,324,324,324,324,324,
324,324,324,324,324,324,324,324,4430,4431,4432,166,166,166,166,166,166,166,4162,4163,364,364,364,364,364,364,364,364,324,324,324,324,324,324,324,324,324,324,324,324,324,324,324,324,232,232,232,232,232,232,232,232,324,324,324,324,324,324,324,324,324,324,324,324,324,324,324,324,324,324,324,324,324,324,324,324,324,324,324,324,324,324,324,324,324,324,324,324,324,324,324,324,324,324,324,324,324,324,324,324,247,247,4698,4699,286,286,286,286,286,286,366,366,366,4296,4297,324,324,324,324,324,324,324,324,324,324,324,324,4762,4631,4095,4096,4095,4096,4095,4096,4095,4096,4095,4096,4095,4096,4095,4096,4095,4096,4095,4096,4095,4096,4095,4096,4095,4096,4095,4096,4095,4096,4095,4096,4095,4096,4095,4096,4095,4096,4095,4096,4095,4096,4095,4096,4095,4096,4095,4096,4095,4096,4095,4096,4095,4096,326,326,326,326,326,326,326,4698,4699,324,324,324,324,324,324,324,324,324,324,
324,324,324,324,324,324,324,324,4497,4498,4499,206,206,206,206,206,206,206,4229,4230,4028,4029,4028,4029,4028,4029,4028,4029,4028,4029,4028,4029,4028,4029,4028,4029,4028,4029,4028,4029,4028,4029,4028,4029,167,168,167,167,167,168,167,168,4028,4029,4028,4029,4028,4029,4028,4029,4028,4029,4028,4029,4028,4029,4028,4029,4028,4029,4028,4029,4028,4029,4028,4029,4028,4029,4028,4029,4028,4029,4028,4029,4095,4096,324,324,324,324,324,324,324,324,324,324,324,324,324,324,247,247,4765,4766,326,326,326,326,326,326,406,406,406,4363,4364,324,324,324,324,324,324,324,324,324,324,324,324,4829,4698,4162,4163,4162,4163,4162,4163,4162,4163,4162,4163,4162,4163,4162,4163,4162,4163,4162,4163,4162,4163,4162,4163,4162,4163,4162,4163,4162,4163,4162,4163,4162,4163,4162,4163,4162,4163,4162,4163,4162,4163,4162,4163,4162,4163,4162,4163,4162,4163,4162,4163,4162,4163,366,366,366,366,366,366,366,4765,4766,324,324,324,324,324,324,324,324,324,324,
324,324,324,324,324,324,324,324,4564,4565,4566,246,246,246,246,246,246,246,4296,4297,4095,4096,4095,4096,4095,4096,4095,4096,4095,4096,4095,4096,4095,4096,4095,4096,4095,4096,4095,4096,4095,4096,4095,4096,207,208,207,207,207,208,207,208,4095,4096,4095,4096,4095,4096,4095,4096,4095,4096,4095,4096,4095,4096,4095,4096,4095,4096,4095,4096,4095,4096,4095,4096,4095,4096,4095,4096,4095,4096,4095,4095,4162,4163,324,324,324,324,324,324,324,324,324,324,324,324,324,324,247,247,4832,4833,366,366,366,366,366,366,446,446,446,4430,4431,324,324,324,324,324,324,324,324,324,324,324,324,324,372,373,374,375,372,373,374,375,372,373,374,375,372,373,374,375,372,373,374,375,372,373,374,375,372,373,374,375,372,373,374,375,372,373,374,375,372,373,374,375,372,373,374,375,372,373,374,375,372,373,374,4229,4230,166,406,406,406,406,406,406,4832,4833,324,324,324,324,324,324,324,324,324,324,
324,324,324,324,324,324,324,324,4631,4632,4633,286,286,286,286,286,286,166,166,166,166,166,166,166,166,166,166,166,166,166,166,166,166,166,166,166,166,166,166,166,166,166,166,166,166,166,166,166,166,166,166,166,166,166,166,166,166,166,166,166,166,166,166,166,166,166,166,166,166,166,166,166,166,166,166,166,166,166,166,166,166,166,166,4162,4163,4164,324,324,324,324,324,324,324,324,324,324,324,324,324,324,247,247,4899,4900,406,406,406,406,406,406,166,166,166,4497,4498,324,324,324,324,324,324,324,324,324,324,324,324,324,292,293,294,295,292,293,294,295,292,293,294,295,292,293,294,295,292,293,294,295,292,293,294,295,292,293,294,295,292,293,294,295,292,293,294,295,292,293,294,295,292,293,294,295,292,293,294,295,292,293,294,4296,4297,446,446,446,446,446,446,446,4899,4900,324,324,324,324,324,324,324,324,324,324,
324,324,324,324,324,324,324,324,4698,4699,4700,326,326,326,326,166,166,166,166,166,166,166,166,166,166,166,166,166,166,166,166,166,166,166,166,166,166,166,166,166,166,166,166,166,166,166,166,166,166,166,166,166,166,166,166,166,166,166,166,166,166,166,166,166,166,166,166,166,166,166,166,166,166,166,166,166,166,166,166,166,166,166,166,4229,4230,4231,324,324,324,324,324,324,324,324,324,324,324,324,324,324,247,247,4095,4096,446,446,446,446,446,446,206,206,206,4564,4565,324,324,324,324,324,324,324,324,324,324,324,324,324,324,324,324,324,324,324,324,324,324,324,324,324,324,324,324,324,324,324,324,324,324,324,324,324,324,324,324,324,324,324,324,324,324,324,324,324,324,324,324,324,324,324,324,324,324,324,324,247,247,247,247,4363,4364,166,166,166,166,166,166,166,4095,4096,324,324,324,324,324,324,324,324,324,324,
324,324,324,324,324,324,324,324,4765,4766,4767,366,366,366,366,206,206,206,206,206,206,206,206,206,206,206,206,206,206,206,206,206,206,206,206,206,206,206,206,206,206,206,206,206,206,206,206,206,206,206,206,206,206,206,206,206,206,206,206,206,206,206,206,206,206,206,206,206,206,206,206,206,206,206,206,206,206,206,206,206,206,206,206,4296,4297,4298,324,324,324,324,324,324,324,324,324,324,324,324,324,324,247,247,4162,4163,166,166,166,166,166,166,246,246,246,4631,4632,324,324,324,324,324,324,324,324,324,324,324,324,324,324,324,324,324,324,324,324,324,324,324,324,324,324,324,324,324,324,324,324,324,324,324,324,324,324,324,324,324,324,324,324,324,324,324,324,324,324,324,324,324,324,324,324,324,324,324,324,247,247,247,247,4430,4431,206,206,206,206,206,206,206,4162,4163,324,324,324,324,324,324,324,324,324,324,
324,324,324,324,324,324,324,324,4832,4833,4834,406,406,406,406,406,406,406,406,406,406,406,406,406,406,206,206,206,206,206,206,206,206,206,206,206,206,206,206,206,206,206,206,206,206,206,206,206,206,206,206,206,206,206,206,206,206,206,206,206,206,206,206,206,206,206,206,206,206,206,206,206,206,206,206,206,206,206,206,206,206,206,206,4363,4364,4365,324,324,324,324,324,324,324,324,324,324,324,324,324,324,247,247,4229,4230,206,206,206,206,206,206,286,286,286,4698,4699,324,324,324,324,324,324,324,324,324,324,324,324,324,324,324,324,324,324,324,324,324,324,324,324,324,324,324,324,324,324,324,324,324,324,324,324,324,324,324,324,324,324,324,324,324,324,324,324,324,324,324,324,324,324,324,324,324,324,324,324,247,247,247,247,4497,4498,246,246,246,246,246,246,246,4229,4230,324,324,324,324,324,324,324,324,324,324,
324,324,324,324,324,324,324,324,4899,4900,4901,446,446,446,446,446,446,446,446,446,446,446,446,446,446,246,246,246,246,246,246,246,246,246,246,246,246,246,246,246,246,246,246,246,246,246,246,246,246,246,246,246,246,246,246,246,246,246,246,246,246,246,246,246,246,246,246,246,246,246,246,246,246,246,246,246,246,246,246,246,246,246,246,4430,4431,4432,324,324,324,324,324,324,324,324,324,324,324,324,324,324,247,247,4296,4297,246,246,246,246,246,246,326,326,326,4765,4766,334,333,334,333,334,333,334,333,334,333,334,333,334,333,334,333,334,333,334,333,334,333,334,333,334,333,334,333,334,333,334,333,334,333,334,333,334,324,324,324,324,324,324,324,324,324,324,324,324,324,324,324,324,324,324,324,324,324,324,324,247,247,247,247,4564,4565,286,286,286,286,286,286,286,4296,4297,324,324,324,324,324,324,324,324,324,324,
324,324,324,324,324,324,324,324,4095,4096,4097,166,166,166,166,166,166,166,166,166,166,166,166,166,166,286,286,286,286,286,286,286,286,286,286,286,286,286,286,286,286,286,286,286,286,286,286,286,286,286,286,286,286,286,286,286,286,286,286,286,286,286,286,286,286,286,286,286,286,286,286,286,286,286,286,286,286,286,286,286,286,286,286,4497,4498,4499,324,324,324,324,324,324,324,324,324,324,324,324,324,324,247,247,4363,4364,286,286,286,286,286,286,166,166,166,4832,4833,4029,4028,4029,4028,4029,4028,4029,4028,4029,4028,4029,4028,4029,4028,4029,4028,4029,4028,4029,4028,4029,4028,4029,4028,4029,4028,4029,4028,4029,4028,4029,4028,4029,4028,4029,4162,4163,4164,324,324,324,324,324,324,324,324,324,324,324,324,324,324,324,324,324,324,324,324,324,324,247,247,247,247,4631,4632,326,326,326,326,326,326,326,4363,4364,324,324,324,324,324,324,324,324,324,324,
324,324,324,324,324,324,324,324,4095,4095,4095,4096,4097,4095,4096,4097,4095,4096,4097,4095,4096,4097,4095,4096,4097,4095,4096,4097,4095,4096,4097,4095,4096,4097,4095,4096,4097,4095,4096,4097,4095,4096,4097,4095,4096,4097,4095,4096,4097,4095,4096,4097,4095,4096,4097,4095,4096,4097,4095,4096,4097,4095,4096,4097,4095,4096,4097,4095,4096,4097,4095,4096,4097,4095,4096,4097,4095,4898,326,326,326,326,326,4564,4565,4566,324,324,324,324,324,324,324,324,324,324,324,324,324,324,247,247,4430,4431,326,326,326,326,326,326,206,206,206,4964,4095,4096,4095,4096,4095,4096,4095,4096,4095,4096,4095,4096,4095,4096,4095,4096,4095,4096,4095,4096,4095,4096,4095,4096,4095,4096,4095,4096,4095,4096,4095,4096,4095,4096,4095,4096,4229,4230,4231,324,324,324,324,324,324,324,324,324,324,324,324,324,324,324,324,324,324,324,324,324,324,247,247,247,247,4698,4699,366,366,366,366,366,366,366,4430,4431,324,324,324,324,324,324,324,324,324,324,
324,324,324,324,324,324,324,324,4095,4095,4162,4163,4164,4162,4163,4164,4162,4163,4164,4162,4163,4164,4162,4163,4164,4162,4163,4164,4162,4163,4164,4162,4163,4164,4162,4163,4164,4162,4163,4164,4162,4163,4164,4162,4163,4164,4162,4163,4164,4162,4163,4164,4162,4163,4164,4162,4163,4164,4162,4163,4164,4162,4163,4164,4162,4163,4164,4162,4163,4164,4162,4163,4164,4162,4163,4164,4095,4096,366,366,366,366,366,4631,4632,4633,324,324,324,324,324,324,324,324,324,324,324,324,324,324,247,247,4497,4498,366,366,366,366,366,366,366,166,166,166,166,166,166,166,166,166,166,166,166,166,166,166,166,166,166,166,166,166,166,166,166,166,166,166,166,166,166,166,166,166,166,166,166,166,166,166,4296,4297,4298,324,324,324,324,324,324,324,324,324,324,324,324,324,324,324,324,324,324,324,324,324,324,247,247,247,247,4765,4766,406,406,406,406,406,406,406,4497,4498,324,324,324,324,324,324,324,324,324,324,
324,324,324,324,324,324,324,324,324,332,333,334,335,332,333,334,335,332,333,334,335,332,333,334,335,332,333,334,335,332,333,334,335,332,333,334,335,332,333,334,335,332,333,334,335,332,333,334,335,332,333,334,335,332,333,334,335,332,333,334,335,332,333,334,335,332,333,334,335,332,333,334,335,332,333,334,4162,4163,406,406,406,406,406,4698,4699,4700,324,324,324,324,324,324,324,324,324,324,324,324,324,324,247,247,4564,4565,406,406,406,406,406,406,406,206,206,206,206,206,206,206,206,206,206,206,206,206,206,206,206,206,206,206,206,206,206,206,206,206,206,206,206,206,206,206,206,206,206,206,206,206,206,206,4363,4364,4365,324,324,324,324,324,324,324,324,324,324,324,324,324,324,324,324,324,324,324,324,324,324,247,247,247,247,4832,4833,446,446,446,446,446,446,446,4564,4565,324,324,324,324,324,324,324,324,324,324,
324,324,324,324,324,324,324,324,324,372,373,374,375,372,373,374,375,372,373,374,375,372,373,374,375,372,373,374,375,372,373,374,375,372,373,374,375,372,373,374,375,372,373,374,375,372,373,374,375,372,373,374,375,372,373,374,375,372,373,374,375,372,373,374,375,372,373,374,375,372,373,374,375,372,373,374,4229,4230,446,446,446,446,446,4765,4766,4767,324,324,324,324,324,324,324,324,324,324,324,324,324,324,247,247,4631,4632,446,446,446,446,446,446,446,246,246,246,246,246,246,246,246,246,246,246,246,246,246,246,246,246,246,246,246,246,246,246,246,246,246,246,246,246,246,246,246,246,246,246,246,246,246,246,4430,4431,4432,324,324,324,324,324,324,324,324,324,324,324,324,324,324,324,324,324,324,324,324,324,324,247,247,247,247,4899,4900,166,166,166,166,166,166,166,4631,4632,324,324,324,324,324,324,324,324,324,324,
324,324,324,324,324,324,324,324,324,292,293,294,295,292,293,294,295,292,293,294,295,292,293,294,295,292,293,294,295,292,293,294,295,292,293,294,295,292,293,294,295,292,293,294,295,292,293,294,295,292,293,294,295,292,293,294,295,292,293,294,295,292,293,294,295,292,293,294,295,292,293,294,295,292,293,294,4296,4297,166,166,166,166,166,4832,4833,4834,324,324,324,324,324,324,324,324,324,324,324,324,324,324,247,247,4698,4699,166,166,166,166,166,166,166,286,286,286,286,286,286,286,286,286,286,286,286,286,286,286,286,286,286,286,286,286,286,286,286,286,286,286,286,286,286,286,286,286,286,286,286,286,286,286,4497,4498,4499,324,324,324,324,324,324,324,324,324,324,324,324,324,324,324,324,324,324,324,324,324,324,247,247,247,247,4095,4096,206,206,206,206,206,206,206,4698,4699,324,324,324,324,324,324,324,324,324,324,
324,324,324,324,324,324,324,324,324,324,324,324,324,324,324,324,324,324,324,324,324,324,324,324,324,324,324,324,324,324,324,324,324,324,324,324,324,324,324,324,324,324,324,324,324,324,324,324,324,324,324,324,324,324,324,324,333,333,333,324,324,324,324,324,324,324,324,324,324,324,324,324,324,324,324,324,4363,4364,206,206,206,206,206,4899,4900,4901,324,324,324,324,324,324,324,324,324,324,324,324,324,324,247,247,4765,4766,206,206,206,206,206,206,206,326,326,326,326,326,326,326,326,326,326,326,326,326,326,326,326,326,326,326,326,326,326,326,326,326,326,326,326,326,326,326,326,326,326,326,326,326,326,326,4564,4565,4566,324,324,324,324,324,324,324,324,324,324,324,324,324,324,324,324,324,324,324,324,324,324,247,247,247,247,4162,4163,246,246,246,246,246,246,246,4765,4766,324,324,324,324,324,324,324,324,324,324,
324,324,324,324,324,324,324,324,324,324,324,324,324,324,324,324,324,324,324,324,324,324,324,324,324,324,324,324,324,324,324,324,324,324,324,324,324,324,324,324,324,324,324,324,324,324,324,324,324,324,324,324,324,324,324,324,333,333,324,324,324,324,324,324,324,324,324,324,324,324,324,324,324,324,324,324,4430,4431,246,246,246,246,246,4095,4096,4097,324,324,324,324,324,324,324,324,324,324,324,324,324,324,247,247,4832,4833,4028,4029,4028,4029,4028,4029,4028,4029,4028,4029,4028,4029,4028,4029,4028,4029,4028,4029,4028,4029,4028,4029,4028,4029,4028,4029,4028,4029,4028,4029,4028,4029,4028,4029,4028,4029,4028,4029,4162,366,366,366,366,366,366,366,4631,4632,4633,324,324,324,324,324,324,324,324,324,324,324,324,324,324,324,324,324,324,324,324,324,324,247,247,247,247,4229,4230,286,286,286,286,286,286,286,4832,4833,324,324,324,324,324,324,324,324,324,324,
324,324,324,324,324,324,324,324,324,324,324,324,324,324,324,324,324,324,324,324,324,324,324,324,324,324,324,324,324,324,324,324,324,324,324,324,324,324,324,324,324,324,324,324,324,324,324,324,324,324,324,324,324,324,324,324,333,333,324,324,324,324,324,324,324,324,324,324,324,324,324,324,324,324,324,324,4497,4498,286,286,286,286,286,4162,4163,4164,324,324,324,324,324,324,324,324,324,324,324,324,324,324,247,247,4899,4900,4095,4096,4095,4096,4095,4096,4095,4096,4095,4096,4095,4096,4095,4096,4095,4096,4095,4096,4095,4096,4095,4096,4095,4096,4095,4096,4095,4096,4095,4096,4095,4096,4095,4096,4095,4096,4095,4096,4162,166,166,166,166,406,406,406,4698,4699,4700,324,324,324,324,324,324,324,324,324,324,324,324,324,324,324,324,324,324,324,324,324,324,247,247,247,247,4296,4297,326,326,326,326,326,326,326,4899,4900,324,324,324,324,324,324,324,324,324,324,
324,324,324,324,324,324,324,324,324,324,324,324,324,324,324,324,324,324,324,324,324,324,324,324,324,324,324,324,324,324,324,324,324,324,324,324,324,324,324,324,324,324,324,324,324,324,324,324,324,324,324,324,324,324,324,324,333,333,324,324,324,324,324,324,324,324,324,324,324,324,324,324,324,324,324,324,4564,4565,326,326,326,326,326,4229,4230,4231,324,324,324,324,324,324,324,324,324,324,324,324,324,324,247,247,4095,4096,4162,4163,4162,4163,4162,4163,4162,4163,4162,4163,4162,4163,4162,4163,4162,4163,4162,4163,4162,4163,4162,4163,4162,4163,4162,4163,4162,4163,4162,4163,4162,4163,4162,4163,4162,4163,4162,4162,4163,206,206,206,206,446,446,446,4765,4766,4767,324,324,324,324,324,324,324,324,324,324,324,324,324,324,324,324,324,324,324,324,324,324,247,247,247,247,4363,4364,366,366,366,366,366,366,366,4095,4096,324,324,324,324,324,324,324,324,324,324,
324,324,324,324,324,324,324,324,324,324,324,324,324,324,324,324,324,324,324,324,324,324,324,324,324,324,324,324,324,324,324,324,324,324,324,324,324,324,324,324,324,324,324,324,324,324,324,324,324,324,324,324,324,324,324,324,333,333,324,324,324,324,324,324,324,324,324,324,324,324,324,324,324,324,324,324,4631,4632,366,366,366,366,366,4296,4297,4298,324,324,324,324,324,324,324,324,324,324,324,324,324,324,324,324,324,372,373,374,375,372,373,374,375,372,373,374,375,372,373,374,375,372,373,374,375,372,373,374,375,372,373,374,375,372,373,374,375,372,373,374,375,372,373,4229,4230,246,246,246,246,166,166,166,4832,4833,4834,324,324,324,324,324,324,324,324,324,324,324,324,324,324,324,324,324,324,324,324,324,324,247,247,247,247,4430,4431,406,406,406,406,406,406,406,4162,4163,324,324,324,324,324,324,324,324,324,324,
324,324,324,324,324,324,324,324,324,324,324,324,324,324,324,324,324,324,324,324,324,324,324,324,324,324,324,324,324,324,324,324,324,324,324,324,324,324,324,324,324,324,324,324,324,324,324,324,324,324,324,324,324,324,324,324,333,333,324,324,324,324,324,324,324,324,324,324,324,324,324,324,324,324,324,324,4698,4699,406,406,406,406,406,4363,4364,4365,324,324,324,324,324,324,324,324,324,324,324,324,324,324,324,324,324,292,293,294,295,292,293,294,295,292,293,294,295,292,293,294,295,292,293,294,295,292,293,294,295,292,293,294,295,292,293,294,295,292,293,294,295,292,293,4296,4297,286,286,286,286,206,206,206,4162,4163,4164,324,324,324,324,324,324,324,324,324,324,324,324,324,324,324,324,324,324,324,324,324,324,247,247,247,247,4497,4498,446,446,446,446,446,446,446,4229,4230,324,324,324,324,324,324,324,324,324,324,
324,324,324,324,324,324,324,324,324,324,324,324,324,324,324,324,324,324,324,324,324,324,324,324,324,324,324,324,324,324,324,324,324,324,324,324,324,324,324,324,324,324,324,324,324,324,324,324,324,324,324,324,324,324,324,324,333,333,324,324,324,324,324,324,324,324,324,324,324,324,324,324,324,324,324,324,4765,4766,446,446,446,446,446,4430,4431,4432,324,324,324,324,324,324,324,324,324,324,324,324,324,324,324,324,324,324,324,324,324,324,324,324,324,324,324,324,324,324,324,324,324,324,324,324,324,324,324,324,324,324,324,324,324,324,324,324,324,324,324,324,324,324,324,4363,4364,326,326,326,326,246,246,246,4229,4230,4231,324,324,324,324,324,324,324,324,324,324,324,324,324,324,324,324,324,324,324,324,324,324,247,247,247,247,4564,4565,166,166,166,166,166,166,166,4296,4297,324,324,324,324,324,324,324,324,324,324,
324,324,324,324,324,324,324,324,324,324,324,324,324,324,324,324,324,324,324,324,324,324,324,324,324,324,324,324,324,324,324,324,324,324,324,324,324,324,324,324,324,324,324,324,324,324,324,324,324,324,324,324,324,324,324,324,333,333,324,324,324,324,324,324,324,324,324,324,324,324,324,324,324,324,324,324,4832,4833,166,166,166,166,166,4497,4498,4499,324,324,324,324,324,324,324,324,324,324,324,324,324,324,324,324,324,324,324,324,324,324,324,324,324,324,324,324,324,324,324,324,324,324,324,324,324,324,324,324,324,324,324,324,324,324,324,324,324,324,324,324,324,324,324,4430,4431,366,366,366,366,286,286,286,4296,4297,4298,324,324,324,324,324,324,324,324,324,324,324,324,324,324,324,324,324,324,324,324,324,324,247,247,247,247,4631,4632,206,206,206,206,206,206,206,4363,4364,324,324,324,324,324,324,324,324,324,324,
324,324,324,324,324,324,324,324,324,324,324,324,324,324,324,324,324,324,324,324,324,324,324,324,324,324,324,324,324,324,324,324,324,324,324,324,324,324,324,324,324,324,324,324,324,324,324,324,324,324,324,324,324,324,324,324,333,333,324,324,324,324,324,324,324,324,324,324,324,324,324,324,324,324,324,324,4899,4900,206,206,206,206,206,4564,4565,4566,324,324,324,324,324,324,324,324,324,324,324,324,324,324,324,324,324,324,324,324,324,324,324,324,324,324,324,324,324,324,324,324,324,324,324,324,324,324,324,324,324,324,324,324,324,324,324,324,324,324,324,324,324,324,324,4497,4498,406,406,406,406,326,326,326,4363,4364,4365,324,324,324,324,324,324,324,324,324,324,324,324,324,324,324,324,324,324,324,324,324,324,247,247,247,247,4698,4699,246,246,246,246,246,246,246,4430,4431,324,324,324,324,324,324,324,324,324,324,
324,324,324,324,324,324,324,324,324,324,324,324,324,324,324,324,324,324,324,324,324,324,324,324,324,324,324,324,324,324,324,324,324,324,324,324,324,324,324,324,324,324,324,324,324,324,333,324,324,324,324,324,324,324,324,324,333,333,324,324,324,324,324,324,324,324,324,324,324,324,324,324,324,324,324,324,4095,4096,246,246,246,246,246,4631,4632,4633,324,324,324,324,324,324,324,324,324,324,324,324,324,324,324,324,324,324,324,324,324,324,324,324,324,324,324,324,324,324,324,324,324,324,324,324,324,324,324,324,324,324,324,324,324,324,324,324,324,324,324,324,324,324,324,4564,4565,446,446,446,446,366,366,366,4430,4431,4432,324,324,324,324,324,324,324,324,324,324,324,324,324,324,324,324,324,324,324,324,324,324,247,247,247,247,4765,4766,286,286,286,286,286,286,286,4497,4498,324,324,324,324,324,324,324,324,324,324,
324,324,324,324,324,324,324,324,324,324,324,324,324,324,324,324,324,324,324,324,324,324,324,324,324,324,324,324,324,324,324,324,324,324,324,324,324,324,324,324,324,324,324,324,324,324,324,324,324,324,324,324,324,324,324,324,333,333,324,324,324,324,324,324,324,324,324,324,324,324,324,324,324,324,324,324,4162,4163,286,286,286,286,286,4698,4699,4700,324,324,324,324,324,324,324,324,324,324,324,324,324,324,324,324,324,324,324,324,324,324,324,324,324,324,324,324,324,324,324,324,324,324,324,324,324,324,324,324,324,324,324,324,324,324,324,324,324,324,324,324,324,324,324,4631,4632,166,166,166,166,406,406,406,4497,4498,4499,324,324,324,324,324,324,324,324,324,324,324,324,324,324,324,324,324,324,324,324,324,324,247,247,247,247,4832,4833,326,326,326,326,326,326,326,4564,4565,324,324,324,324,324,324,324,324,324,324,
324,324,324,324,324,324,324,324,324,324,324,324,324,324,324,324,324,324,324,324,324,324,324,324,324,324,324,324,324,324,324,324,324,324,324,324,324,324,324,324,324,324,324,324,324,324,324,324,324,324,324,324,324,324,324,324,333,333,324,324,324,324,324,324,324,324,324,324,324,324,324,324,324,324,324,324,4229,4230,326,326,326,326,326,167,168,168,232,232,232,232,232,232,232,232,232,232,232,232,232,232,232,232,232,232,232,232,232,232,232,232,232,232,232,232,232,232,232,232,232,232,232,232,232,232,232,232,232,232,232,232,232,232,232,232,232,232,232,232,232,232,232,167,168,206,206,206,206,446,446,446,4564,4565,4566,324,324,324,324,324,324,324,324,324,324,324,324,324,324,324,324,324,324,324,324,324,324,247,247,247,247,4899,4900,366,366,366,366,366,366,366,4631,4632,324,324,324,324,324,324,324,324,324,324,
324,324,324,324,324,324,324,324,324,324,324,324,324,324,324,324,324,324,324,324,324,324,324,324,324,324,324,324,324,324,324,324,324,324,324,324,324,324,324,324,324,324,324,324,324,324,324,324,324,324,324,324,324,324,324,324,333,333,324,324,324,324,324,324,324,324,324,324,324,324,324,324,324,324,324,324,4296,4297,366,366,366,366,366,207,208,208,232,232,232,232,232,232,232,232,232,232,232,232,232,232,232,232,232,232,232,232,232,232,232,232,232,232,232,232,232,232,232,232,232,232,232,232,232,232,232,232,232,232,232,232,232,232,232,232,232,232,232,232,232,232,232,167,168,246,246,246,246,166,166,166,4631,4632,4633,324,324,324,324,324,324,324,324,324,324,324,324,324,324,324,324,324,324,324,324,324,324,247,247,247,247,4095,4096,406,406,406,406,406,406,406,4698,4699,324,324,324,324,324,324,324,324,324,324,
324,324,324,324,324,324,324,324,324,324,324,324,324,324,324,324,324,324,324,324,324,324,324,324,324,324,324,324,324,324,324,324,324,324,324,324,324,324,324,324,324,324,324,324,324,324,324,324,324,324,324,324,324,324,324,324,333,333,324,324,324,324,324,324,324,324,324,324,324,324,324,324,324,324,324,324,4363,4364,406,406,406,406,406,167,167,168,232,232,232,232,232,232,232,232,232,232,232,232,232,232,232,232,232,232,232,232,232,232,232,232,232,232,232,232,232,232,232,232,232,232,232,232,232,232,232,232,232,232,232,232,232,232,232,232,232,232,232,232,232,232,232,207,208,286,286,286,286,206,206,206,4698,4699,4700,324,324,324,324,324,324,324,324,324,324,324,324,324,324,324,324,324,324,324,324,324,324,247,247,247,247,4162,4163,446,446,446,446,446,446,446,4765,4766,324,324,324,324,324,324,324,324,324,324,
324,324,324,324,324,324,324,324,324,324,324,324,324,324,324,324,324,324,324,324,324,324,324,324,324,324,324,324,324,324,324,324,324,324,324,324,324,324,324,324,324,324,324,324,324,324,324,324,324,324,324,324,324,324,324,324,333,333,324,324,324,324,324,324,324,324,324,324,324,324,324,324,324,324,324,324,4430,4431,446,446,446,446,446,167,168,168,232,232,232,232,232,232,232,232,232,232,232,232,232,232,232,232,232,232,232,232,232,232,232,232,232,232,232,232,232,232,232,232,232,232,232,232,232,232,232,232,232,232,232,232,232,232,232,232,232,232,232,232,232,232,232,167,168,326,326,326,326,246,246,246,4028,4029,4028,4029,4028,4029,4028,4029,4028,4029,4028,4029,4028,4029,4028,4029,4028,4029,4028,4029,4028,4029,4028,4029,4028,4029,4028,4029,4028,4229,4230,166,166,166,166,166,166,166,4832,4833,324,324,324,324,324,324,324,324,324,324,
324,324,324,324,324,324,324,324,324,324,324,324,324,324,324,324,324,324,324,324,324,324,324,324,324,324,324,324,324,324,324,324,324,324,324,324,324,324,324,324,324,324,324,324,324,324,324,324,324,324,324,324,324,324,324,324,333,333,324,324,324,324,324,324,324,324,324,324,324,324,324,324,324,324,324,324,4497,4498,166,166,166,166,166,207,208,208,232,232,232,232,232,232,232,232,232,232,232,232,232,232,232,232,232,232,232,232,232,232,232,232,232,232,232,232,232,232,232,232,232,232,232,232,232,232,232,232,232,232,232,232,232,232,232,232,232,232,232,232,232,232,232,207,208,366,366,366,366,286,286,286,4095,4096,4095,4096,4095,4096,4095,4096,4095,4096,4095,4096,4095,4096,4095,4096,4095,4096,4095,4096,4095,4096,4095,4096,4095,4096,4095,4096,4095,4964,4964,166,166,166,166,166,166,166,4899,4900,324,324,324,324,324,324,324,324,324,324,
324,324,324,324,324,324,324,324,324,324,324,324,324,333,333,333,333,333,333,333,333,333,333,333,333,333,333,333,333,333,333,333,333,333,333,333,333,333,333,333,333,333,333,333,333,333,333,333,333,333,333,333,333,324,324,324,333,333,324,324,324,324,324,324,324,324,324,324,324,324,324,324,324,324,324,324,4564,4565,206,206,206,206,206,4229,4230,4231,324,324,324,324,324,324,324,324,324,324,324,324,324,324,324,324,324,324,324,324,324,324,324,324,324,324,324,324,324,324,324,324,324,324,324,324,324,324,324,324,324,324,324,324,324,324,324,324,324,324,324,324,324,324,324,4296,4297,406,406,406,406,326,326,326,206,206,206,206,206,206,206,206,206,206,206,206,206,206,206,206,206,206,206,206,206,206,206,206,206,206,206,206,206,206,206,206,206,206,206,206,206,206,4095,4096,324,324,324,324,324,324,324,324,324,324,
324,324,324,324,324,324,324,324,324,324,324,324,324,333,333,333,333,333,333,333,333,333,333,333,333,333,333,333,333,333,333,333,333,333,333,333,333,333,333,333,333,333,333,333,333,333,333,333,333,333,333,333,333,333,333,333,333,333,333,333,333,333,333,333,333,333,333,333,333,333,333,333,333,333,333,333,4631,4632,246,246,246,246,246,4296,4297,4298,324,324,324,324,324,324,324,324,324,324,324,324,324,324,324,324,324,324,324,324,324,324,324,324,324,324,324,324,324,324,324,324,324,324,324,324,324,324,324,324,324,324,324,324,324,324,324,324,324,324,324,324,324,324,324,4363,4364,446,446,446,446,366,366,366,246,246,246,246,246,246,246,246,246,246,246,246,246,246,246,246,246,246,246,246,246,246,246,246,246,246,246,246,246,246,246,246,246,246,246,246,246,246,4162,4163,324,324,324,324,324,324,324,324,324,324,
324,324,324,324,324,324,324,324,324,324,324,324,324,4028,4029,4028,4029,4028,4029,4028,4029,4028,4029,4028,4029,4028,4029,4028,4029,4028,4029,4028,4029,4028,4029,4028,4029,4028,4029,4028,4029,4028,4029,4028,4029,4028,4029,4028,4029,4028,4029,4028,4029,4028,4029,4028,4029,4028,4029,4028,4029,4028,4029,4028,4029,4028,4029,4028,4029,4028,4029,4028,4029,4028,4029,4028,4029,4028,286,286,286,246,246,4363,4364,4365,324,324,324,324,324,324,324,324,324,324,324,324,324,324,324,324,324,324,324,324,324,324,324,324,324,324,324,324,324,324,324,324,324,324,324,324,324,324,324,324,324,324,324,324,324,324,324,324,324,324,324,324,324,324,324,4430,4431,166,166,166,166,406,406,406,286,286,286,286,286,286,286,286,286,286,286,286,286,286,286,286,286,286,286,286,286,286,286,286,286,286,286,286,286,286,286,286,286,286,286,286,286,286,4229,4230,324,324,324,324,324,324,324,324,324,324,
324,324,324,324,324,324,324,324,324,324,324,324,324,4095,4096,4095,4096,4095,4096,4095,4096,4095,4096,4095,4096,4095,4096,4095,4096,4095,4096,4095,4096,4095,4096,4095,4096,4095,4096,4095,4096,4095,4096,4095,4096,4095,4096,4095,4096,4095,4096,4095,4096,4095,4096,4095,4096,4095,4096,4095,4096,4095,4096,4095,4096,4095,4096,4095,4096,4095,4096,4095,4096,4095,4096,4095,4096,4095,166,166,166,166,166,4430,4431,4432,324,324,324,324,324,324,324,324,324,324,324,324,324,324,324,324,324,324,324,324,324,324,324,324,324,324,324,324,324,324,324,324,324,324,324,324,324,324,324,324,324,324,324,324,324,324,324,324,324,324,324,324,324,324,324,4497,4498,206,206,206,206,446,446,446,326,326,326,326,326,326,326,326,326,326,326,326,326,326,326,326,326,326,326,326,326,326,326,326,326,326,326,326,326,326,326,326,326,326,326,326,326,326,4296,4297,324,324,324,324,324,324,324,324,324,324,
324,324,324,324,324,324,324,324,324,324,324,324,324,286,286,286,286,286,286,286,286,286,286,286,286,286,286,286,286,286,286,286,286,286,286,286,286,286,286,286,286,286,286,286,286,286,286,286,286,286,286,286,286,286,286,286,286,286,286,286,286,286,286,286,286,286,286,286,286,286,286,286,286,286,286,286,286,206,206,206,206,206,206,4497,4498,4499,324,324,324,324,324,324,324,324,324,324,324,324,324,324,324,324,324,324,324,324,324,324,324,324,324,324,324,324,324,324,324,324,324,324,324,324,324,324,324,324,324,324,324,324,324,324,324,324,324,324,324,324,324,324,324,4564,4565,246,246,246,246,166,166,166,366,366,366,366,366,366,366,366,366,366,366,366,366,366,366,366,366,366,366,366,366,366,366,366,366,366,366,366,366,366,366,366,366,366,366,366,366,366,4363,4364,324,324,324,324,324,324,324,324,324,324,
324,324,324,324,324,324,324,324,324,324,324,324,324,166,166,166,166,166,166,166,166,166,166,166,166,166,166,166,166,166,166,166,166,166,166,166,166,166,166,166,166,166,166,166,166,166,166,166,166,166,166,166,166,166,166,166,166,166,166,166,166,166,166,166,166,166,166,166,166,166,166,166,166,166,166,166,166,166,166,166,166,166,166,4564,4565,4566,324,324,324,324,324,324,324,324,324,324,324,324,324,324,324,324,324,324,324,324,324,324,324,324,324,324,324,324,324,324,324,324,324,324,324,324,324,324,324,324,324,324,324,324,324,324,324,324,324,324,324,324,324,324,324,4631,4632,4029,4028,4029,4028,4029,4028,4029,4028,4029,4028,4029,4028,4029,4028,4029,4028,4029,4028,4029,4028,4029,4028,4029,4028,4029,4028,4029,4028,4029,4028,4029,4028,4029,4028,4029,4028,4029,4028,4029,4028,4029,4028,4029,4028,4029,4430,4431,324,324,324,324,324,324,324,324,324,324,
324,324,324,324,324,324,324,324,324,324,324,324,292,206,206,206,206,206,206,206,206,206,206,206,206,206,206,206,206,206,206,206,206,206,206,206,206,206,206,206,206,206,206,206,206,206,206,206,206,206,206,206,206,206,206,206,206,206,206,206,206,206,206,206,206,206,206,206,206,206,206,206,206,206,206,206,206,206,206,206,206,206,206,4631,4632,4633,324,324,324,324,324,324,324,324,324,324,324,324,324,324,324,324,324,324,324,324,324,324,324,324,324,324,324,324,324,324,324,324,324,324,324,324,324,324,324,324,324,324,324,324,324,324,324,324,324,324,324,324,324,324,324,4698,4699,4096,4095,4096,4095,4096,4095,4096,4095,4096,4095,4096,4095,4096,4095,4096,4095,4096,4095,4096,4095,4096,4095,4096,4095,4096,4095,4096,4095,4096,4095,4096,4095,4096,4095,4096,4095,4096,4095,4096,4095,4096,4095,4096,4095,4096,4497,4498,324,324,324,324,324,324,324,324,324,324,
324,324,324,324,324,324,324,324,324,324,324,324,332,4028,4029,4028,4029,4028,4029,4028,4029,4028,4029,4028,4029,4028,4029,4028,4029,4028,4029,4028,4029,4028,4029,4028,4029,4028,4029,4028,4029,4028,4029,4028,4029,4028,4029,4028,4029,4028,4029,4028,4029,4028,4029,4028,4029,4028,4029,4028,4029,4028,4029,4028,4029,4028,4029,4028,4029,4028,4029,4028,4029,4028,4029,4028,4029,4028,4029,4028,4029,4028,4029,4698,4699,4700,324,324,324,324,324,324,324,324,324,324,324,324,324,324,324,324,324,324,324,324,324,324,324,324,324,324,324,324,324,324,324,324,324,324,324,324,324,324,324,324,324,324,324,324,324,324,324,324,324,324,324,324,324,324,324,4964,4162,4163,4162,4163,4162,4163,4162,4163,4162,4163,4162,4163,4162,4163,4162,4163,4162,4163,4162,4163,4162,4163,4162,4163,4162,4163,4162,4163,4162,4163,4162,4163,4162,4163,4162,4163,4162,4163,4162,4163,4162,4163,4162,4163,4162,4163,4564,4565,324,324,324,324,324,324,324,324,324,324,
324,324,324,324,324,324,324,324,324,324,324,324,372,4095,4096,4095,4096,4095,4096,4095,4096,4095,4096,4095,4096,4095,4096,4095,4096,4095,4096,4095,4096,4095,4096,4095,4096,4095,4096,4095,4096,4095,4096,4095,4096,4095,4096,4095,4096,4095,4096,4095,4096,4095,4096,4095,4096,4095,4096,4095,4096,4095,4096,4095,4096,4095,4096,4095,4096,4095,4096,4095,4096,4095,4096,4095,4096,4095,4096,4095,4096,4095,4096,4765,4766,4767,324,324,324,324,324,324,324,324,324,324,324,324,324,324,324,324,324,324,324,324,324,324,324,324,324,324,324,324,324,324,324,324,324,324,324,324,324,324,324,324,324,324,324,324,324,324,324,324,324,324,324,324,324,324,324,324,372,373,374,375,372,373,374,375,372,373,374,375,372,373,374,375,372,373,374,375,372,373,374,375,372,373,374,375,372,373,374,375,372,373,374,375,372,373,374,375,372,373,374,375,372,373,374,324,324,324,324,324,324,324,324,324,324,324,
324,324,324,324,324,324,324,324,324,324,324,324,292,293,294,295,292,293,294,295,292,293,294,295,292,293,294,295,292,293,294,295,292,293,294,295,292,293,294,295,292,293,294,295,292,293,294,295,292,293,294,295,292,293,294,295,292,293,294,295,292,293,294,295,292,293,294,295,292,293,294,295,292,293,294,295,292,293,294,295,292,293,294,295,292,293,324,324,324,324,324,324,324,324,324,324,324,324,324,324,324,324,324,324,324,324,324,324,324,324,324,324,324,324,324,324,324,324,324,324,324,324,324,324,324,324,324,324,324,324,324,324,324,324,324,324,324,324,324,324,324,324,292,293,294,295,292,293,294,295,292,293,294,295,292,293,294,295,292,293,294,295,292,293,294,295,292,293,294,295,292,293,294,295,292,293,294,295,292,293,294,295,292,293,294,295,292,293,294,324,324,324,324,324,324,324,324,324,324,324,
324,324,324,324,324,324,324,324,324,324,324,324,332,333,334,335,332,333,334,335,332,333,334,335,332,333,334,335,332,333,334,335,332,333,334,335,332,333,334,335,332,333,334,335,332,333,334,335,332,333,334,335,332,333,334,335,332,333,334,335,332,333,334,335,332,333,334,335,332,333,334,335,332,333,334,335,332,333,334,335,332,333,334,335,332,333,324,324,324,324,324,324,324,324,324,324,324,324,324,324,324,324,324,324,324,324,324,324,324,324,324,324,324,324,324,324,324,324,324,324,324,324,324,324,324,324,324,324,324,324,324,324,324,324,324,324,324,324,324,324,324,324,324,324,324,324,324,324,324,324,324,324,324,324,324,324,324,324,324,324,324,324,324,324,324,324,324,324,324,324,324,324,324,324,324,324,324,324,324,324,324,324,324,324,324,324,324,324,324,324,324,324,324,324,324,324,324,324,324,324,
324,324,324,324,324,324,324,324,324,324,324,324,324,324,324,324,324,324,324,324,324,324,324,324,324,324,324,324,324,324,324,324,324,324,324,324,324,324,324,324,324,324,324,324,324,324,324,324,324,324,324,324,324,324,324,324,324,324,324,324,324,324,324,324,324,324,324,324,324,324,324,324,324,324,324,324,324,324,324,324,324,324,324,324,324,324,324,324,324,324,324,324,324,324,324,324,324,324,324,324,324,324,324,324,324,324,324,324,324,324,324,324,324,324,324,324,324,324,324,324,324,324,324,324,324,324,324,324,324,324,324,324,324,324,324,324,324,324,324,324,324,324,324,324,324,324,324,324,324,324,324,324,324,324,324,324,324,324,324,324,324,324,324,324,324,324,324,324,324,324,324,324,324,324,324,324,324,324,324,324,324,324,324,324,324,324,324,324,324,324,324,324,324,324,324,324,324,324,324,324,
324,324,324,324,324,324,324,324,324,324,324,324,324,324,324,324,324,324,324,324,324,324,324,324,324,324,324,324,324,324,324,324,324,324,324,324,324,324,324,324,324,324,324,324,324,324,324,324,324,324,324,324,324,324,324,324,324,324,324,324,324,324,324,324,324,324,324,324,324,324,324,324,324,324,324,324,324,324,324,324,324,324,324,324,324,324,324,324,324,324,324,324,324,324,324,324,324,324,324,324,324,324,324,324,324,324,324,324,324,324,324,324,324,324,324,324,324,324,324,324,324,324,324,324,324,324,324,324,324,324,324,324,324,324,324,324,324,324,324,324,324,324,324,324,324,324,324,324,324,324,324,324,324,324,324,324,324,324,324,324,324,324,324,324,324,324,324,324,324,324,324,324,324,324,324,324,324,324,324,324,324,324,324,324,324,324,324,324,324,324,324,324,324,324,324,324,324,324,324,324,
324,324,324,324,324,324,324,324,324,324,324,324,324,324,324,324,324,324,324,324,324,324,324,324,324,324,324,324,324,324,324,324,324,324,324,324,324,324,324,324,324,324,324,324,324,324,324,324,324,324,324,324,324,324,324,324,324,324,324,324,324,324,324,324,324,324,324,324,324,324,324,324,324,324,324,324,324,324,324,324,324,324,324,324,324,324,324,324,324,324,324,324,324,324,324,324,324,324,324,324,324,324,324,324,324,324,324,324,324,324,324,324,324,324,324,324,324,324,324,324,324,324,324,324,324,324,324,324,324,324,324,324,324,324,324,324,324,324,324,324,324,324,324,324,324,324,324,324,324,324,324,324,324,324,324,324,324,324,324,324,324,324,324,324,324,324,324,324,324,324,324,324,324,324,324,324,324,324,324,324,324,324,324,324,324,324,324,324,324,324,324,324,324,324,324,324,324,324,324,324
</data>
 </layer>
 <layer id="16" name="house" width="200" height="150" locked="1">
  <data encoding="csv">
0,0,0,0,0,0,0,0,0,0,0,0,0,0,0,0,0,0,0,0,0,0,0,0,0,0,0,0,0,0,0,0,0,0,0,0,0,0,0,0,0,0,0,0,0,0,0,0,0,0,0,0,0,0,0,0,0,0,0,0,0,0,0,0,0,0,0,0,0,0,0,0,0,0,0,0,0,0,0,0,0,0,0,0,0,0,0,0,0,0,0,0,0,0,0,0,0,0,0,0,0,0,0,0,0,0,0,0,0,0,0,0,0,0,0,0,0,0,0,0,0,0,0,0,0,0,0,0,0,0,0,0,0,0,0,0,0,0,0,0,0,0,0,0,0,0,0,0,0,0,0,0,0,0,0,0,0,0,0,0,0,0,0,0,0,0,0,0,0,0,0,0,0,0,0,0,0,0,0,0,0,0,0,0,0,0,0,0,0,0,0,0,0,0,0,0,0,0,0,0,
0,0,0,0,0,0,0,0,0,0,0,0,0,0,0,0,0,0,0,0,0,0,0,0,0,0,0,0,0,0,0,0,0,0,0,0,0,0,0,0,0,0,0,0,0,0,0,0,0,0,0,0,0,0,0,0,0,0,0,0,0,0,0,0,0,0,0,0,0,0,0,0,0,0,0,0,0,0,0,0,0,0,0,0,0,0,0,0,0,0,0,0,0,0,0,0,0,0,0,0,0,0,0,0,0,0,0,0,0,0,0,0,0,0,0,0,0,0,0,0,0,0,0,0,0,0,0,0,0,0,0,0,0,0,0,0,0,0,0,0,0,0,0,0,0,0,0,0,0,0,0,0,0,0,0,0,0,0,0,0,0,0,0,0,0,0,0,0,0,0,0,0,0,0,0,0,0,0,0,0,0,0,0,0,0,0,0,0,0,0,0,0,0,0,0,0,0,0,0,0,
0,0,0,0,0,0,0,0,0,0,0,0,0,0,0,0,0,0,0,0,0,0,0,0,0,0,0,0,0,0,0,0,0,0,0,0,0,0,0,0,0,0,0,0,0,0,0,0,0,0,0,0,0,0,0,0,0,0,0,0,0,0,0,0,0,0,0,0,0,0,0,0,0,0,0,0,0,0,0,0,0,0,0,0,0,0,0,0,0,0,0,0,0,0,0,0,0,0,0,0,0,0,0,0,0,0,0,0,0,0,0,0,0,0,0,0,0,0,0,0,0,0,0,0,0,0,0,0,0,0,0,0,0,0,0,0,0,0,0,0,0,0,0,0,0,0,0,0,0,0,0,0,0,0,0,0,0,0,0,0,0,0,0,0,0,0,0,0,0,0,0,0,0,0,0,0,0,0,0,0,0,0,0,0,0,0,0,0,0,0,0,0,0,0,0,0,0,0,0,0,
0,0,0,0,0,0,0,0,0,0,0,0,0,0,0,0,0,0,0,0,0,0,0,0,0,0,0,0,0,0,0,0,0,0,0,0,0,0,0,0,0,0,0,0,0,0,0,0,0,0,0,0,0,0,0,0,0,0,0,0,0,0,0,0,0,0,0,0,0,0,0,0,0,0,0,0,0,0,0,0,0,0,0,0,0,0,0,0,0,0,0,0,0,0,0,0,0,0,0,0,0,0,0,0,0,0,0,0,0,0,0,0,0,0,0,0,0,0,0,0,0,0,0,0,0,0,0,0,0,0,0,0,0,0,0,0,0,0,0,0,0,0,0,0,0,0,0,0,0,0,0,0,0,0,0,0,0,0,0,0,0,0,0,0,0,0,0,0,0,0,0,0,0,0,0,0,0,0,0,0,0,0,0,0,0,0,0,0,0,0,0,0,0,0,0,0,0,0,0,0,
0,0,0,0,0,0,0,0,0,0,0,0,0,0,0,0,0,0,0,0,0,0,0,0,0,0,0,0,0,0,0,0,0,0,0,0,0,0,0,0,0,0,0,0,0,0,0,0,0,0,0,0,0,0,0,0,0,0,0,0,0,0,0,0,0,0,0,0,0,0,0,0,0,0,0,0,0,0,0,0,0,0,0,0,0,0,0,0,0,0,0,0,0,0,0,0,0,0,0,0,0,0,0,0,0,0,0,0,0,0,0,0,0,0,0,0,0,0,0,0,0,0,0,0,0,0,0,0,0,0,0,0,0,0,0,0,0,0,0,0,0,0,0,0,0,0,0,0,0,0,0,0,0,0,0,0,0,0,0,0,0,0,0,0,0,0,0,0,0,0,0,0,0,0,0,0,0,0,0,0,0,0,0,0,0,0,0,0,0,0,0,0,0,0,0,0,0,0,0,0,
0,0,0,0,0,0,0,0,0,0,0,0,0,0,0,0,0,0,0,0,0,0,0,0,0,0,0,0,0,0,0,0,0,0,0,0,0,0,0,0,0,0,0,0,0,0,0,0,0,0,0,0,0,0,0,0,0,0,0,0,0,0,0,0,0,0,0,0,0,0,0,0,0,0,0,0,0,0,0,0,0,0,0,0,0,0,0,0,0,0,0,0,0,0,0,0,0,0,0,0,0,0,0,0,0,0,0,0,0,0,0,0,0,0,0,0,0,0,0,0,0,0,0,0,0,0,0,0,0,0,0,0,0,0,0,0,0,0,0,0,0,0,0,0,0,0,0,0,0,0,0,0,0,0,0,0,0,0,0,0,0,0,0,0,0,0,0,0,0,0,0,0,0,0,0,0,0,0,0,0,0,0,0,0,0,0,0,0,0,0,0,0,0,0,0,0,0,0,0,0,
0,0,0,0,0,0,0,0,0,0,0,0,0,0,0,0,0,0,0,0,0,0,0,0,0,0,0,0,0,0,0,0,0,0,0,0,0,0,0,0,0,0,0,0,0,0,0,0,0,0,0,0,0,0,0,0,0,0,0,0,0,0,0,0,0,0,0,0,0,0,0,0,0,0,0,0,0,0,0,0,0,0,0,0,0,0,0,0,0,0,0,0,0,0,0,0,0,0,0,0,0,0,0,0,0,0,0,0,0,0,0,0,0,0,0,0,0,0,0,0,0,0,0,0,0,0,0,0,0,0,0,0,0,0,0,0,0,0,0,0,0,0,0,0,0,0,0,0,0,0,0,0,0,0,0,0,0,0,0,0,0,0,0,0,0,0,0,0,0,0,0,0,0,0,0,0,0,0,0,0,0,0,0,0,0,0,0,0,0,0,0,0,0,0,0,0,0,0,0,0,
0,0,0,0,0,0,0,0,0,0,0,0,0,0,0,0,0,0,0,0,0,0,0,0,0,0,0,0,0,0,0,0,0,0,0,0,0,0,0,0,0,0,0,0,0,0,0,0,0,0,0,0,0,0,0,0,0,0,0,0,0,0,0,0,0,0,0,0,0,0,0,0,0,0,0,0,0,0,0,0,0,0,0,0,0,0,0,0,0,0,0,0,0,0,0,0,0,0,0,0,0,0,0,0,0,0,0,0,0,0,0,0,0,0,0,0,0,0,0,0,0,0,0,0,0,0,0,0,0,0,0,0,0,0,0,0,0,0,0,0,0,0,0,0,0,0,0,0,0,0,0,0,0,0,0,0,0,0,0,0,0,0,0,0,0,0,0,0,0,0,0,0,0,0,0,0,0,0,0,0,0,0,0,0,0,0,0,0,0,0,0,0,0,0,0,0,0,0,0,0,
0,0,0,0,0,0,0,0,0,0,0,0,0,0,0,0,0,0,0,0,0,0,0,0,0,0,0,0,0,0,0,0,0,0,0,0,0,0,0,0,0,0,0,0,0,0,0,0,0,0,0,0,0,0,0,0,0,0,0,0,0,0,0,0,0,0,0,0,0,0,0,0,0,0,0,0,0,0,0,0,0,0,0,0,0,0,0,0,0,0,0,0,0,0,0,0,0,0,0,0,0,0,0,0,0,0,0,0,0,0,0,0,0,0,0,0,0,0,0,0,0,0,0,0,0,0,0,0,0,0,0,0,0,0,0,0,0,0,0,0,0,0,0,0,0,0,0,0,0,0,0,0,0,0,0,0,0,0,0,0,0,0,0,0,0,0,0,0,0,0,0,0,0,0,0,0,0,0,0,0,0,0,0,0,0,0,0,0,0,0,0,0,0,0,0,0,0,0,0,0,
0,0,0,0,0,0,0,0,0,0,0,0,0,0,0,0,0,0,0,0,0,0,0,0,0,0,0,0,0,0,0,0,0,0,0,0,0,0,0,0,0,0,0,0,0,0,0,0,0,0,0,0,0,0,0,0,0,0,0,0,0,0,0,0,0,0,0,0,0,0,0,0,0,0,0,0,0,0,0,0,0,0,0,0,0,0,0,0,0,0,0,0,0,0,0,0,0,0,0,0,0,0,0,0,0,0,0,0,0,0,0,0,0,0,0,0,0,0,0,0,0,0,0,0,0,0,0,0,0,0,0,0,0,0,0,0,0,0,0,0,0,0,0,0,0,0,0,0,0,0,0,0,0,0,0,0,0,0,0,0,0,0,0,0,0,0,0,0,0,0,0,0,0,0,0,0,0,0,0,0,0,0,0,0,0,0,0,0,0,0,0,0,0,0,0,0,0,0,0,0,
0,0,0,0,0,0,0,0,0,0,0,0,0,0,0,0,0,0,0,0,0,0,0,0,0,0,0,0,0,0,0,0,0,0,0,0,0,0,0,0,0,0,0,0,0,0,0,0,0,0,0,0,0,0,0,0,0,0,0,0,0,0,0,0,0,0,0,0,0,0,0,0,0,0,0,0,0,0,0,0,0,0,0,0,0,0,0,0,0,0,0,0,0,0,0,0,0,0,0,0,0,0,0,0,0,0,0,0,0,0,0,0,0,0,0,0,0,0,0,0,0,0,0,0,0,0,0,0,0,0,0,0,0,0,0,0,0,0,0,0,0,0,0,0,0,0,0,0,0,0,0,0,0,0,0,0,0,0,0,0,0,0,0,0,0,0,0,0,0,0,0,0,0,0,0,0,0,0,0,0,0,0,0,0,0,0,0,0,0,0,0,0,0,0,0,0,0,0,0,0,
0,0,0,0,0,0,0,0,0,0,0,0,0,0,0,0,0,0,0,0,0,0,0,0,0,0,0,0,0,0,0,0,0,0,0,0,0,0,0,0,0,0,0,0,0,0,0,0,0,0,0,0,0,0,0,0,0,0,0,0,0,0,0,0,0,0,0,0,0,0,0,0,0,0,0,0,0,0,0,0,0,0,0,0,0,0,0,0,0,0,0,0,0,0,0,0,0,0,0,0,0,0,0,0,0,0,0,0,0,0,0,0,0,0,0,0,0,0,0,0,0,0,0,0,0,0,0,0,0,0,0,0,0,0,0,0,0,0,0,0,0,0,0,0,0,0,0,0,0,0,0,0,0,0,0,0,0,0,0,0,0,0,0,0,0,0,0,0,0,0,0,0,0,0,0,0,0,0,0,0,0,0,0,0,0,0,0,0,0,0,0,0,0,0,0,0,0,0,0,0,
0,0,0,0,0,0,0,0,0,0,0,0,0,0,0,0,0,0,0,0,0,0,0,0,0,0,0,0,0,0,0,0,0,0,0,0,0,0,0,0,0,0,0,0,0,0,0,0,0,0,0,0,0,0,0,0,0,0,0,0,0,0,0,0,0,0,0,0,0,0,0,0,0,0,0,0,0,0,0,0,0,0,0,0,0,0,0,0,0,0,0,0,0,0,0,0,0,0,0,0,0,0,0,0,0,0,0,0,0,0,0,0,0,0,0,0,0,0,0,0,0,0,0,0,0,0,0,0,0,0,0,0,0,0,0,0,0,0,0,0,0,0,0,0,0,0,0,0,0,0,0,0,0,0,0,0,0,0,0,0,0,0,0,0,0,0,0,0,0,0,0,0,0,0,0,0,0,0,0,0,0,0,0,0,0,0,0,0,0,0,0,0,0,0,0,0,0,0,0,0,
0,0,0,0,0,0,0,0,0,0,0,0,0,0,0,0,0,0,0,0,0,0,0,0,0,0,0,0,0,0,0,0,0,0,0,0,0,0,0,0,0,0,0,0,0,0,0,0,0,0,0,0,0,0,0,0,0,0,0,0,0,0,0,0,0,0,0,0,0,0,0,0,0,0,0,0,0,0,0,0,0,0,0,0,0,0,0,0,0,0,0,0,0,0,0,0,0,0,0,0,0,0,0,0,0,0,0,0,0,0,0,0,0,0,0,0,0,0,0,0,0,0,0,0,0,0,0,0,0,0,0,0,0,0,0,0,0,0,0,0,0,0,0,0,0,0,0,0,0,0,0,0,0,0,0,0,0,0,0,0,0,0,0,0,0,0,0,0,0,0,0,0,0,0,0,0,0,0,0,0,0,0,0,0,0,0,0,0,0,0,0,0,0,0,0,0,0,0,0,0,
0,0,0,0,0,0,0,0,0,0,0,0,0,0,0,0,0,0,0,0,0,0,0,0,0,0,0,0,0,0,0,0,0,0,0,0,0,0,0,0,0,0,0,0,0,0,0,0,0,0,0,0,0,0,0,0,0,0,0,0,0,0,0,0,0,0,0,0,0,0,0,0,0,0,0,0,0,0,0,0,0,0,0,0,0,0,0,0,0,0,0,0,0,0,0,0,0,0,0,0,0,0,0,0,0,0,0,0,0,0,0,0,0,0,0,0,0,0,0,0,0,0,0,0,0,0,0,0,0,0,0,0,0,0,0,0,0,0,0,0,0,0,0,0,0,0,0,0,0,0,0,0,0,0,0,0,0,0,0,0,0,0,0,0,0,0,0,0,0,0,0,0,0,0,0,0,0,0,0,0,0,0,0,0,0,0,0,0,0,0,0,0,0,0,0,0,0,0,0,0,
0,0,0,0,0,0,0,0,0,0,0,0,0,0,0,0,0,0,0,0,0,0,0,0,0,0,0,0,0,0,0,0,0,0,0,0,0,0,0,0,0,0,0,0,0,0,0,0,0,0,0,0,0,0,0,0,0,0,0,0,0,0,0,0,0,0,0,0,0,0,0,0,0,0,0,0,0,0,0,0,0,0,0,0,0,0,0,0,0,0,0,0,0,0,0,0,0,0,0,0,0,0,0,0,0,0,0,0,0,0,0,0,0,0,0,0,0,0,0,0,0,0,0,0,0,0,0,0,0,0,0,0,0,0,0,0,0,0,0,0,0,0,0,0,0,0,0,0,0,0,0,0,0,0,0,0,0,0,0,0,0,0,0,0,0,0,0,0,0,0,0,0,0,0,0,0,0,0,0,0,0,0,0,0,0,0,0,0,0,0,0,0,0,0,0,0,0,0,0,0,
0,0,0,0,0,0,0,0,0,0,0,0,0,0,0,0,0,0,0,0,0,0,0,0,0,0,0,0,0,0,0,0,0,0,0,0,0,0,0,0,0,0,0,0,0,0,0,0,0,0,0,0,0,0,0,0,0,0,0,0,0,0,0,0,0,0,0,0,0,0,0,0,0,0,0,0,0,0,0,0,0,0,0,0,0,0,0,0,0,0,0,0,0,0,0,0,0,0,0,0,0,0,0,0,0,0,0,0,0,0,0,0,0,0,0,0,0,0,0,0,0,0,0,0,0,0,0,0,0,0,0,0,0,0,0,0,0,0,0,0,0,0,0,0,0,0,0,0,0,0,0,0,0,0,0,0,0,0,0,0,0,0,0,0,0,0,0,0,0,0,0,0,0,0,0,0,0,0,0,0,0,0,0,0,0,0,0,0,0,0,0,0,0,0,0,0,0,0,0,0,
0,0,0,0,0,0,0,0,0,0,0,0,0,0,0,0,0,0,0,0,0,0,0,0,0,0,0,0,0,0,0,0,0,0,0,0,0,0,0,0,0,0,0,0,0,0,0,0,0,0,0,0,0,0,0,0,0,0,0,0,0,0,0,0,0,0,0,0,0,0,0,0,0,0,0,0,0,0,0,0,0,0,0,0,0,0,0,0,0,0,0,0,0,0,0,0,0,0,0,0,0,0,0,0,0,0,0,0,0,0,0,0,0,0,0,0,0,0,0,0,0,0,0,0,0,0,0,0,0,0,0,0,0,0,0,0,0,0,0,0,0,0,0,0,0,0,0,0,0,0,0,0,0,0,0,0,0,0,0,0,0,0,0,0,0,0,0,0,0,0,0,0,0,0,0,0,0,0,0,0,0,0,0,0,0,0,0,0,0,0,0,0,0,0,0,0,0,0,0,0,
0,0,0,0,0,0,0,0,0,0,0,0,0,0,0,0,0,0,0,0,0,0,0,0,0,0,0,0,0,0,0,0,0,0,0,0,0,0,0,0,0,0,0,0,0,0,0,0,0,0,0,0,0,0,0,0,0,0,0,0,0,0,0,0,0,0,0,0,0,0,0,0,0,0,0,0,0,0,0,0,0,0,0,0,0,0,0,0,0,0,0,0,0,0,0,0,0,0,0,0,0,0,0,0,0,0,0,0,0,0,0,0,0,0,0,0,0,0,0,0,0,0,0,0,0,0,0,0,0,0,0,0,0,0,0,0,0,0,0,0,0,0,0,0,0,0,0,0,0,0,0,0,0,0,0,0,0,0,0,0,0,0,0,0,0,0,0,0,0,0,0,0,0,0,0,0,0,0,0,0,0,0,0,0,0,0,0,0,0,0,0,0,0,0,0,0,0,0,0,0,
0,0,0,0,0,0,0,0,0,0,0,0,0,0,0,0,0,0,0,0,0,0,0,0,0,0,0,0,0,0,0,0,0,0,0,0,0,0,0,0,0,0,0,0,0,0,0,0,0,0,0,0,0,0,0,0,0,0,0,0,0,0,0,0,0,0,0,0,0,0,0,0,0,0,0,0,0,0,0,0,0,0,0,0,0,0,0,0,0,0,0,0,0,0,0,0,0,0,0,0,0,0,0,0,0,0,0,0,0,0,0,0,0,0,0,0,0,0,0,0,0,0,0,0,0,0,0,0,0,0,0,0,0,0,0,0,0,0,0,0,0,0,0,0,0,0,0,0,0,0,0,0,0,0,0,0,0,0,0,0,0,0,0,0,0,0,0,0,0,0,0,0,0,0,0,0,0,0,0,0,0,0,0,0,0,0,0,0,0,0,0,0,0,0,0,0,0,0,0,0,
0,0,0,0,0,0,0,0,0,0,0,0,0,0,0,0,0,0,0,0,0,0,0,0,0,0,0,0,0,0,0,0,0,0,0,0,0,0,0,0,0,0,0,0,0,0,0,0,0,0,0,0,0,0,0,0,0,0,0,0,0,0,0,0,0,0,0,0,0,0,0,0,0,0,0,0,0,0,0,0,0,0,0,0,0,0,0,0,0,0,0,0,0,0,0,0,0,0,0,0,0,0,0,0,0,0,0,0,0,0,0,0,0,0,0,0,0,0,0,0,0,0,0,0,0,0,0,0,0,0,0,0,0,0,0,0,0,0,0,0,0,0,0,0,0,0,0,0,0,0,0,0,0,0,0,0,0,0,0,0,0,0,0,0,0,0,0,0,0,0,0,0,0,0,0,0,0,0,0,0,0,0,0,0,0,0,0,0,0,0,0,0,0,0,0,0,0,0,0,0,
0,0,0,0,0,0,0,0,0,0,0,0,0,0,0,0,0,0,0,0,0,0,0,0,0,0,0,0,0,0,0,0,0,0,0,0,0,0,0,0,0,0,0,0,0,0,0,0,0,0,0,0,0,0,0,0,0,0,0,0,0,0,0,0,0,0,0,0,0,0,0,0,0,0,0,0,0,0,0,0,0,0,0,0,0,0,0,0,0,0,0,0,0,0,0,0,0,0,0,0,0,0,0,0,0,0,0,0,0,0,0,0,0,0,0,0,0,0,0,0,0,0,0,0,0,0,0,0,0,0,0,0,0,0,0,0,0,0,0,0,0,0,0,0,0,0,0,0,0,0,0,0,0,0,0,0,0,0,0,0,0,0,0,0,0,0,0,0,0,0,0,0,0,0,0,0,0,0,0,0,0,0,0,0,0,0,0,0,0,0,0,0,0,0,0,0,0,0,0,0,
0,0,0,0,0,0,0,0,0,0,0,0,0,0,0,0,0,0,0,0,0,0,0,0,0,0,0,0,0,0,0,0,0,0,0,0,0,0,0,0,0,0,0,0,0,0,0,0,0,0,0,0,0,0,0,0,0,0,0,0,0,0,0,0,0,0,0,0,0,0,0,0,0,0,0,0,0,0,0,0,0,0,0,0,0,0,0,0,0,0,0,0,0,0,0,0,0,0,0,0,0,0,0,0,0,0,0,0,0,0,0,0,0,0,0,0,0,0,0,0,0,0,0,0,0,0,0,0,0,0,0,0,0,0,0,0,0,0,0,0,0,0,0,0,0,0,0,0,0,0,0,0,0,0,0,0,0,0,0,0,0,0,0,0,0,0,0,0,0,0,0,0,0,0,0,0,0,0,0,0,0,0,0,0,0,0,0,0,0,0,0,0,0,0,0,0,0,0,0,0,
0,0,0,0,0,0,0,0,0,0,0,0,0,0,0,0,0,0,0,0,0,0,0,0,0,0,0,0,0,0,0,0,0,0,0,0,0,0,0,0,0,0,0,0,0,0,0,0,0,0,0,0,0,0,0,0,0,0,0,0,0,0,0,0,0,0,0,0,0,0,0,0,0,0,0,0,0,0,0,0,0,0,0,0,0,0,0,0,0,0,0,0,0,0,0,0,0,0,0,0,0,0,0,0,0,0,0,0,0,0,0,0,0,0,0,0,0,0,0,0,0,0,0,0,0,0,0,0,0,0,0,0,0,0,0,0,0,0,0,0,0,0,0,0,0,0,0,0,0,0,0,0,0,0,0,0,0,0,0,0,0,0,0,0,0,0,0,0,0,0,0,0,0,0,0,0,0,0,0,0,0,0,0,0,0,0,0,0,0,0,0,0,0,0,0,0,0,0,0,0,
0,0,0,0,0,0,0,0,0,0,0,0,0,0,0,0,0,0,0,0,0,0,0,0,0,0,0,0,0,0,0,0,0,0,0,0,0,0,0,0,0,0,0,0,0,0,0,0,0,0,0,0,0,0,0,0,0,0,0,0,0,0,0,0,0,0,0,0,0,0,0,0,0,0,0,0,0,0,0,0,0,0,0,0,0,0,0,0,0,0,0,0,0,0,0,0,0,0,0,0,0,0,0,0,0,0,0,0,0,0,0,0,0,0,0,0,0,0,0,0,0,0,0,0,0,0,0,0,0,0,0,0,0,0,0,0,0,0,0,0,0,0,0,0,0,0,0,0,0,0,0,0,0,0,0,0,0,0,0,0,0,0,0,0,0,0,0,0,0,0,0,0,0,0,0,0,0,0,0,0,0,0,0,0,0,0,0,0,0,0,0,0,0,0,0,0,0,0,0,0,
0,0,0,0,0,0,0,0,0,0,0,0,0,0,0,0,0,0,0,0,0,0,0,0,0,0,0,0,0,0,0,0,0,0,0,0,0,0,0,0,0,0,0,0,0,0,0,0,0,0,0,0,0,0,0,0,0,0,0,0,0,0,0,0,0,0,0,0,0,0,0,0,0,0,0,0,0,0,0,0,0,0,0,0,0,0,0,0,0,0,0,0,0,0,0,0,0,0,0,0,0,0,0,0,0,0,0,0,0,0,0,0,0,0,0,0,0,0,0,0,0,0,0,0,0,0,0,0,0,0,0,0,0,0,0,0,0,0,0,0,0,0,0,0,0,0,0,0,0,0,0,0,0,0,0,0,0,0,0,0,0,0,0,0,0,0,0,0,0,0,0,0,0,0,0,0,0,0,0,0,0,0,0,0,0,0,0,0,0,0,0,0,0,0,0,0,0,0,0,0,
0,0,0,0,0,0,0,0,0,0,0,0,0,0,0,0,0,0,0,0,0,0,0,0,0,0,0,0,0,0,0,0,0,0,0,0,0,0,0,0,0,0,0,0,0,0,0,0,0,0,0,0,0,0,0,0,0,0,0,0,0,0,0,0,0,0,0,0,0,0,0,0,0,0,0,0,0,0,0,0,0,0,0,0,0,0,0,0,0,0,0,0,0,0,0,0,0,0,0,0,0,0,0,0,0,0,0,0,0,0,0,0,0,0,0,0,0,0,0,0,0,0,0,0,0,0,0,0,0,0,0,0,0,0,0,0,0,0,0,0,0,0,0,0,0,0,0,0,0,0,0,0,0,0,0,0,0,0,0,0,0,0,0,0,0,0,0,0,0,0,0,0,0,0,0,0,0,0,0,0,0,0,0,0,0,0,0,0,0,0,0,0,0,0,0,0,0,0,0,0,
0,0,0,0,0,0,0,0,0,0,0,0,0,0,0,0,0,0,0,0,0,0,0,0,0,0,0,0,0,0,0,0,0,0,0,0,0,0,0,0,0,0,0,0,0,0,0,0,0,0,0,0,0,0,0,0,0,0,0,0,0,0,0,0,0,0,0,0,0,0,0,0,0,0,0,0,0,0,0,0,0,0,0,0,0,0,0,0,0,0,0,0,0,0,0,0,0,0,0,0,0,0,0,0,0,0,0,0,0,0,0,0,0,0,0,0,0,0,0,0,0,0,0,0,0,0,0,0,0,0,0,0,0,0,0,0,0,0,0,0,0,0,0,0,0,0,0,0,0,0,0,0,0,0,0,0,0,0,0,0,0,0,0,0,0,0,0,0,0,0,0,0,0,0,0,0,0,0,0,0,0,0,0,0,0,0,0,0,0,0,0,0,0,0,0,0,0,0,0,0,
0,0,0,0,0,0,0,0,0,0,0,0,0,0,0,0,0,0,0,0,0,0,0,0,0,0,0,0,0,0,0,0,0,0,0,0,0,0,0,0,0,0,0,0,0,0,0,0,0,0,0,0,0,0,0,0,0,0,0,0,0,0,0,0,0,0,0,0,0,0,0,0,0,0,0,0,0,0,0,0,0,0,0,0,0,0,0,0,0,0,0,0,0,0,0,0,0,0,0,0,0,0,0,0,0,0,0,0,0,0,0,0,0,0,0,0,0,0,0,0,0,0,0,0,0,0,0,0,0,0,0,0,0,0,0,0,0,0,0,0,0,0,0,0,0,0,0,0,0,0,0,0,0,0,0,0,0,0,0,0,0,0,0,0,0,0,0,0,0,0,0,0,0,0,0,0,0,0,0,0,0,0,0,0,0,0,0,0,0,0,0,0,0,0,0,0,0,0,0,0,
0,0,0,0,0,0,0,0,0,0,0,0,0,0,0,0,0,0,0,0,0,0,0,0,0,0,0,0,0,0,0,0,0,0,0,0,0,0,0,0,0,0,0,0,0,0,0,0,0,0,0,0,0,0,0,0,0,0,0,0,0,0,0,0,0,0,0,0,0,0,0,0,0,0,0,0,0,0,0,0,0,0,0,0,0,0,0,0,0,0,0,0,0,0,0,0,0,0,0,0,0,0,0,0,0,0,0,0,0,0,0,0,0,0,0,0,0,0,0,0,0,0,0,0,0,0,0,0,0,0,0,0,0,0,0,0,0,0,0,0,0,0,0,0,0,0,0,0,0,0,0,0,0,0,0,0,0,0,0,0,0,0,0,0,0,0,0,0,0,0,0,0,0,0,0,0,0,0,0,0,0,0,0,0,0,0,0,0,0,0,0,0,0,0,0,0,0,0,0,0,
0,0,0,0,0,0,0,0,0,0,0,0,0,0,0,0,0,0,0,0,0,0,0,0,0,0,0,0,0,0,0,0,0,0,0,0,0,0,0,0,0,0,0,0,0,0,0,0,0,0,0,0,0,0,0,0,0,0,0,0,0,0,0,0,0,0,0,0,0,0,0,0,0,0,0,0,0,0,0,0,0,0,0,0,0,0,0,0,0,0,0,0,0,0,0,0,0,0,0,0,0,0,0,0,0,0,0,0,0,0,0,0,0,0,0,0,0,0,0,0,0,0,0,0,0,0,0,0,0,0,0,0,0,0,0,0,0,0,0,0,0,0,0,0,0,0,0,0,0,0,0,0,0,0,0,0,0,0,0,0,0,0,0,0,0,0,0,0,0,0,0,0,0,0,0,0,0,0,0,0,0,0,0,0,0,0,0,0,0,0,0,0,0,0,0,0,0,0,0,0,
0,0,0,0,0,0,0,0,0,0,0,0,0,0,0,0,0,0,0,0,0,0,0,0,0,0,0,0,0,0,0,0,0,0,0,0,0,0,0,0,0,0,0,0,0,0,0,0,0,0,0,0,0,0,0,0,0,0,0,0,0,0,0,0,0,0,0,0,0,0,0,0,0,0,0,0,0,0,0,0,0,0,0,0,0,0,0,0,0,0,0,0,0,0,0,0,0,0,0,0,0,0,0,0,0,0,0,0,0,0,0,0,0,0,0,0,0,0,0,0,0,0,0,0,0,0,0,0,0,0,0,0,0,0,0,0,0,0,0,0,0,0,0,0,0,0,0,0,0,0,0,0,0,0,0,0,0,0,0,0,0,0,0,0,0,0,0,0,0,0,0,0,0,0,0,0,0,0,0,0,0,0,0,0,0,0,0,0,0,0,0,0,0,0,0,0,0,0,0,0,
0,0,0,0,0,0,0,0,0,0,0,0,0,0,0,0,0,0,0,0,0,0,0,0,0,0,0,0,0,0,0,0,0,0,0,0,0,0,0,0,0,0,0,0,0,0,0,0,0,0,0,0,0,0,0,0,0,0,0,0,0,0,0,0,0,0,0,0,0,0,0,0,0,0,0,0,0,0,0,0,0,0,0,0,0,0,0,0,0,0,0,0,0,0,0,0,0,0,0,0,0,0,0,0,0,0,0,0,0,0,0,0,0,0,0,0,0,0,0,0,0,0,0,0,0,0,0,0,0,0,0,0,0,0,0,0,0,0,0,0,0,0,0,0,0,0,0,0,0,0,0,0,0,0,0,0,0,0,0,0,0,0,0,0,0,0,0,0,0,0,0,0,0,0,0,0,0,0,0,0,0,0,0,0,0,0,0,0,0,0,0,0,0,0,0,0,0,0,0,0,
0,0,0,0,0,0,0,0,0,0,0,0,0,0,0,0,0,0,0,0,0,0,0,0,0,0,0,0,0,0,0,0,0,0,0,0,0,0,0,0,0,0,0,0,0,0,0,0,0,0,0,0,0,0,0,0,0,0,0,0,0,0,0,0,0,0,0,0,0,0,0,0,0,0,0,0,0,0,0,0,0,0,0,0,0,0,0,0,0,0,0,0,0,0,0,0,0,0,0,0,0,0,0,0,0,0,0,0,0,0,0,0,0,0,0,0,0,0,0,0,0,0,0,0,0,0,0,0,0,0,0,0,0,0,0,0,0,0,0,0,0,0,0,0,0,0,0,0,0,0,0,0,0,0,0,0,0,0,0,0,0,0,0,0,0,0,0,0,0,0,0,0,0,0,0,0,0,0,0,0,0,0,0,0,0,0,0,0,0,0,0,0,0,0,0,0,0,0,0,0,
0,0,0,0,0,0,0,0,0,0,0,0,0,0,0,0,0,0,0,0,0,0,0,0,0,0,0,0,0,0,0,0,0,0,0,0,0,0,0,0,0,0,0,0,0,0,0,0,0,0,0,0,0,0,0,0,0,0,0,0,0,0,0,0,0,0,0,0,0,0,0,0,0,0,0,0,0,0,0,0,0,0,0,0,0,0,0,0,0,0,0,0,0,0,0,0,0,0,0,0,0,0,0,0,0,0,0,0,0,0,0,0,0,0,0,0,0,0,0,0,0,0,0,0,0,0,0,0,0,0,0,0,0,0,0,0,0,0,0,0,0,0,0,0,0,0,0,0,0,0,0,0,0,0,0,0,0,0,0,0,0,0,0,0,0,0,0,0,0,0,0,0,0,0,0,0,0,0,0,0,0,0,0,0,0,0,0,0,0,0,0,0,0,0,0,0,0,0,0,0,
0,0,0,0,0,0,0,0,0,0,0,0,0,0,0,0,0,0,0,0,0,0,0,0,0,0,0,0,0,0,0,0,0,0,0,0,0,0,0,0,0,0,0,0,0,0,0,0,0,0,0,0,0,0,0,0,0,0,0,0,0,0,0,0,0,0,0,0,0,0,0,0,0,0,0,0,0,0,0,0,0,0,0,0,0,0,0,0,0,0,0,0,0,0,0,0,0,0,0,0,0,0,0,0,0,0,0,0,0,0,0,0,0,0,0,0,0,0,0,0,0,0,0,0,0,0,0,0,0,0,0,0,0,0,0,0,0,0,0,0,0,0,0,0,0,0,0,0,0,0,0,0,0,0,0,0,0,0,0,0,0,0,0,0,0,0,0,0,0,0,0,0,0,0,0,0,0,0,0,0,0,0,0,0,0,0,0,0,0,0,0,0,0,0,0,0,0,0,0,0,
0,0,0,0,0,0,0,0,0,0,0,0,0,0,0,0,0,0,0,0,0,0,0,0,0,0,0,0,0,0,0,0,0,0,0,0,0,0,0,0,0,0,0,0,0,0,0,0,0,0,0,0,0,0,0,0,0,0,0,0,0,0,0,0,0,0,0,0,0,0,0,0,0,0,0,0,0,0,0,0,0,0,0,0,0,0,0,0,0,0,0,0,0,0,0,0,0,0,0,0,0,0,0,0,0,0,0,0,0,0,0,0,0,0,0,0,0,0,0,0,0,0,0,0,0,0,0,0,0,0,0,0,0,0,0,0,0,0,0,0,0,0,0,0,0,0,0,0,0,0,0,0,0,0,0,0,0,0,0,0,0,0,0,0,0,0,0,0,0,0,0,0,0,0,0,0,0,0,0,0,0,0,0,0,0,0,0,0,0,0,0,0,0,0,0,0,0,0,0,0,
0,0,0,0,0,0,0,0,0,0,0,0,0,0,0,0,0,0,0,0,0,0,0,0,0,0,0,0,0,0,0,0,0,0,0,0,0,0,0,0,0,0,0,0,0,0,0,0,0,0,0,0,0,0,0,0,0,0,0,0,0,0,0,0,0,0,0,0,0,0,0,0,0,0,0,0,0,0,0,0,0,0,0,0,0,0,0,0,0,0,0,0,0,0,0,0,0,0,0,0,0,0,0,0,0,0,0,0,0,0,0,0,0,0,0,0,0,0,0,0,0,0,0,0,0,0,0,0,0,0,0,0,0,0,0,0,0,0,0,0,0,0,0,0,0,0,0,0,0,0,0,0,0,0,0,0,0,0,0,0,0,0,0,0,0,0,0,0,0,0,0,0,0,0,0,0,0,0,0,0,0,0,0,0,0,0,0,0,0,0,0,0,0,0,0,0,0,0,0,0,
0,0,0,0,0,0,0,0,0,0,0,0,0,0,0,0,0,0,0,0,0,0,0,0,0,0,0,0,0,0,0,0,0,0,0,0,0,0,0,0,0,0,0,0,0,0,0,0,0,0,0,0,0,0,0,0,0,0,0,0,0,0,0,0,0,0,0,0,0,0,0,0,0,0,0,0,0,0,0,0,0,0,0,0,0,0,0,0,0,0,0,0,0,0,0,0,0,0,0,0,0,0,0,0,0,0,0,0,0,0,0,0,0,0,0,0,0,0,0,0,0,0,0,0,0,0,0,0,0,0,0,0,0,0,0,0,0,0,0,0,0,0,0,0,0,0,0,0,0,0,0,0,0,0,0,0,0,0,0,0,0,0,0,0,0,0,0,0,0,0,0,0,0,0,0,0,0,0,0,0,0,0,0,0,0,0,0,0,0,0,0,0,0,0,0,0,0,0,0,0,
0,0,0,0,0,0,0,0,0,0,0,0,0,0,0,0,0,0,0,0,0,0,0,0,0,0,0,0,0,0,0,0,0,0,0,0,0,0,0,0,0,0,0,0,0,0,0,0,0,0,0,0,0,0,0,0,0,0,0,0,0,0,0,0,0,0,0,0,0,0,0,0,0,0,0,0,0,0,0,0,0,0,0,0,0,0,0,0,0,0,0,0,0,0,0,0,0,0,0,0,0,0,0,0,0,0,0,0,0,0,0,0,0,0,0,0,0,0,0,0,0,0,0,0,0,0,0,0,0,0,0,0,0,0,0,0,0,0,0,0,0,0,0,0,0,0,0,0,0,0,0,0,0,0,0,0,0,0,0,0,0,0,0,0,0,0,0,0,0,0,0,0,0,0,0,0,0,0,0,0,0,0,0,0,0,0,0,0,0,0,0,0,0,0,0,0,0,0,0,0,
0,0,0,0,0,0,0,0,0,0,0,0,0,0,0,0,0,0,0,0,0,0,0,0,0,0,0,0,0,0,0,0,0,0,0,0,0,0,0,0,0,0,0,0,0,0,0,0,0,0,0,0,0,0,0,0,0,0,0,0,0,0,0,0,0,0,0,0,0,0,0,0,0,0,0,0,0,0,0,0,0,0,0,0,0,0,0,0,0,0,0,0,0,0,0,0,0,0,0,0,0,0,0,0,0,0,0,0,0,0,0,0,0,0,0,0,0,0,0,0,0,0,0,0,0,0,0,0,0,0,0,0,0,0,0,0,0,0,0,0,0,0,0,0,0,0,0,0,0,0,0,0,0,0,0,0,0,0,0,0,0,0,0,0,0,0,0,0,0,0,0,0,0,0,0,0,0,0,0,0,0,0,0,0,0,0,0,0,0,0,0,0,0,0,0,0,0,0,0,0,
0,0,0,0,0,0,0,0,0,0,0,0,0,0,0,0,0,0,0,0,0,0,0,0,0,0,0,0,0,0,0,0,0,0,0,0,0,0,0,0,0,0,0,0,0,0,0,0,0,0,0,0,0,0,0,0,0,0,0,0,0,0,0,0,0,0,0,0,0,0,0,0,0,0,0,0,0,0,0,0,0,0,0,0,0,0,0,0,0,0,0,0,0,0,0,0,0,0,0,0,0,0,0,0,0,0,0,0,0,0,0,0,0,0,0,0,0,0,0,0,0,0,0,0,0,0,0,0,0,0,0,0,0,0,0,0,0,0,0,0,0,0,0,0,0,0,0,0,0,0,0,0,0,0,0,0,0,0,0,0,0,0,0,0,0,0,0,0,0,0,0,0,0,0,0,0,0,0,0,0,0,0,0,0,0,0,0,0,0,0,0,0,0,0,0,0,0,0,0,0,
0,0,0,0,0,0,0,0,0,0,0,0,0,0,0,0,0,0,0,0,0,0,0,0,0,0,0,0,0,0,0,0,0,0,0,0,0,0,0,0,0,0,0,0,0,0,0,0,0,0,0,0,0,0,0,0,0,0,0,0,0,0,0,0,0,0,0,0,0,0,0,0,0,0,0,0,0,0,0,0,0,0,0,0,0,0,0,0,0,0,0,0,0,0,0,0,0,0,0,0,0,0,0,0,0,0,0,0,0,0,0,0,0,0,0,0,0,0,0,0,0,0,0,0,0,0,0,0,0,0,0,0,0,0,0,0,0,0,0,0,0,0,0,0,0,0,0,0,0,0,0,0,0,0,0,0,0,0,0,0,0,0,0,0,0,0,0,0,0,0,0,0,0,0,0,0,0,0,0,0,0,0,0,0,0,0,0,0,0,0,0,0,0,0,0,0,0,0,0,0,
0,0,0,0,0,0,0,0,0,0,0,0,0,0,0,0,0,0,0,0,0,0,0,0,0,0,0,0,0,0,0,0,0,0,0,0,0,0,0,0,0,0,0,0,0,0,0,0,0,0,0,0,0,0,0,0,0,0,0,0,0,0,0,0,0,0,0,0,0,0,0,0,0,0,0,0,0,0,0,0,0,0,0,0,0,0,0,0,0,0,0,0,0,0,0,0,0,0,0,0,0,0,0,0,0,0,0,0,0,0,0,0,0,0,0,0,0,0,0,0,0,0,0,0,0,0,0,0,0,0,0,0,0,0,0,0,0,0,0,0,0,0,0,0,0,0,0,0,0,0,0,0,0,0,0,0,0,0,0,0,0,0,0,0,0,0,0,0,0,0,0,0,0,0,0,0,0,0,0,0,0,0,0,0,0,0,0,0,0,0,0,0,0,0,0,0,0,0,0,0,
0,0,0,0,0,0,0,0,0,0,0,0,0,0,0,0,0,0,0,0,0,0,0,0,0,0,0,0,0,0,0,0,0,0,0,0,0,0,0,0,0,0,0,0,0,0,0,0,0,0,0,0,0,0,0,0,0,0,0,0,0,0,0,0,0,0,0,0,0,0,0,0,0,0,0,0,0,0,0,0,0,0,0,0,0,0,0,0,0,0,0,0,0,0,0,0,0,0,0,0,0,0,0,0,0,0,0,0,0,0,0,0,0,0,0,0,0,0,0,0,0,0,0,0,0,0,0,0,0,0,0,0,0,0,0,0,0,0,0,0,0,0,0,0,0,0,0,0,0,0,0,0,0,0,0,0,0,0,0,0,0,0,0,0,0,0,0,0,0,0,0,0,0,0,0,0,0,0,0,0,0,0,0,0,0,0,0,0,0,0,0,0,0,0,0,0,0,0,0,0,
0,0,0,0,0,0,0,0,0,0,0,0,0,0,0,0,0,0,0,0,0,0,0,0,0,0,0,0,0,0,0,0,0,0,0,0,0,0,0,0,0,0,0,0,0,0,0,0,0,0,0,0,0,0,0,0,0,0,0,0,0,0,0,0,0,0,0,0,0,0,0,0,0,0,0,0,0,0,0,0,0,0,0,0,0,0,0,0,0,0,0,0,0,0,0,0,0,0,0,0,0,0,0,0,0,0,0,0,0,0,0,0,0,0,0,0,0,0,0,0,0,0,0,0,0,0,0,0,0,0,0,0,0,0,0,0,0,0,0,0,0,0,0,0,0,0,0,0,0,0,0,0,0,0,0,0,0,0,0,0,0,0,0,0,0,0,0,0,0,0,0,0,0,0,0,0,0,0,0,0,0,0,0,0,0,0,0,0,0,0,0,0,0,0,0,0,0,0,0,0,
0,0,0,0,0,0,0,0,0,0,0,0,0,0,0,0,0,0,0,0,0,0,0,0,0,0,0,0,0,0,0,0,0,0,0,0,0,0,0,0,0,0,0,0,0,0,0,0,0,0,0,0,0,0,0,0,0,0,0,0,0,0,0,0,0,0,0,0,0,0,0,0,0,0,0,0,0,0,0,0,0,0,0,0,0,0,0,0,0,0,0,0,0,0,0,0,0,0,0,0,0,0,0,0,0,0,0,0,0,0,0,0,0,0,0,0,0,0,0,0,0,0,0,0,0,0,0,0,0,0,0,0,0,0,0,0,0,0,0,0,0,0,0,0,0,0,0,0,0,0,0,0,0,0,0,0,0,0,0,0,0,0,0,0,0,0,0,0,0,0,0,0,0,0,0,0,0,0,0,0,0,0,0,0,0,0,0,0,0,0,0,0,0,0,0,0,0,0,0,0,
0,0,0,0,0,0,0,0,0,0,0,0,0,0,0,0,0,0,0,0,0,0,0,0,0,0,0,0,0,0,0,0,0,0,0,0,0,0,0,0,0,0,0,0,0,0,0,0,0,0,0,0,0,0,0,0,0,0,0,0,0,0,0,0,0,0,0,0,0,0,0,0,0,0,0,0,0,0,0,0,0,0,0,0,0,0,0,0,0,0,0,0,0,0,0,0,0,0,0,0,0,0,0,0,0,0,0,0,0,0,0,0,0,0,0,0,0,0,0,0,0,0,0,0,0,0,0,0,0,0,0,0,0,0,0,0,0,0,0,0,0,0,0,0,0,0,0,0,0,0,0,0,0,0,0,0,0,0,0,0,0,0,0,0,0,0,0,0,0,0,0,0,0,0,0,0,0,0,0,0,0,0,0,0,0,0,0,0,0,0,0,0,0,0,0,0,0,0,0,0,
0,0,0,0,0,0,0,0,0,0,0,0,0,0,0,0,0,0,0,0,0,0,0,0,0,0,0,0,0,0,0,0,0,0,0,0,0,0,0,0,0,0,0,0,0,0,0,0,0,0,0,0,0,0,0,0,0,0,0,0,0,0,0,0,0,0,0,0,0,0,0,0,0,0,0,0,0,0,0,0,0,0,0,0,0,0,0,0,0,0,0,0,0,0,0,0,0,0,0,0,0,0,0,0,0,0,0,0,0,0,0,0,0,0,0,0,0,0,0,0,0,0,0,0,0,0,0,0,0,0,0,0,0,0,0,0,0,0,0,0,0,0,0,0,0,0,0,0,0,0,0,0,0,0,0,0,0,0,0,0,0,0,0,0,0,0,0,0,0,0,0,0,0,0,0,0,0,0,0,0,0,0,0,0,0,0,0,0,0,0,0,0,0,0,0,0,0,0,0,0,
0,0,0,0,0,0,0,0,0,0,0,0,0,0,0,0,0,0,0,0,0,0,0,0,0,0,0,0,0,0,0,0,0,0,0,0,0,0,0,0,0,0,0,0,0,0,0,0,0,0,0,0,0,0,0,0,0,0,0,0,0,0,0,0,0,0,0,0,0,0,0,0,0,0,0,0,0,0,0,0,0,0,0,0,0,0,0,0,0,0,0,0,0,0,0,0,0,0,0,0,0,0,0,0,0,0,0,0,0,0,0,0,0,0,0,0,0,0,0,0,0,0,0,0,0,0,0,0,0,0,0,0,0,0,0,0,0,0,0,0,0,0,0,0,0,0,0,0,0,0,0,0,0,0,0,0,0,0,0,0,0,0,0,0,0,0,0,0,0,0,0,0,0,0,0,0,0,0,0,0,0,0,0,0,0,0,0,0,0,0,0,0,0,0,0,0,0,0,0,0,
0,0,0,0,0,0,0,0,0,0,0,0,0,0,0,0,0,0,0,0,0,0,0,0,0,0,0,0,0,0,0,0,0,0,0,0,0,0,0,0,0,0,0,0,0,0,0,0,0,0,0,0,0,0,0,0,0,0,0,0,0,0,0,0,0,0,0,0,0,0,0,0,0,0,0,0,0,0,0,0,0,0,0,0,0,0,0,0,0,0,0,0,0,0,0,0,0,0,0,0,0,0,0,0,0,0,0,0,0,0,0,0,0,0,0,0,0,0,0,0,0,0,0,0,0,0,0,0,0,0,0,0,0,0,0,0,0,0,0,0,0,0,0,0,0,0,0,0,0,0,0,0,0,0,0,0,0,0,0,0,0,0,0,0,0,0,0,0,0,0,0,0,0,0,0,0,0,0,0,0,0,0,0,0,0,0,0,0,0,0,0,0,0,0,0,0,0,0,0,0,
0,0,0,0,0,0,0,0,0,0,0,0,0,0,0,0,0,0,0,0,0,0,0,0,0,0,0,0,0,0,0,0,0,0,0,0,0,0,0,0,0,0,0,0,0,0,0,0,0,0,0,0,0,0,0,0,0,0,0,0,0,0,0,0,0,0,0,0,0,0,0,0,0,0,0,0,0,0,0,0,0,0,0,0,0,0,0,0,0,0,0,0,0,0,0,0,0,0,0,0,0,0,0,0,0,0,0,0,0,0,0,0,0,0,0,0,0,0,0,0,0,0,0,0,0,0,0,0,0,0,0,0,0,0,0,0,0,0,0,0,0,0,0,0,0,0,0,0,0,0,0,0,0,0,0,0,0,0,0,0,0,0,0,0,0,0,0,0,0,0,0,0,0,0,0,0,0,0,0,0,0,0,0,0,0,0,0,0,0,0,0,0,0,0,0,0,0,0,0,0,
0,0,0,0,0,0,0,0,0,0,0,0,0,0,0,0,0,0,0,0,0,0,0,0,0,0,0,0,0,0,0,0,0,0,0,0,0,0,0,0,0,0,0,0,0,0,0,0,0,0,0,0,0,0,0,0,0,0,0,0,0,0,0,0,0,0,0,0,0,0,0,0,0,0,0,0,0,0,0,0,0,0,0,0,0,0,0,0,0,0,0,0,0,0,0,0,0,0,0,0,0,0,0,0,0,0,0,0,0,0,0,0,0,0,0,0,0,0,0,0,0,0,0,0,0,0,0,0,0,0,0,0,0,0,0,0,0,0,0,0,0,0,0,0,0,0,0,0,0,0,0,0,0,0,0,0,0,0,0,0,0,0,0,0,0,0,0,0,0,0,0,0,0,0,0,0,0,0,0,0,0,0,0,0,0,0,0,0,0,0,0,0,0,0,0,0,0,0,0,0,
0,0,0,0,0,0,0,0,0,0,0,0,0,0,0,0,0,0,0,0,0,0,0,0,0,0,0,0,0,0,0,0,0,0,0,0,0,0,0,0,0,0,0,0,0,0,0,0,0,0,0,0,0,0,0,0,0,0,0,0,0,0,0,0,0,0,0,0,0,0,0,0,0,0,0,0,0,0,0,0,0,0,0,0,0,0,0,0,0,0,0,0,0,0,0,0,0,0,0,0,0,0,0,0,0,0,0,0,0,0,0,0,0,0,0,0,0,0,0,0,0,0,0,0,0,0,0,0,0,0,0,0,0,0,0,0,0,0,0,0,0,0,0,0,0,0,0,0,0,0,0,0,0,0,0,0,0,0,0,0,0,0,0,0,0,0,0,0,0,0,0,0,0,0,0,0,0,0,0,0,0,0,0,0,0,0,0,0,0,0,0,0,0,0,0,0,0,0,0,0,
0,0,0,0,0,0,0,0,0,0,0,0,0,0,0,0,0,0,0,0,0,0,0,0,0,0,0,0,0,0,0,0,0,0,0,0,0,0,0,0,0,0,0,0,0,0,0,0,0,0,0,0,0,0,0,0,0,0,0,0,0,0,0,0,0,0,0,0,0,0,0,0,0,0,0,0,0,0,0,0,0,0,0,0,0,0,0,0,0,0,0,0,0,0,0,0,0,0,0,0,0,0,0,0,0,0,0,0,0,0,0,0,0,0,0,0,0,0,0,0,0,0,0,0,0,0,0,0,0,0,0,0,0,0,0,0,0,0,0,0,0,0,0,0,0,0,0,0,0,0,0,0,0,0,0,0,0,0,0,0,0,0,0,0,0,0,0,0,0,0,0,0,0,0,0,0,0,0,0,0,0,0,0,0,0,0,0,0,0,0,0,0,0,0,0,0,0,0,0,0,
0,0,0,0,0,0,0,0,0,0,0,0,0,0,0,0,0,0,0,0,0,0,0,0,0,0,0,0,0,0,0,0,0,0,0,0,0,0,0,0,0,0,0,0,0,0,0,0,0,0,0,0,0,0,0,0,0,0,0,0,0,0,0,0,0,0,0,0,0,0,0,0,0,0,0,0,0,0,0,0,0,0,0,0,0,0,0,0,0,0,0,0,0,0,0,0,0,0,0,0,0,0,0,0,0,0,0,0,0,0,0,0,0,0,0,0,0,0,0,0,0,0,0,0,0,0,0,0,0,0,0,0,0,0,0,0,0,0,0,0,0,0,0,0,0,0,0,0,0,0,0,0,0,0,0,0,0,0,0,0,0,0,0,0,0,0,0,0,0,0,0,0,0,0,0,0,0,0,0,0,0,0,0,0,0,0,0,0,0,0,0,0,0,0,0,0,0,0,0,0,
0,0,0,0,0,0,0,0,0,0,0,0,0,0,0,0,0,0,0,0,0,0,0,0,0,0,0,0,0,0,0,0,0,0,0,0,0,0,0,0,0,0,0,0,0,0,0,0,0,0,0,0,0,0,0,0,0,0,0,0,0,0,0,0,0,0,0,0,0,0,0,0,0,0,0,0,0,0,0,0,0,0,0,0,0,0,0,0,0,0,0,0,0,0,0,0,0,0,0,0,0,0,0,0,0,0,0,0,0,0,0,0,0,0,0,0,0,0,0,0,0,0,0,0,0,0,0,0,0,0,0,0,0,0,0,0,0,0,0,0,0,0,0,0,0,0,0,0,0,0,0,0,0,0,0,0,0,0,0,0,0,0,0,0,0,0,0,0,0,0,0,0,0,0,0,0,0,0,0,0,0,0,0,0,0,0,0,0,0,0,0,0,0,0,0,0,0,0,0,0,
0,0,0,0,0,0,0,0,0,0,0,0,0,0,0,0,0,0,0,0,0,0,0,0,0,0,0,0,0,0,0,0,0,0,0,0,0,0,0,0,0,0,0,0,0,0,0,0,0,0,0,0,0,0,0,0,0,0,0,0,0,0,0,0,0,0,0,0,0,0,0,0,0,0,0,0,0,0,0,0,0,0,0,0,0,0,0,0,0,0,0,0,0,0,0,0,0,0,0,0,0,0,0,0,0,0,0,0,0,0,0,0,0,0,0,0,0,0,0,0,0,0,0,0,0,0,0,0,0,0,0,0,0,0,0,0,0,0,0,0,0,0,0,0,0,0,0,0,0,0,0,0,0,0,0,0,0,0,0,0,0,0,0,0,0,0,0,0,0,0,0,0,0,0,0,0,0,0,0,0,0,0,0,0,0,0,0,0,0,0,0,0,0,0,0,0,0,0,0,0,
0,0,0,0,0,0,0,0,0,0,0,0,0,0,0,0,0,0,0,0,0,0,0,0,0,0,0,0,0,0,0,0,0,0,0,0,0,0,0,0,0,0,0,0,0,0,0,0,0,0,0,0,0,0,0,0,0,0,0,0,0,0,0,0,0,0,0,0,0,0,0,0,0,0,0,0,0,0,0,0,0,0,0,0,0,0,0,0,0,0,0,0,0,0,0,0,0,0,0,0,0,0,0,0,0,0,0,0,0,0,0,0,0,0,0,0,0,0,0,0,0,0,0,0,0,0,0,0,0,0,0,0,0,0,0,0,0,0,0,0,0,0,0,0,0,0,0,0,0,0,0,0,0,0,0,0,0,0,0,0,0,0,0,0,0,0,0,0,0,0,0,0,0,0,0,0,0,0,0,0,0,0,0,0,0,0,0,0,0,0,0,0,0,0,0,0,0,0,0,0,
0,0,0,0,0,0,0,0,0,0,0,0,0,0,0,0,0,0,0,0,0,0,0,0,0,0,0,0,0,0,0,0,0,0,0,0,0,0,0,0,0,0,0,0,0,0,0,0,0,0,0,0,0,0,0,0,0,0,0,0,0,0,0,0,0,0,0,0,0,0,0,0,0,0,0,0,0,0,0,0,0,0,0,0,0,0,0,0,0,0,0,0,0,0,0,0,0,0,0,0,0,0,0,0,0,0,0,0,0,0,0,0,0,0,0,0,0,0,0,0,0,0,0,0,0,0,0,0,0,0,0,0,0,0,0,0,0,0,0,0,0,0,0,0,0,0,0,0,0,0,0,0,0,0,0,0,0,0,0,0,0,0,0,0,0,0,0,0,0,0,0,0,0,0,0,0,0,0,0,0,0,0,0,0,0,0,0,0,0,0,0,0,0,0,0,0,0,0,0,0,
0,0,0,0,0,0,0,0,0,0,0,0,0,0,0,0,0,0,0,0,0,0,0,0,0,0,0,0,0,0,0,0,0,0,0,0,0,0,0,0,0,0,0,0,0,0,0,0,0,0,0,0,0,0,0,0,0,0,0,0,0,0,0,0,0,0,0,0,0,0,0,0,0,0,0,0,0,0,0,0,0,0,0,0,0,0,0,0,0,0,0,0,0,0,0,0,0,0,0,0,0,0,0,0,0,0,0,0,0,0,0,0,0,0,0,0,0,0,0,0,0,0,0,0,0,0,0,0,0,0,0,0,0,0,0,0,0,0,0,0,0,0,0,0,0,0,0,0,0,0,0,0,0,0,0,0,0,0,0,0,0,0,0,0,0,0,0,0,0,0,0,0,0,0,0,0,0,0,0,0,0,0,0,0,0,0,0,0,0,0,0,0,0,0,0,0,0,0,0,0,
0,0,0,0,0,0,0,0,0,0,0,0,0,0,0,0,0,0,0,0,0,0,0,0,0,0,0,0,0,0,0,0,0,0,0,0,0,0,0,0,0,0,0,0,0,0,0,0,0,0,0,0,0,0,0,0,0,0,0,0,0,0,0,0,0,0,0,0,0,0,0,0,0,0,0,0,0,0,0,0,0,0,0,0,0,0,0,0,0,0,0,0,0,0,0,0,0,0,0,0,0,0,0,0,0,0,0,0,0,0,0,0,0,0,0,0,0,0,0,0,0,0,0,0,0,0,0,0,0,0,0,0,0,0,0,0,0,0,0,0,0,0,0,0,0,0,0,0,0,0,0,0,0,0,0,0,0,0,0,0,0,0,0,0,0,0,0,0,0,0,0,0,0,0,0,0,0,0,0,0,0,0,0,0,0,0,0,0,0,0,0,0,0,0,0,0,0,0,0,0,
0,0,0,0,0,0,0,0,0,0,0,0,0,0,0,0,0,0,0,0,0,0,0,0,0,0,0,0,0,0,0,0,0,0,0,0,0,0,0,0,0,0,0,0,0,0,0,0,0,0,0,0,0,0,0,0,0,0,0,0,0,0,0,0,0,0,0,0,0,0,0,0,0,0,0,0,0,0,0,0,0,0,0,0,0,0,0,0,0,0,0,0,0,0,0,0,0,0,0,0,0,0,0,0,0,0,0,0,0,0,0,0,0,0,0,0,0,0,0,0,0,0,0,0,0,0,0,0,0,0,0,0,0,0,0,0,0,0,0,0,0,0,0,0,0,0,0,0,0,0,0,0,0,0,0,0,0,0,0,0,0,0,0,0,0,0,0,0,0,0,0,0,0,0,0,0,0,0,0,0,0,0,0,0,0,0,0,0,0,0,0,0,0,0,0,0,0,0,0,0,
0,0,0,0,0,0,0,0,0,0,0,0,0,0,0,0,0,0,0,0,0,0,0,0,0,0,0,0,0,0,0,0,0,0,0,0,0,0,0,0,0,0,0,0,0,0,0,0,0,0,0,0,0,0,0,0,0,0,0,0,0,0,0,0,0,0,0,0,0,0,0,0,0,0,0,0,0,0,0,0,0,0,0,0,0,0,0,0,0,0,0,0,0,0,0,0,0,0,0,0,0,0,0,0,0,0,0,0,0,0,0,0,0,0,0,0,0,0,0,0,0,0,0,0,0,0,0,0,0,0,0,0,0,0,0,0,0,0,0,0,0,0,0,0,0,0,0,0,0,0,0,0,0,0,0,0,0,0,0,0,0,0,0,0,0,0,0,0,0,0,0,0,0,0,0,0,0,0,0,0,0,0,0,0,0,0,0,0,0,0,0,0,0,0,0,0,0,0,0,0,
0,0,0,0,0,0,0,0,0,0,0,0,0,0,0,0,0,0,0,0,0,0,0,0,0,0,0,0,0,0,0,0,0,0,0,0,0,0,0,0,0,0,0,0,0,0,0,0,0,0,0,0,0,0,0,0,0,0,0,0,0,0,0,0,0,0,0,0,0,0,0,0,0,0,0,0,0,0,0,0,0,0,0,0,0,0,0,0,0,0,0,0,0,0,0,0,0,0,0,0,0,0,0,0,0,0,0,0,0,0,0,0,0,0,0,0,0,0,0,0,0,0,0,0,0,0,0,0,0,0,0,0,0,0,0,0,0,0,0,0,0,0,0,0,0,0,0,0,0,0,0,0,0,0,0,0,0,0,0,0,0,0,0,0,0,0,0,0,0,0,0,0,0,0,0,0,0,0,0,0,0,0,0,0,0,0,0,0,0,0,0,0,0,0,0,0,0,0,0,0,
0,0,0,0,0,0,0,0,0,0,0,0,0,0,0,0,0,0,0,0,0,0,0,0,0,0,0,0,0,0,0,0,0,0,0,0,0,0,0,0,0,0,0,0,0,0,0,0,0,0,0,0,0,0,0,0,0,0,0,0,0,0,0,0,0,0,0,0,0,0,0,0,0,0,0,0,0,0,0,0,0,0,0,0,0,0,0,0,0,0,0,0,0,0,0,0,0,0,0,0,0,0,0,0,0,0,0,0,0,0,0,0,0,0,0,0,0,0,0,0,0,0,0,0,0,0,0,0,0,0,0,0,0,0,0,0,0,0,0,0,0,0,0,0,0,0,0,0,0,0,0,0,0,0,0,0,0,0,0,0,0,0,0,0,0,0,0,0,0,0,0,0,0,0,0,0,0,0,0,0,0,0,0,0,0,0,0,0,0,0,0,0,0,0,0,0,0,0,0,0,
0,0,0,0,0,0,0,0,0,0,0,0,0,0,0,0,0,0,0,0,0,0,0,0,0,0,0,0,0,0,0,0,0,0,0,0,0,0,0,0,0,0,0,0,0,0,0,0,0,0,0,0,0,0,0,0,0,0,0,0,0,0,0,0,0,0,0,0,0,0,0,0,0,0,0,0,0,0,0,0,0,0,0,0,0,0,0,0,0,0,0,0,0,0,0,0,0,0,0,0,0,0,0,0,0,0,0,0,0,0,0,0,0,0,0,0,0,0,0,0,0,0,0,0,0,0,0,0,0,0,0,0,0,0,0,0,0,0,0,0,0,0,0,0,0,0,0,0,0,0,0,0,0,0,0,0,0,0,0,0,0,0,0,0,0,0,0,0,0,0,0,0,0,0,0,0,0,0,0,0,0,0,0,0,0,0,0,0,0,0,0,0,0,0,0,0,0,0,0,0,
0,0,0,0,0,0,0,0,0,0,0,0,0,0,0,0,0,0,0,0,0,0,0,0,0,0,0,0,0,0,0,0,0,0,0,0,0,0,0,0,0,0,0,0,0,0,0,0,0,0,0,0,0,0,0,0,0,0,0,0,0,0,0,0,0,0,0,0,0,0,0,0,0,0,0,0,0,0,0,0,0,0,0,0,0,0,0,0,0,0,0,0,0,0,0,0,0,0,0,0,0,0,0,0,0,0,0,0,0,0,0,0,0,0,0,0,0,0,0,0,0,0,0,0,0,0,0,0,0,0,0,0,0,0,0,0,0,0,0,0,0,0,0,0,0,0,0,0,0,0,0,0,0,0,0,0,0,0,0,0,0,0,0,0,0,0,0,0,0,0,0,0,0,0,0,0,0,0,0,0,0,0,0,0,0,0,0,0,0,0,0,0,0,0,0,0,0,0,0,0,
0,0,0,0,0,0,0,0,0,0,0,0,0,0,0,0,0,0,0,0,0,0,0,0,0,0,0,0,0,0,0,0,0,0,0,0,0,0,0,0,0,0,0,0,0,0,0,0,0,0,0,0,0,0,0,0,0,0,0,0,0,0,0,0,0,0,0,0,0,0,0,0,0,0,0,0,0,0,0,0,0,0,0,0,0,0,0,0,0,0,0,0,0,0,0,0,0,0,0,0,0,0,0,0,0,0,0,0,0,0,0,0,0,0,0,0,0,0,0,0,0,0,0,0,0,0,0,0,0,0,0,0,0,0,0,0,0,0,0,0,0,0,0,0,0,0,0,0,0,0,0,0,0,0,0,0,0,0,0,0,0,0,0,0,0,0,0,0,0,0,0,0,0,0,0,0,0,0,0,0,0,0,0,0,0,0,0,0,0,0,0,0,0,0,0,0,0,0,0,0,
0,0,0,0,0,0,0,0,0,0,0,0,0,0,0,0,0,0,0,0,0,0,0,0,0,0,0,0,0,0,0,0,0,0,0,0,0,0,0,0,0,0,0,0,0,0,0,0,0,0,0,0,0,0,0,0,0,0,0,0,0,0,0,0,0,0,0,0,0,0,0,0,0,0,0,0,0,0,0,0,0,0,0,0,0,0,0,0,0,0,0,0,0,0,0,0,0,0,0,0,0,0,0,0,0,0,0,0,0,0,0,0,0,0,0,0,0,0,0,0,0,0,0,0,0,0,0,0,0,0,0,0,0,0,0,0,0,0,0,0,0,0,0,0,0,0,0,0,0,0,0,0,0,0,0,0,0,0,0,0,0,0,0,0,0,0,0,0,0,0,0,0,0,0,0,0,0,0,0,0,0,0,0,0,0,0,0,0,0,0,0,0,0,0,0,0,0,0,0,0,
0,0,0,0,0,0,0,0,0,0,0,0,0,0,0,0,0,0,0,0,0,0,0,0,0,0,0,0,0,0,0,0,0,0,0,0,0,0,0,0,0,0,0,0,0,0,0,0,0,0,0,0,0,0,0,0,0,0,0,0,0,0,0,0,0,0,0,0,0,0,0,0,0,0,0,0,0,0,0,0,0,0,0,0,0,0,0,0,0,0,0,0,0,0,0,0,0,0,0,0,0,0,0,0,0,0,0,0,0,0,0,0,0,0,0,0,0,0,0,0,0,0,0,0,0,0,0,0,0,0,0,0,0,0,0,0,0,0,0,0,0,0,0,0,0,0,0,0,0,0,0,0,0,0,0,0,0,0,0,0,0,0,0,0,0,0,0,0,0,0,0,0,0,0,0,0,0,0,0,0,0,0,0,0,0,0,0,0,0,0,0,0,0,0,0,0,0,0,0,0,
0,0,0,0,0,0,0,0,0,0,0,0,0,0,0,0,0,0,0,0,0,0,0,0,0,0,0,0,0,0,0,0,0,0,0,0,0,0,0,0,0,0,0,0,0,0,0,0,0,0,0,0,0,0,0,0,0,0,0,0,0,0,0,0,0,0,0,0,0,0,0,0,0,0,0,0,0,0,0,0,0,0,0,0,0,0,0,0,0,0,0,0,0,0,0,0,0,0,0,0,0,0,0,0,0,0,0,0,0,0,0,0,0,0,0,0,0,0,0,0,0,0,0,0,0,0,0,0,0,0,0,0,0,0,0,0,0,0,0,0,0,0,0,0,0,0,0,0,0,0,0,0,0,0,0,0,0,0,0,0,0,0,0,0,0,0,0,0,0,0,0,0,0,0,0,0,0,0,0,0,0,0,0,0,0,0,0,0,0,0,0,0,0,0,0,0,0,0,0,0,
0,0,0,0,0,0,0,0,0,0,0,0,0,0,0,0,0,0,0,0,0,0,0,0,0,0,0,0,0,0,0,0,0,0,0,0,0,0,0,0,0,0,0,0,0,0,0,0,0,0,0,0,0,0,0,0,0,0,0,0,0,0,0,0,0,0,0,0,0,0,0,0,0,0,0,0,0,0,0,0,0,0,0,0,0,0,0,0,0,0,0,0,0,0,0,0,0,0,0,0,0,0,0,0,0,0,0,0,0,0,0,0,0,0,0,0,0,0,0,0,0,0,0,0,0,0,0,0,0,0,0,0,0,0,0,0,0,0,0,0,0,0,0,0,0,0,0,0,0,0,0,0,0,0,0,0,0,0,0,0,0,0,0,0,0,0,0,0,0,0,0,0,0,0,0,0,0,0,0,0,0,0,0,0,0,0,0,0,0,0,0,0,0,0,0,0,0,0,0,0,
0,0,0,0,0,0,0,0,0,0,0,0,0,0,0,0,0,0,0,0,0,0,0,0,0,0,0,0,0,0,0,0,0,0,0,0,0,0,0,0,0,0,0,0,0,0,0,0,0,0,0,0,0,0,0,0,0,0,0,0,0,0,0,0,0,0,0,0,0,0,0,0,0,0,0,0,0,0,0,0,0,0,0,0,0,0,0,0,0,0,0,0,0,0,0,0,0,0,0,0,0,0,0,0,0,0,0,0,0,0,0,0,0,0,0,0,0,0,0,0,0,0,0,0,0,0,0,0,0,0,0,0,0,0,0,0,0,0,0,0,0,0,0,0,0,0,0,0,0,0,0,0,0,0,0,0,0,0,0,0,0,0,0,0,0,0,0,0,0,0,0,0,0,0,0,0,0,0,0,0,0,0,0,0,0,0,0,0,0,0,0,0,0,0,0,0,0,0,0,0,
0,0,0,0,0,0,0,0,0,0,0,0,0,0,0,0,0,0,0,0,0,0,0,0,0,0,0,0,0,0,0,0,0,0,0,0,0,0,0,0,0,0,0,0,0,0,0,0,0,0,0,0,0,0,0,0,0,0,0,0,0,0,0,0,0,0,0,0,0,0,0,0,0,0,0,0,0,0,0,0,0,0,0,0,0,0,0,0,0,0,0,0,0,0,0,0,0,0,0,0,0,0,0,0,0,0,0,0,0,0,0,0,0,0,0,0,0,0,0,0,0,0,0,0,0,0,0,0,0,0,0,0,0,0,0,0,0,0,0,0,0,0,0,0,0,0,0,0,0,0,0,0,0,0,0,0,0,0,0,0,0,0,0,0,0,0,0,0,0,0,0,0,0,0,0,0,0,0,0,0,0,0,0,0,0,0,0,0,0,0,0,0,0,0,0,0,0,0,0,0,
0,0,0,0,0,0,0,0,0,0,0,0,0,0,0,0,0,0,0,0,0,0,0,0,0,0,0,0,0,0,0,0,0,0,0,0,0,0,0,0,0,0,0,0,0,0,0,0,0,0,0,0,0,0,0,0,0,0,0,0,0,0,0,0,0,0,0,0,0,0,0,0,0,0,0,0,0,0,0,0,0,0,0,0,0,0,0,0,0,0,0,0,0,0,0,0,0,0,0,0,0,0,0,0,0,0,0,0,0,0,0,0,0,0,0,0,0,0,0,0,0,0,0,0,0,0,0,0,0,0,0,0,0,0,0,0,0,0,0,0,0,0,0,0,0,0,0,0,0,0,0,0,0,0,0,0,0,0,0,0,0,0,0,0,0,0,0,0,0,0,0,0,0,0,0,0,0,0,0,0,0,0,0,0,0,0,0,0,0,0,0,0,0,0,0,0,0,0,0,0,
0,0,0,0,0,0,0,0,0,0,0,0,0,0,0,0,0,0,0,0,0,0,0,0,0,0,0,0,0,0,0,0,0,0,0,0,0,0,0,0,0,0,0,0,0,0,0,0,0,0,0,0,0,0,0,0,0,0,0,0,0,0,0,0,0,0,0,0,0,0,0,0,0,0,0,0,0,0,0,0,0,0,0,0,0,0,0,0,0,0,0,0,0,0,0,0,0,0,0,0,0,0,0,0,0,0,0,0,0,0,0,0,0,0,0,0,0,0,0,0,0,0,0,0,0,0,0,0,0,0,0,0,0,0,0,0,0,0,0,0,0,0,0,0,0,0,0,0,0,0,0,0,0,0,0,0,0,0,0,0,0,0,0,0,0,0,0,0,0,0,0,0,0,0,0,0,0,0,0,0,0,0,0,0,0,0,0,0,0,0,0,0,0,0,0,0,0,0,0,0,
0,0,0,0,0,0,0,0,0,0,0,0,0,0,0,0,0,0,0,0,0,0,0,0,0,0,0,0,0,0,0,0,0,0,0,0,0,0,0,0,0,0,0,0,0,0,0,0,0,0,0,0,0,0,0,0,0,0,0,0,0,0,0,0,0,0,0,0,0,0,0,0,0,0,0,0,0,0,0,0,0,0,0,0,0,0,0,0,0,0,0,0,0,0,0,0,0,0,0,0,0,0,0,0,0,0,0,0,0,0,0,0,0,0,0,0,0,0,0,0,0,0,0,0,0,0,0,0,0,0,0,0,0,0,0,0,0,0,0,0,0,0,0,0,0,0,0,0,0,0,0,0,0,0,0,0,0,0,0,0,0,0,0,0,0,0,0,0,0,0,0,0,0,0,0,0,0,0,0,0,0,0,0,0,0,0,0,0,0,0,0,0,0,0,0,0,0,0,0,0,
0,0,0,0,0,0,0,0,0,0,0,0,0,0,0,0,0,0,0,0,0,0,0,0,0,0,0,0,0,0,0,0,0,0,0,0,0,0,0,0,0,0,0,0,0,0,0,0,0,0,0,0,0,0,0,0,0,0,0,0,0,0,0,0,0,0,0,0,0,0,0,0,0,0,0,0,0,0,0,0,0,0,0,0,0,0,0,0,0,0,0,0,0,0,0,0,0,0,0,0,0,0,0,0,0,0,0,0,0,0,0,0,0,0,0,0,0,0,0,0,0,0,0,0,0,0,0,0,0,0,0,0,0,0,0,0,0,0,0,0,0,0,0,0,0,0,0,0,0,0,0,0,0,0,0,0,0,0,0,0,0,0,0,0,0,0,0,0,0,0,0,0,0,0,0,0,0,0,0,0,0,0,0,0,0,0,0,0,0,0,0,0,0,0,0,0,0,0,0,0,
0,0,0,0,0,0,0,0,0,0,0,0,0,0,0,0,0,0,0,0,0,0,0,0,0,0,0,0,0,0,0,0,0,0,0,0,0,0,0,0,0,0,0,0,0,0,0,0,0,0,0,0,0,0,0,0,0,0,0,0,0,0,0,0,0,0,0,0,0,0,0,0,0,0,0,0,0,0,0,0,0,0,0,0,0,0,0,0,0,0,0,0,0,0,0,0,0,0,0,0,0,0,0,0,0,0,0,0,0,0,0,0,0,0,0,0,0,0,0,0,0,0,0,0,0,0,0,0,0,0,0,0,0,0,0,0,0,0,0,0,0,0,0,0,0,0,0,0,0,0,0,0,0,0,0,0,0,0,0,0,0,0,0,0,0,0,0,0,0,0,0,0,0,0,0,0,0,0,0,0,0,0,0,0,0,0,0,0,0,0,0,0,0,0,0,0,0,0,0,0,
0,0,0,0,0,0,0,0,0,0,0,0,0,0,0,0,0,0,0,0,0,0,0,0,0,0,0,0,0,0,0,0,0,0,0,0,0,0,0,0,0,0,0,0,0,0,0,0,0,0,0,0,0,0,0,0,0,0,0,0,0,0,0,0,0,0,0,0,0,0,0,0,0,0,0,0,0,0,0,0,0,0,0,0,0,0,0,0,0,0,0,0,0,0,0,0,0,0,0,0,0,0,0,0,0,0,0,0,0,0,0,0,0,0,0,0,0,0,0,0,0,0,0,0,0,0,0,0,0,0,0,0,0,0,0,0,0,0,0,0,0,0,0,0,0,0,0,0,0,0,0,0,0,0,0,0,0,0,0,0,0,0,0,0,0,0,0,0,0,0,0,0,0,0,0,0,0,0,0,0,0,0,0,0,0,0,0,0,0,0,0,0,0,0,0,0,0,0,0,0,
0,0,0,0,0,0,0,0,0,0,0,0,0,0,0,0,0,0,0,0,0,0,0,0,0,0,0,0,0,0,0,0,0,0,0,0,0,0,0,0,0,0,0,0,0,0,0,0,0,0,0,0,0,0,0,0,0,0,0,0,0,0,0,0,0,0,0,0,0,0,0,0,0,0,0,0,0,0,0,0,0,0,0,0,0,0,0,0,0,0,0,0,0,0,0,0,0,0,0,0,0,0,0,0,0,0,0,0,0,0,0,0,0,0,0,0,0,0,0,0,0,0,0,0,0,0,0,0,0,0,0,0,0,0,0,0,0,0,0,0,0,0,0,0,0,0,0,0,0,0,0,0,0,0,0,0,0,0,0,0,0,0,0,0,0,0,0,0,0,0,0,0,0,0,0,0,0,0,0,0,0,0,0,0,0,0,0,0,0,0,0,0,0,0,0,0,0,0,0,0,
0,0,0,0,0,0,0,0,0,0,0,0,0,0,0,0,0,0,0,0,0,0,0,0,0,0,0,0,0,0,0,0,0,0,0,0,0,0,0,0,0,0,0,0,0,0,0,0,0,0,0,0,0,0,0,0,0,0,0,0,0,0,0,0,0,0,0,0,0,0,0,0,0,0,0,0,0,0,0,0,0,0,0,0,0,0,0,0,0,0,0,0,0,0,0,0,0,0,0,0,0,0,0,0,0,0,0,0,0,0,0,0,0,0,0,0,0,0,0,0,0,0,0,0,0,0,0,0,0,0,0,0,0,0,0,0,0,0,0,0,0,0,0,0,0,0,0,0,0,0,0,0,0,0,0,0,0,0,0,0,0,0,0,0,0,0,0,0,0,0,0,0,0,0,0,0,0,0,0,0,0,0,0,0,0,0,0,0,0,0,0,0,0,0,0,0,0,0,0,0,
0,0,0,0,0,0,0,0,0,0,0,0,0,0,0,0,0,0,0,0,0,0,0,0,0,0,0,0,0,0,0,0,0,0,0,0,0,0,0,0,0,0,0,0,0,0,0,0,0,0,0,0,0,0,0,0,0,0,0,0,0,0,0,0,0,0,0,0,0,0,0,0,0,0,0,0,0,0,0,0,0,0,0,0,0,0,0,0,0,0,0,0,0,0,0,0,0,0,0,0,0,0,0,0,0,0,0,0,0,0,0,0,0,0,0,0,0,0,0,0,0,0,0,0,0,0,0,0,0,0,0,0,0,0,0,0,0,0,0,0,0,0,0,0,0,0,0,0,0,0,0,0,0,0,0,0,0,0,0,0,0,0,0,0,0,0,0,0,0,0,0,0,0,0,0,0,0,0,0,0,0,0,0,0,0,0,0,0,0,0,0,0,0,0,0,0,0,0,0,0,
0,0,0,0,0,0,0,0,0,0,0,0,0,0,0,0,0,0,0,0,0,0,0,0,0,0,0,0,0,0,0,0,0,0,0,0,0,0,0,0,0,0,0,0,0,0,0,0,0,0,0,0,0,0,0,0,0,0,0,0,0,0,0,0,0,0,0,0,0,0,0,0,0,0,0,0,0,0,0,0,0,0,0,0,0,0,0,0,0,0,0,0,0,0,0,0,0,0,0,0,0,0,0,0,0,0,0,0,0,0,0,0,0,0,0,0,0,0,0,0,0,0,0,0,0,0,0,0,0,0,0,0,0,0,0,0,0,0,0,0,0,0,0,0,0,0,0,0,0,0,0,0,0,0,0,0,0,0,0,0,0,0,0,0,0,0,0,0,0,0,0,0,0,0,0,0,0,0,0,0,0,0,0,0,0,0,0,0,0,0,0,0,0,0,0,0,0,0,0,0,
0,0,0,0,0,0,0,0,0,0,0,0,0,0,0,0,0,0,0,0,0,0,0,0,0,0,0,0,0,0,0,0,0,0,0,0,0,0,0,0,0,0,0,0,0,0,0,0,0,0,0,0,0,0,0,0,0,0,0,0,0,0,0,0,0,0,0,0,0,0,0,0,0,0,0,0,0,0,0,0,0,0,0,0,0,0,0,0,0,0,0,0,0,0,0,0,0,0,0,0,0,0,0,0,0,0,0,0,0,0,0,0,0,0,0,0,0,0,0,0,0,0,0,0,0,0,0,0,0,0,0,0,0,0,0,0,0,0,0,0,0,0,0,0,0,0,0,0,0,0,0,0,0,0,0,0,0,0,0,0,0,0,0,0,0,0,0,0,0,0,0,0,0,0,0,0,0,0,0,0,0,0,0,0,0,0,0,0,0,0,0,0,0,0,0,0,0,0,0,0,
0,0,0,0,0,0,0,0,0,0,0,0,0,0,0,0,0,0,0,0,0,0,0,0,0,0,0,0,0,0,0,0,0,0,0,0,0,0,0,0,0,0,0,0,0,0,0,0,0,0,0,0,0,0,0,0,0,0,0,0,0,0,0,0,0,0,0,0,0,0,0,0,0,0,0,0,0,0,0,0,0,0,0,0,0,0,0,0,0,0,0,0,0,0,0,0,0,0,0,0,0,0,0,0,0,0,0,0,0,0,0,0,0,0,0,0,0,0,0,0,0,0,0,0,0,0,0,0,0,0,0,0,0,0,0,0,0,0,0,0,0,0,0,0,0,0,0,0,0,0,0,0,0,0,0,0,0,0,0,0,0,0,0,0,0,0,0,0,0,0,0,0,0,0,0,0,0,0,0,0,0,0,0,0,0,0,0,0,0,0,0,0,0,0,0,0,0,0,0,0,
0,0,0,0,0,0,0,0,0,0,0,0,0,0,0,0,0,0,0,0,0,0,0,0,0,0,0,0,0,0,0,0,0,0,0,0,0,0,0,0,0,0,0,0,0,0,0,0,0,0,0,0,0,0,0,0,0,0,0,0,0,0,0,0,0,0,0,0,0,0,0,0,0,0,0,0,0,0,0,0,0,0,0,0,0,0,0,0,0,0,0,0,0,0,0,0,0,0,0,0,0,0,0,0,0,0,0,0,0,0,0,0,0,0,0,0,0,0,0,0,0,0,0,0,0,0,0,0,0,0,0,0,0,0,0,0,0,0,0,0,0,0,0,0,0,0,0,0,0,0,0,0,0,0,0,0,0,0,0,0,0,0,0,0,0,0,0,0,0,0,0,0,0,0,0,0,0,0,0,0,0,0,0,0,0,0,0,0,0,0,0,0,0,0,0,0,0,0,0,0,
0,0,0,0,0,0,0,0,0,0,0,0,0,0,0,0,0,0,0,0,0,0,0,0,0,0,0,0,0,0,0,0,0,0,0,0,0,0,0,0,0,0,0,0,0,0,0,0,0,0,0,0,0,0,0,0,0,0,0,0,0,0,0,0,0,0,0,0,0,0,0,0,0,0,0,0,0,0,0,0,0,0,0,0,0,0,0,0,0,0,0,0,0,0,0,0,0,0,0,0,0,0,0,0,0,0,0,0,0,0,0,0,0,0,0,0,0,0,0,0,0,0,0,0,0,0,0,0,0,0,0,0,0,0,0,0,0,0,0,0,0,0,0,0,0,0,0,0,0,0,0,0,0,0,0,0,0,0,0,0,0,0,0,0,0,0,0,0,0,0,0,0,0,0,0,0,0,0,0,0,0,0,0,0,0,0,0,0,0,0,0,0,0,0,0,0,0,0,0,0,
0,0,0,0,0,0,0,0,0,0,0,0,0,0,0,0,0,0,0,0,0,0,0,0,0,0,0,0,0,0,0,0,0,0,0,0,0,0,0,0,0,0,0,0,0,0,0,0,0,0,0,0,0,0,0,0,0,0,0,0,0,0,0,0,0,0,0,0,0,0,0,0,0,0,0,0,0,0,0,0,0,0,0,0,0,0,0,0,0,0,0,0,0,0,0,0,0,0,0,0,0,0,0,0,0,0,0,0,0,0,0,0,0,0,0,0,0,0,0,0,0,0,0,0,0,0,0,0,0,0,0,0,0,0,0,0,0,0,0,0,0,0,0,0,0,0,0,0,0,0,0,0,0,0,0,0,0,0,0,0,0,0,0,0,0,0,0,0,0,0,0,0,0,0,0,0,0,0,0,0,0,0,0,0,0,0,0,0,0,0,0,0,0,0,0,0,0,0,0,0,
0,0,0,0,0,0,0,0,0,0,0,0,0,0,0,0,0,0,0,0,0,0,0,0,0,0,0,0,0,0,0,0,0,0,0,0,0,0,0,0,0,0,0,0,0,0,0,0,0,0,0,0,0,0,0,0,0,0,0,0,0,0,0,0,0,0,0,0,0,0,0,0,0,0,0,0,0,0,0,0,0,0,0,0,0,0,0,0,0,0,0,0,0,0,0,0,0,0,0,0,0,0,0,0,0,0,0,0,0,0,0,0,0,0,0,0,0,0,0,0,0,0,0,0,0,0,0,0,0,0,0,0,0,0,0,0,0,0,0,0,0,0,0,0,0,0,0,0,0,0,0,0,0,0,0,0,0,0,0,0,0,0,0,0,0,0,0,0,0,0,0,0,0,0,0,0,0,0,0,0,0,0,0,0,0,0,0,0,0,0,0,0,0,0,0,0,0,0,0,0,
0,0,0,0,0,0,0,0,0,0,0,0,0,0,0,0,0,0,0,0,0,0,0,0,0,0,0,0,0,0,0,0,0,0,0,0,0,0,0,0,0,0,0,0,0,0,0,0,0,0,0,0,0,0,0,0,0,0,0,0,0,0,0,0,0,0,0,0,0,0,0,0,0,0,0,0,0,0,0,0,0,0,0,0,0,0,0,0,0,0,0,0,0,0,0,0,0,0,0,0,0,0,0,0,0,0,0,0,0,0,0,0,0,0,0,0,0,0,0,0,0,0,0,0,0,0,0,0,0,0,0,0,0,0,0,0,0,0,0,0,0,0,0,0,0,0,0,0,0,0,0,0,0,0,0,0,0,0,0,0,0,0,0,0,0,0,0,0,0,0,0,0,0,0,0,0,0,0,0,0,0,0,0,0,0,0,0,0,0,0,0,0,0,0,0,0,0,0,0,0,
0,0,0,0,0,0,0,0,0,0,0,0,0,0,0,0,0,0,0,0,0,0,0,0,0,0,0,0,0,0,0,0,0,0,0,0,0,0,0,0,0,0,0,0,0,0,0,0,0,0,0,0,0,0,0,0,0,0,0,0,0,0,0,0,0,0,0,0,0,0,0,0,0,0,0,0,0,0,0,0,0,0,0,0,0,0,0,0,0,0,0,0,0,0,0,0,0,0,0,0,0,0,0,0,0,0,0,0,0,0,0,0,0,0,0,0,0,0,0,0,0,0,0,0,0,0,0,0,0,0,0,0,0,0,0,0,0,0,0,0,0,0,0,0,0,0,0,0,0,0,0,0,0,0,0,0,0,0,0,0,0,0,0,0,0,0,0,0,0,0,0,0,0,0,0,0,0,0,0,0,0,0,0,0,0,0,0,0,0,0,0,0,0,0,0,0,0,0,0,0,
0,0,0,0,0,0,0,0,0,0,0,0,0,0,0,0,0,0,0,0,0,0,0,0,0,0,0,0,0,0,0,0,0,0,0,0,0,0,0,0,0,0,0,0,0,0,0,0,0,0,0,0,0,0,0,0,0,0,0,0,0,0,0,0,0,0,0,0,0,0,0,0,0,0,0,0,0,0,0,0,0,0,0,0,0,0,0,0,0,0,0,0,0,0,0,0,0,0,0,0,0,0,0,0,0,0,0,0,0,0,0,0,0,0,0,0,0,0,0,0,0,0,0,0,0,0,0,0,0,0,0,0,0,0,0,0,0,0,0,0,0,0,0,0,0,0,0,0,0,0,0,0,0,0,0,0,0,0,0,0,0,0,0,0,0,0,0,0,0,0,0,0,0,0,0,0,0,0,0,0,0,0,0,0,0,0,0,0,0,0,0,0,0,0,0,0,0,0,0,0,
0,0,0,0,0,0,0,0,0,0,0,0,0,0,0,0,0,0,0,0,0,0,0,0,0,0,0,0,0,0,0,0,0,0,0,0,0,0,0,0,0,0,0,0,0,0,0,0,0,0,0,0,0,0,0,0,0,0,0,0,0,0,0,0,0,0,0,0,0,0,0,0,0,0,0,0,0,0,0,0,0,0,0,0,0,0,0,0,0,0,0,0,0,0,0,0,0,0,0,0,0,0,0,0,0,0,0,0,0,0,0,0,0,0,0,0,0,0,0,0,0,0,0,0,0,0,0,0,0,0,0,0,0,0,0,0,0,0,0,0,0,0,0,0,0,0,0,0,0,0,0,0,0,0,0,0,0,0,0,0,0,0,0,0,0,0,0,0,0,0,0,0,0,0,0,0,0,0,0,0,0,0,0,0,0,0,0,0,0,0,0,0,0,0,0,0,0,0,0,0,
0,0,0,0,0,0,0,0,0,0,0,0,0,0,0,0,0,0,0,0,0,0,0,0,0,0,0,0,0,0,0,0,0,0,0,0,0,0,0,0,0,0,0,0,0,0,0,0,0,0,0,0,0,0,0,0,0,0,0,0,0,0,0,0,0,0,0,0,0,0,0,0,0,0,0,0,0,0,0,0,0,0,0,0,0,0,0,0,0,0,0,0,0,0,0,0,0,0,0,0,0,0,0,0,0,0,0,0,0,0,0,0,0,0,0,0,0,0,0,0,0,0,0,0,0,0,0,0,0,0,0,0,0,0,0,0,0,0,0,0,0,0,0,0,0,0,0,0,0,0,0,0,0,0,0,0,0,0,0,0,0,0,0,0,0,0,0,0,0,0,0,0,0,0,0,0,0,0,0,0,0,0,0,0,0,0,0,0,0,0,0,0,0,0,0,0,0,0,0,0,
0,0,0,0,0,0,0,0,0,0,0,0,0,0,0,0,0,0,0,0,0,0,0,0,0,0,0,0,0,0,0,0,0,0,0,0,0,0,0,0,0,0,0,0,0,0,0,0,0,0,0,0,0,0,0,0,0,0,0,0,0,0,0,0,0,0,0,0,0,0,0,0,0,0,0,0,0,0,0,0,0,0,0,0,0,0,0,0,0,0,0,0,0,0,0,0,0,0,0,0,0,0,0,0,0,0,0,0,0,0,0,0,0,0,0,0,0,0,0,0,0,0,0,0,0,0,0,0,0,0,0,0,0,0,0,0,0,0,0,0,0,0,0,0,0,0,0,0,0,0,0,0,0,0,0,0,0,0,0,0,0,0,0,0,0,0,0,0,0,0,0,0,0,0,0,0,0,0,0,0,0,0,0,0,0,0,0,0,0,0,0,0,0,0,0,0,0,0,0,0,
0,0,0,0,0,0,0,0,0,0,0,0,0,0,0,0,0,0,0,0,0,0,0,0,0,0,0,0,0,0,0,0,0,0,0,0,0,0,0,0,0,0,0,0,0,0,0,0,0,0,0,0,0,0,0,0,0,0,0,0,0,0,0,0,0,0,0,0,0,0,0,0,0,0,0,0,0,0,0,0,0,0,0,0,0,0,0,0,0,0,0,0,0,0,0,0,0,0,0,0,0,0,0,0,0,0,0,0,0,0,0,0,0,0,0,0,0,0,0,0,0,0,0,0,0,0,0,0,0,0,0,0,0,0,0,0,0,0,0,0,0,0,0,0,0,0,0,0,0,0,0,0,0,0,0,0,0,0,0,0,0,0,0,0,0,0,0,0,0,0,0,0,0,0,0,0,0,0,0,0,0,0,0,0,0,0,0,0,0,0,0,0,0,0,0,0,0,0,0,0,
0,0,0,0,0,0,0,0,0,0,0,0,0,0,0,0,0,0,0,0,0,0,0,0,0,0,0,0,0,0,0,0,0,0,0,0,0,0,0,0,0,0,0,0,0,0,0,0,0,0,0,0,0,0,0,0,0,0,0,0,0,0,0,0,0,0,0,0,0,0,0,0,0,0,0,0,0,0,0,0,0,0,0,0,0,0,0,0,0,0,0,0,0,0,0,0,0,0,0,0,0,0,0,0,0,0,0,0,0,0,0,0,0,0,0,0,0,0,0,0,0,0,0,0,0,0,0,0,0,0,0,0,0,0,0,0,0,0,0,0,0,0,0,0,0,0,0,0,0,0,0,0,0,0,0,0,0,0,0,0,0,0,0,0,0,0,0,0,0,0,0,0,0,0,0,0,0,0,0,0,0,0,0,0,0,0,0,0,0,0,0,0,0,0,0,0,0,0,0,0,
0,0,0,0,0,0,0,0,0,0,0,0,0,0,0,0,0,0,0,0,0,0,0,0,0,0,0,0,0,0,0,0,0,0,0,0,0,0,0,0,0,0,0,0,0,0,0,0,0,0,0,0,0,0,0,0,0,0,0,0,0,0,0,0,0,0,0,0,0,0,0,0,0,0,0,0,0,0,0,0,0,0,0,0,0,0,0,0,0,0,0,0,0,0,0,0,0,0,0,0,0,0,0,0,0,0,0,0,0,0,0,0,0,0,0,0,0,0,0,0,0,0,0,0,0,0,0,0,0,0,0,0,0,0,0,0,0,0,0,0,0,0,0,0,0,0,0,0,0,0,0,0,0,0,0,0,0,0,0,0,0,0,0,0,0,0,0,0,0,0,0,0,0,0,0,0,0,0,0,0,0,0,0,0,0,0,0,0,0,0,0,0,0,0,0,0,0,0,0,0,
0,0,0,0,0,0,0,0,0,0,0,0,0,0,0,0,0,0,0,0,0,0,0,0,0,0,0,0,0,0,0,0,0,0,0,0,0,0,0,0,0,0,0,0,0,0,0,0,0,0,0,0,0,0,0,0,0,0,0,0,0,0,0,0,0,0,0,0,0,0,0,0,0,0,0,0,0,0,0,0,0,0,0,0,0,0,0,0,0,0,0,0,0,0,0,0,0,0,0,0,0,0,0,0,0,0,0,0,0,0,0,0,0,0,0,0,0,0,0,0,0,0,0,0,0,0,0,0,0,0,0,0,0,0,0,0,0,0,0,0,0,0,0,0,0,0,0,0,0,0,0,0,0,0,0,0,0,0,0,0,0,0,0,0,0,0,0,0,0,0,0,0,0,0,0,0,0,0,0,0,0,0,0,0,0,0,0,0,0,0,0,0,0,0,0,0,0,0,0,0,
0,0,0,0,0,0,0,0,0,0,0,0,0,0,0,0,0,0,0,0,0,0,0,0,0,0,0,0,0,0,0,0,0,0,0,0,0,0,0,0,0,0,0,0,0,0,0,0,0,0,0,0,0,0,0,0,0,0,0,0,0,0,0,0,0,0,0,0,0,0,0,0,0,0,0,0,0,0,0,0,0,0,0,0,0,0,0,0,0,0,0,0,0,0,0,0,0,0,0,0,0,0,0,0,0,0,0,0,0,0,0,0,0,0,0,0,0,0,0,0,0,0,0,0,0,0,0,0,0,0,0,0,0,0,0,0,0,0,0,0,0,0,0,0,0,0,0,0,0,0,0,0,0,0,0,0,0,0,0,0,0,0,0,0,0,0,0,0,0,0,0,0,0,0,0,0,0,0,0,0,0,0,0,0,0,0,0,0,0,0,0,0,0,0,0,0,0,0,0,0,
0,0,0,0,0,0,0,0,0,0,0,0,0,0,0,0,0,0,0,0,0,0,0,0,0,0,0,0,0,0,0,0,0,0,0,0,0,0,0,0,0,0,0,0,0,0,0,0,0,0,0,0,0,0,0,0,0,0,0,0,0,0,0,0,0,0,0,0,0,0,0,0,0,0,0,0,0,0,0,0,0,0,0,0,0,0,0,0,0,0,0,0,0,0,0,0,0,0,0,0,0,0,0,0,0,0,0,0,0,0,0,0,0,0,0,0,0,0,0,0,0,0,0,0,0,0,0,0,0,0,0,0,0,0,0,0,0,0,0,0,0,0,0,0,0,0,0,0,0,0,0,0,0,0,0,0,0,0,0,0,0,0,0,0,0,0,0,0,0,0,0,0,0,0,0,0,0,0,0,0,0,0,0,0,0,0,0,0,0,0,0,0,0,0,0,0,0,0,0,0,
0,0,0,0,0,0,0,0,0,0,0,0,0,0,0,0,0,0,0,0,0,0,0,0,0,0,0,0,0,0,0,0,0,0,0,0,0,0,0,0,0,0,0,0,0,0,0,0,0,0,0,0,0,0,0,0,0,0,0,0,0,0,0,0,0,0,0,0,0,0,0,0,0,0,0,0,0,0,0,0,0,0,0,0,0,0,0,0,0,0,0,0,0,0,0,0,0,0,0,0,0,0,0,0,0,0,0,0,0,0,0,0,0,0,0,0,0,0,0,0,0,0,0,0,0,0,0,0,0,0,0,0,0,0,0,0,0,0,0,0,0,0,0,0,0,0,0,0,0,0,0,0,0,0,0,0,0,0,0,0,0,0,0,0,0,0,0,0,0,0,0,0,0,0,0,0,0,0,0,0,0,0,0,0,0,0,0,0,0,0,0,0,0,0,0,0,0,0,0,0,
0,0,0,0,0,0,0,0,0,0,0,0,0,0,0,0,0,0,0,0,0,0,0,0,0,0,0,0,0,0,0,0,0,0,0,0,0,0,0,0,0,0,0,0,0,0,0,0,0,0,0,0,0,0,0,0,0,0,0,0,0,0,0,0,0,0,0,0,0,0,0,0,0,0,0,0,0,0,0,0,0,0,0,0,0,0,0,0,0,0,0,0,0,0,0,0,0,0,0,0,0,0,0,0,0,0,0,0,0,0,0,0,0,0,0,0,0,0,0,0,0,0,0,0,0,0,0,0,0,0,0,0,0,0,0,0,0,0,0,0,0,0,0,0,0,0,0,0,0,0,0,0,0,0,0,0,0,0,0,0,0,0,0,0,0,0,0,0,0,0,0,0,0,0,0,0,0,0,0,0,0,0,0,0,0,0,0,0,0,0,0,0,0,0,0,0,0,0,0,0,
0,0,0,0,0,0,0,0,0,0,0,0,0,0,0,0,0,0,0,0,0,0,0,0,0,0,0,0,0,0,0,0,0,0,0,0,0,0,0,0,0,0,0,0,0,0,0,0,0,0,0,0,0,0,0,0,0,0,0,0,0,0,0,0,0,0,0,0,0,0,0,0,0,0,0,0,0,0,0,0,0,0,0,0,0,0,0,0,0,0,0,0,0,0,0,0,0,0,0,0,0,0,0,0,0,0,0,0,0,0,0,0,0,0,0,0,0,0,0,0,0,0,0,0,0,0,0,0,0,0,0,0,0,0,0,0,0,0,0,0,0,0,0,0,0,0,0,0,0,0,0,0,0,0,0,0,0,0,0,0,0,0,0,0,0,0,0,0,0,0,0,0,0,0,0,0,0,0,0,0,0,0,0,0,0,0,0,0,0,0,0,0,0,0,0,0,0,0,0,0,
0,0,0,0,0,0,0,0,0,0,0,0,0,0,0,0,0,0,0,0,0,0,0,0,0,0,0,0,0,0,0,0,0,0,0,0,0,0,0,0,0,0,0,0,0,0,0,0,0,0,0,0,0,0,0,0,0,0,0,0,0,0,0,0,0,0,0,0,0,0,0,0,0,0,0,0,0,0,0,0,0,0,0,0,0,0,0,0,0,0,0,0,0,0,0,0,0,0,0,0,0,0,0,0,0,0,0,0,0,0,0,0,0,0,0,0,0,0,0,0,0,0,0,0,0,0,0,0,0,0,0,0,0,0,0,0,0,0,0,0,0,0,0,0,0,0,0,0,0,0,0,0,0,0,0,0,0,0,0,0,0,0,0,0,0,0,0,0,0,0,0,0,0,0,0,0,0,0,0,0,0,0,0,0,0,0,0,0,0,0,0,0,0,0,0,0,0,0,0,0,
0,0,0,0,0,0,0,0,0,0,0,0,0,0,0,0,0,0,0,0,0,0,0,0,0,0,0,0,0,0,0,0,0,0,0,0,0,0,0,0,0,0,0,0,0,0,0,0,0,0,0,0,0,0,0,0,0,0,0,0,0,0,0,0,0,0,0,0,0,0,0,0,0,0,0,0,0,0,0,0,0,0,0,0,0,0,0,0,0,0,0,0,0,0,0,0,0,0,0,0,0,0,0,0,0,0,0,0,0,0,0,0,0,0,0,0,0,0,0,0,0,0,0,0,0,0,0,0,0,0,0,0,0,0,0,0,0,0,0,0,0,0,0,0,0,0,0,0,0,0,0,0,0,0,0,0,0,0,0,0,0,0,0,0,0,0,0,0,0,0,0,0,0,0,0,0,0,0,0,0,0,0,0,0,0,0,0,0,0,0,0,0,0,0,0,0,0,0,0,0,
0,0,0,0,0,0,0,0,0,0,0,0,0,0,0,0,0,0,0,0,0,0,0,0,0,0,0,0,0,0,0,0,0,0,0,0,0,0,0,0,0,0,0,0,0,0,0,0,0,0,0,0,0,0,0,0,0,0,0,0,0,0,0,0,0,0,0,0,0,0,0,0,0,0,0,0,0,0,0,0,0,0,0,0,0,0,0,0,0,0,0,0,0,0,0,0,0,0,0,0,0,0,0,0,0,0,0,0,0,0,0,0,0,0,0,0,0,0,0,0,0,0,0,0,0,0,0,0,0,0,0,0,0,0,0,0,0,0,0,0,0,0,0,0,0,0,0,0,0,0,0,0,0,0,0,0,0,0,0,0,0,0,0,0,0,0,0,0,0,0,0,0,0,0,0,0,0,0,0,0,0,0,0,0,0,0,0,0,0,0,0,0,0,0,0,0,0,0,0,0,
0,0,0,0,0,0,0,0,0,0,0,0,0,0,0,0,0,0,0,0,0,0,0,0,0,0,0,0,0,0,0,0,0,0,0,0,0,0,0,0,0,0,0,0,0,0,0,0,0,0,0,0,0,0,0,0,0,0,0,0,0,0,0,0,0,0,0,0,0,0,0,0,0,0,0,0,0,0,0,0,0,0,0,0,0,0,0,0,0,0,0,0,0,0,0,0,0,0,0,0,0,0,0,0,0,0,0,0,0,0,0,0,0,0,0,0,0,0,0,0,0,0,0,0,0,0,0,0,0,0,0,0,0,0,0,0,0,0,0,0,0,0,0,0,0,0,0,0,0,0,0,0,0,0,0,0,0,0,0,0,0,0,0,0,0,0,0,0,0,0,0,0,0,0,0,0,0,0,0,0,0,0,0,0,0,0,0,0,0,0,0,0,0,0,0,0,0,0,0,0,
0,0,0,0,0,0,0,0,0,0,0,0,0,0,0,0,0,0,0,0,0,0,0,0,0,0,0,0,0,0,0,0,0,0,0,0,0,0,0,0,0,0,0,0,0,0,0,0,0,0,0,0,0,0,0,0,0,0,0,0,0,0,0,0,0,0,0,0,0,0,0,0,0,0,0,0,0,0,0,0,0,0,0,0,0,0,0,0,0,0,0,0,0,0,0,0,0,0,0,0,0,0,0,0,0,0,0,0,0,0,0,0,0,0,0,0,0,0,0,0,0,0,0,0,0,0,0,0,0,0,0,0,0,0,0,0,0,0,0,0,0,0,0,0,0,0,0,0,0,0,0,0,0,0,0,0,0,0,0,0,0,0,0,0,0,0,0,0,0,0,0,0,0,0,0,0,0,0,0,0,0,0,0,0,0,0,0,0,0,0,0,0,0,0,0,0,0,0,0,0,
0,0,0,0,0,0,0,0,0,0,0,0,0,0,0,0,0,0,0,0,0,0,0,0,0,0,0,0,0,0,0,0,0,0,0,0,0,0,0,0,0,0,0,0,0,0,0,0,0,0,0,0,0,0,0,0,0,0,0,0,0,0,0,0,0,0,0,0,0,0,0,0,0,0,0,0,0,0,0,0,0,0,0,0,0,0,0,0,0,0,0,0,0,0,0,0,0,0,0,0,0,0,0,0,0,0,0,0,0,0,0,0,0,0,0,0,0,0,0,0,0,0,0,0,0,0,0,0,0,0,0,0,0,0,0,0,0,0,0,0,0,0,0,0,0,0,0,0,0,0,0,0,0,0,0,0,0,0,0,0,0,0,0,0,0,0,0,0,0,0,0,0,0,0,0,0,0,0,0,0,0,0,0,0,0,0,0,0,0,0,0,0,0,0,0,0,0,0,0,0,
0,0,0,0,0,0,0,0,0,0,0,0,0,0,0,0,0,0,0,0,0,0,0,0,0,0,0,0,0,0,0,0,0,0,0,0,0,0,0,0,0,0,0,0,0,0,0,0,0,0,0,0,0,0,0,0,0,0,0,0,0,0,0,0,0,0,0,0,0,0,0,0,0,0,0,0,0,0,0,0,0,0,0,0,0,0,0,0,0,0,0,0,0,0,0,0,0,0,0,0,0,0,0,0,0,0,0,0,0,0,0,0,0,0,0,0,0,0,0,0,0,0,0,0,0,0,0,0,0,0,0,0,0,0,0,0,0,0,0,0,0,0,0,0,0,0,0,0,0,0,0,0,0,0,0,0,0,0,0,0,0,0,0,0,0,0,0,0,0,0,0,0,0,0,0,0,0,0,0,0,0,0,0,0,0,0,0,0,0,0,0,0,0,0,0,0,0,0,0,0,
0,0,0,0,0,0,0,0,0,0,0,0,0,0,0,0,0,0,0,0,0,0,0,0,0,0,0,0,0,0,0,0,0,0,0,0,0,0,0,0,0,0,0,0,0,0,0,0,0,0,0,0,0,0,0,0,0,0,0,0,0,0,0,0,0,0,0,0,0,0,0,0,0,0,0,0,0,0,0,0,0,0,0,0,0,0,0,0,0,0,0,0,0,0,0,0,0,0,0,0,0,0,0,0,0,0,0,0,0,0,0,0,0,0,0,0,0,0,0,0,0,0,0,0,0,0,0,0,0,0,0,0,0,0,0,0,0,0,0,0,0,0,0,0,0,0,0,0,0,0,0,0,0,0,0,0,0,0,0,0,0,0,0,0,0,0,0,0,0,0,0,0,0,0,0,0,0,0,0,0,0,0,0,0,0,0,0,0,0,0,0,0,0,0,0,0,0,0,0,0,
0,0,0,0,0,0,0,0,0,0,0,0,0,0,0,0,0,0,0,0,0,0,0,0,0,0,0,0,0,0,0,0,0,0,0,0,0,0,0,0,0,0,0,0,0,0,0,0,0,0,0,0,0,0,0,0,0,0,0,0,0,0,0,0,0,0,0,0,0,0,0,0,0,0,0,0,0,0,0,0,0,0,0,0,0,0,0,0,0,0,0,0,0,0,0,0,0,0,0,0,0,0,0,0,0,0,0,0,0,0,0,0,0,0,0,0,0,0,0,0,0,0,0,0,0,0,0,0,0,0,0,0,0,0,0,0,0,0,0,0,0,0,0,0,0,0,0,0,0,0,0,0,0,0,0,0,0,0,0,0,0,0,0,0,0,0,0,0,0,0,0,0,0,0,0,0,0,0,0,0,0,0,0,0,0,0,0,0,0,0,0,0,0,0,0,0,0,0,0,0,
0,0,0,0,0,0,0,0,0,0,0,0,0,0,0,0,0,0,0,0,0,0,0,0,0,0,0,0,0,0,0,0,0,0,0,0,0,0,0,0,0,0,0,0,0,0,0,0,0,0,0,0,0,0,0,0,0,0,0,0,0,0,0,0,0,0,0,0,0,0,0,0,0,0,0,0,0,0,0,0,0,0,0,0,0,0,0,0,0,0,0,0,0,0,0,0,0,0,0,0,0,0,0,0,0,0,0,0,0,0,0,0,0,0,0,0,0,0,0,0,0,0,0,0,0,0,0,0,0,0,0,0,0,0,0,0,0,0,0,0,0,0,0,0,0,0,0,0,0,0,0,0,0,0,0,0,0,0,0,0,0,0,0,0,0,0,0,0,0,0,0,0,0,0,0,0,0,0,0,0,0,0,0,0,0,0,0,0,0,0,0,0,0,0,0,0,0,0,0,0,
0,0,0,0,0,0,0,0,0,0,0,0,0,0,0,0,0,0,0,0,0,0,0,0,0,0,0,0,0,0,0,0,0,0,0,0,0,0,0,0,0,0,0,0,0,0,0,0,0,0,0,0,0,0,0,0,0,0,0,0,0,0,0,0,0,0,0,0,0,0,0,0,0,0,0,0,0,0,0,0,0,0,0,0,0,0,0,0,0,0,0,0,0,0,0,0,0,0,0,0,0,0,0,0,0,0,0,0,0,0,0,0,0,0,0,0,0,0,0,0,0,0,0,0,0,0,0,0,0,0,0,0,0,0,0,0,0,0,0,0,0,0,0,0,0,0,0,0,0,0,0,0,0,0,0,0,0,0,0,0,0,0,0,0,0,0,0,0,0,0,0,0,0,0,0,0,0,0,0,0,0,0,0,0,0,0,0,0,0,0,0,0,0,0,0,0,0,0,0,0,
0,0,0,0,0,0,0,0,0,0,0,0,0,0,0,0,0,0,0,0,0,0,0,0,0,0,0,0,0,0,0,0,0,0,0,0,0,0,0,0,0,0,0,0,0,0,0,0,0,0,0,0,0,0,0,0,0,0,0,0,0,0,0,0,0,0,0,0,0,0,0,0,0,0,0,0,0,0,0,0,0,0,0,0,0,0,0,0,0,0,0,0,0,0,0,0,0,0,0,0,0,0,0,0,0,0,0,0,0,0,0,0,0,0,0,0,0,0,0,0,0,0,0,0,0,0,0,0,0,0,0,0,0,0,0,0,0,0,0,0,0,0,0,0,0,0,0,0,0,0,0,0,0,0,0,0,0,0,0,0,0,0,0,0,0,0,0,0,0,0,0,0,0,0,0,0,0,0,0,0,0,0,0,0,0,0,0,0,0,0,0,0,0,0,0,0,0,0,0,0,
0,0,0,0,0,0,0,0,0,0,0,0,0,0,0,0,0,0,0,0,0,0,0,0,0,0,0,0,0,0,0,0,0,0,0,0,0,0,0,0,0,0,0,0,0,0,0,0,0,0,0,0,0,0,0,0,0,0,0,0,0,0,0,0,0,0,0,0,0,0,0,0,0,0,0,0,0,0,0,0,0,0,0,0,0,0,0,0,0,0,0,0,0,0,0,0,0,0,0,0,0,0,0,0,0,0,0,0,0,0,0,0,0,0,0,0,0,0,0,0,0,0,0,0,0,0,0,0,0,0,0,0,0,0,0,0,0,0,0,0,0,0,0,0,0,0,0,0,0,0,0,0,0,0,0,0,0,0,0,0,0,0,0,0,0,0,0,0,0,0,0,0,0,0,0,0,0,0,0,0,0,0,0,0,0,0,0,0,0,0,0,0,0,0,0,0,0,0,0,0,
0,0,0,0,0,0,0,0,0,0,0,0,0,0,0,0,0,0,0,0,0,0,0,0,0,0,0,0,0,0,0,0,0,0,0,0,0,0,0,0,0,0,0,0,0,0,0,0,0,0,0,0,0,0,0,0,0,0,0,0,0,0,0,0,0,0,0,0,0,0,0,0,0,0,0,0,0,0,0,0,0,0,0,0,0,0,0,0,0,0,0,0,0,0,0,0,0,0,0,0,0,0,0,0,0,0,0,0,0,0,0,0,0,0,0,0,0,0,0,0,0,0,0,0,0,0,0,0,0,0,0,0,0,0,0,0,0,0,0,0,0,0,0,0,0,0,0,0,0,0,0,0,0,0,0,0,0,0,0,0,0,0,0,0,0,0,0,0,0,0,0,0,0,0,0,0,0,0,0,0,0,0,0,0,0,0,0,0,0,0,0,0,0,0,0,0,0,0,0,0,
0,0,0,0,0,0,0,0,0,0,0,0,0,0,0,0,0,0,0,0,0,0,0,0,0,0,0,0,0,0,0,0,0,0,0,0,0,0,0,0,0,0,0,0,0,0,0,0,0,0,0,0,0,0,0,0,0,0,0,0,0,0,0,0,0,0,0,0,0,0,0,0,0,0,0,0,0,0,0,0,0,0,0,0,0,0,0,0,0,0,0,0,0,0,0,0,0,0,0,0,0,0,0,0,0,0,0,0,0,0,0,0,0,0,0,0,0,0,0,0,0,0,0,0,0,0,0,0,0,0,0,0,0,0,0,0,0,0,0,0,0,0,0,0,0,0,0,0,0,0,0,0,0,0,0,0,0,0,0,0,0,0,0,0,0,0,0,0,0,0,0,0,0,0,0,0,0,0,0,0,0,0,0,0,0,0,0,0,0,0,0,0,0,0,0,0,0,0,0,0,
0,0,0,0,0,0,0,0,0,0,0,0,0,0,0,0,0,0,0,0,0,0,0,0,0,0,0,0,0,0,0,0,0,0,0,0,0,0,0,0,0,0,0,0,0,0,0,0,0,0,0,0,0,0,0,0,0,0,0,0,0,0,0,0,0,0,0,0,0,0,0,0,0,0,0,0,0,0,0,0,0,0,0,0,0,0,0,0,0,0,0,0,0,0,0,0,0,0,0,0,0,0,0,0,0,0,0,0,0,0,0,0,0,0,0,0,0,0,0,0,0,0,0,0,0,0,0,0,0,0,0,0,0,0,0,0,0,0,0,0,0,0,0,0,0,0,0,0,0,0,0,0,0,0,0,0,0,0,0,0,0,0,0,0,0,0,0,0,0,0,0,0,0,0,0,0,0,0,0,0,0,0,0,0,0,0,0,0,0,0,0,0,0,0,0,0,0,0,0,0,
0,0,0,0,0,0,0,0,0,0,0,0,0,0,0,0,0,0,0,0,0,0,0,0,0,0,0,0,0,0,0,0,0,0,0,0,0,0,0,0,0,0,0,0,0,0,0,0,0,0,0,0,0,0,0,0,0,0,0,0,0,0,0,0,0,0,0,0,0,0,0,0,0,0,0,0,0,0,0,0,0,0,0,0,0,0,0,0,0,0,0,0,0,0,0,0,0,0,0,0,0,0,0,0,0,0,0,0,0,0,0,0,0,0,0,0,0,0,0,0,0,0,0,0,0,0,0,0,0,0,0,0,0,0,0,0,0,0,0,0,0,0,0,0,0,0,0,0,0,0,0,0,0,0,0,0,0,0,0,0,0,0,0,0,0,0,0,0,0,0,0,0,0,0,0,0,0,0,0,0,0,0,0,0,0,0,0,0,0,0,0,0,0,0,0,0,0,0,0,0,
0,0,0,0,0,0,0,0,0,0,0,0,0,0,0,0,0,0,0,0,0,0,0,0,0,0,0,0,0,0,0,0,0,0,0,0,0,0,0,0,0,0,0,0,0,0,0,0,0,0,0,0,0,0,0,0,0,0,0,0,0,0,0,0,0,0,0,0,0,0,0,0,0,0,0,0,0,0,0,0,0,0,0,0,0,0,0,0,0,0,0,0,0,0,0,0,0,0,0,0,0,0,0,0,0,0,0,0,0,0,0,0,0,0,0,0,0,0,0,0,0,0,0,0,0,0,0,0,0,0,0,0,0,0,0,0,0,0,0,0,0,0,0,0,0,0,0,0,0,0,0,0,0,0,0,0,0,0,0,0,0,0,0,0,0,0,0,0,0,0,0,0,0,0,0,0,0,0,0,0,0,0,0,0,0,0,0,0,0,0,0,0,0,0,0,0,0,0,0,0,
0,0,0,0,0,0,0,0,0,0,0,0,0,0,0,0,0,0,0,0,0,0,0,0,0,0,0,0,0,0,0,0,0,0,0,0,0,0,0,0,0,0,0,0,0,0,0,0,0,0,0,0,0,0,0,0,0,0,0,0,0,0,0,0,0,0,0,0,0,0,0,0,0,0,0,0,0,0,0,0,0,0,0,0,0,0,0,0,0,0,0,0,0,0,0,0,0,0,0,0,0,0,0,0,0,0,0,0,0,0,0,0,0,0,0,0,0,0,0,0,0,0,0,0,0,0,0,0,0,0,0,0,0,0,0,0,0,0,0,0,0,0,0,0,0,0,0,0,0,0,0,0,0,0,0,0,0,0,0,0,0,0,0,0,0,0,0,0,0,0,0,0,0,0,0,0,0,0,0,0,0,0,0,0,0,0,0,0,0,0,0,0,0,0,0,0,0,0,0,0,
0,0,0,0,0,0,0,0,0,0,0,0,0,0,0,0,0,0,0,0,0,0,0,0,0,0,0,0,0,0,0,0,0,0,0,0,0,0,0,0,0,0,0,0,0,0,0,0,0,0,0,0,0,0,0,0,0,0,0,0,0,0,0,0,0,0,0,0,0,0,0,0,0,0,0,0,0,0,0,0,0,0,0,0,0,0,0,0,0,0,0,0,0,0,0,0,0,0,0,0,0,0,0,0,0,0,0,0,0,0,0,0,0,0,0,0,0,0,0,0,0,0,0,0,0,0,0,0,0,0,0,0,0,0,0,0,0,0,0,0,0,0,0,0,0,0,0,0,0,0,0,0,0,0,0,0,0,0,0,0,0,0,0,0,0,0,0,0,0,0,0,0,0,0,0,0,0,0,0,0,0,0,0,0,0,0,0,0,0,0,0,0,0,0,0,0,0,0,0,0,
0,0,0,0,0,0,0,0,0,0,0,0,0,0,0,0,0,0,0,0,0,0,0,0,0,0,0,0,0,0,0,0,0,0,0,0,0,0,0,0,0,0,0,0,0,0,0,0,0,0,0,0,0,0,0,0,0,0,0,0,0,0,0,0,0,0,0,0,0,0,0,0,0,0,0,0,0,0,0,0,0,0,0,0,0,0,0,0,0,0,0,0,0,0,0,0,0,0,0,0,0,0,0,0,0,0,0,0,0,0,0,0,0,0,0,0,0,0,0,0,0,0,0,0,0,0,0,0,0,0,0,0,0,0,0,0,0,0,0,0,0,0,0,0,0,0,0,0,0,0,0,0,0,0,0,0,0,0,0,0,0,0,0,0,0,0,0,0,0,0,0,0,0,0,0,0,0,0,0,0,0,0,0,0,0,0,0,0,0,0,0,0,0,0,0,0,0,0,0,0,
0,0,0,0,0,0,0,0,0,0,0,0,0,0,0,0,0,0,0,0,0,0,0,0,0,0,0,0,0,0,0,0,0,0,0,0,0,0,0,0,0,0,0,0,0,0,0,0,0,0,0,0,0,0,0,0,0,0,0,0,0,0,0,0,0,0,0,0,0,0,0,0,0,0,0,0,0,0,0,0,0,0,0,0,0,0,0,0,0,0,0,0,0,0,0,0,0,0,0,0,0,0,0,0,0,0,0,0,0,0,0,0,0,0,0,0,0,0,0,0,0,0,0,0,0,0,0,0,0,0,0,0,0,0,0,0,0,0,0,0,0,0,0,0,0,0,0,0,0,0,0,0,0,0,0,0,0,0,0,0,0,0,0,0,0,0,0,0,0,0,0,0,0,0,0,0,0,0,0,0,0,0,0,0,0,0,0,0,0,0,0,0,0,0,0,0,0,0,0,0,
0,0,0,0,0,0,0,0,0,0,0,0,0,0,0,0,0,0,0,0,0,0,0,0,0,0,0,0,0,0,0,0,0,0,0,0,0,0,0,0,0,0,0,0,0,0,0,0,0,0,0,0,0,0,0,0,0,0,0,0,0,0,0,0,0,0,0,0,0,0,0,0,0,0,0,0,0,0,0,0,0,0,0,0,0,0,0,0,0,0,0,0,0,0,0,0,0,0,0,0,0,0,0,0,0,0,0,0,0,0,0,0,0,0,0,0,0,0,0,0,0,0,0,0,0,0,0,0,0,0,0,0,0,0,0,0,0,0,0,0,0,0,0,0,0,0,0,0,0,0,0,0,0,0,0,0,0,0,0,0,0,0,0,0,0,0,0,0,0,0,0,0,0,0,0,0,0,0,0,0,0,0,0,0,0,0,0,0,0,0,0,0,0,0,0,0,0,0,0,0,
0,0,0,0,0,0,0,0,0,0,0,0,0,0,0,0,0,0,0,0,0,0,0,0,0,0,0,0,0,0,0,0,0,0,0,0,0,0,0,0,0,0,0,0,0,0,0,0,0,0,0,0,0,0,0,0,0,0,0,0,0,0,0,0,0,0,0,0,0,0,0,0,0,0,0,0,0,0,0,0,0,0,0,0,0,0,0,0,0,0,0,0,0,0,0,0,0,0,0,0,0,0,0,0,0,0,0,0,0,0,0,0,0,0,0,0,0,0,0,0,0,0,0,0,0,0,0,0,0,0,0,0,0,0,0,0,0,0,0,0,0,0,0,0,0,0,0,0,0,0,0,0,0,0,0,0,0,0,0,0,0,0,0,0,0,0,0,0,0,0,0,0,0,0,0,0,0,0,0,0,0,0,0,0,0,0,0,0,0,0,0,0,0,0,0,0,0,0,0,0,
0,0,0,0,0,0,0,0,0,0,0,0,0,0,0,0,0,0,0,0,0,0,0,0,0,0,0,0,0,0,0,0,0,0,0,0,0,0,0,0,0,0,0,0,0,0,0,0,0,0,0,0,0,0,0,0,0,0,0,0,0,0,0,0,0,0,0,0,0,0,0,0,0,0,0,0,0,0,0,0,0,0,0,0,0,0,0,0,0,0,0,0,0,0,0,0,0,0,0,0,0,0,0,0,0,0,0,0,0,0,0,0,0,0,0,0,0,0,0,0,0,0,0,0,0,0,0,0,0,0,0,0,0,0,0,0,0,0,0,0,0,0,0,0,0,0,0,0,0,0,0,0,0,0,0,0,0,0,0,0,0,0,0,0,0,0,0,0,0,0,0,0,0,0,0,0,0,0,0,0,0,0,0,0,0,0,0,0,0,0,0,0,0,0,0,0,0,0,0,0,
0,0,0,0,0,0,0,0,0,0,0,0,0,0,0,0,0,0,0,0,0,0,0,0,0,0,0,0,0,0,0,0,0,0,0,0,0,0,0,0,0,0,0,0,0,0,0,0,0,0,0,0,0,0,0,0,0,0,0,0,0,0,0,0,0,0,0,0,0,0,0,0,0,0,0,0,0,0,0,0,0,0,0,0,0,0,0,0,0,0,0,0,0,0,0,0,0,0,0,0,0,0,0,0,0,0,0,0,0,0,0,0,0,0,0,0,0,0,0,0,0,0,0,0,0,0,0,0,0,0,0,0,0,0,0,0,0,0,0,0,0,0,0,0,0,0,0,0,0,0,0,0,0,0,0,0,0,0,0,0,0,0,0,0,0,0,0,0,0,0,0,0,0,0,0,0,0,0,0,0,0,0,0,0,0,0,0,0,0,0,0,0,0,0,0,0,0,0,0,0,
0,0,0,0,0,0,0,0,0,0,0,0,0,0,0,0,0,0,0,0,0,0,0,0,0,0,0,0,0,0,0,0,0,0,0,0,0,0,0,0,0,0,0,0,0,0,0,0,0,0,0,0,0,0,0,0,0,0,0,0,0,0,0,0,0,0,0,0,0,0,0,0,0,0,0,0,0,0,0,0,0,0,0,0,0,0,0,0,0,0,0,0,0,0,0,0,0,0,0,0,0,0,0,0,0,0,0,0,0,0,0,0,0,0,0,0,0,0,0,0,0,0,0,0,0,0,0,0,0,0,0,0,0,0,0,0,0,0,0,0,0,0,0,0,0,0,0,0,0,0,0,0,0,0,0,0,0,0,0,0,0,0,0,0,0,0,0,0,0,0,0,0,0,0,0,0,0,0,0,0,0,0,0,0,0,0,0,0,0,0,0,0,0,0,0,0,0,0,0,0,
0,0,0,0,0,0,0,0,0,0,0,0,0,0,0,0,0,0,0,0,0,0,0,0,0,0,0,0,0,0,0,0,0,0,0,0,0,0,0,0,0,0,0,0,0,0,0,0,0,0,0,0,0,0,0,0,0,0,0,0,0,0,0,0,0,0,0,0,0,0,0,0,0,0,0,0,0,0,0,0,0,0,0,0,0,0,0,0,0,0,0,0,0,0,0,0,0,0,0,0,0,0,0,0,0,0,0,0,0,0,0,0,0,0,0,0,0,0,0,0,0,0,0,0,0,0,0,0,0,0,0,0,0,0,0,0,0,0,0,0,0,0,0,0,0,0,0,0,0,0,0,0,0,0,0,0,0,0,0,0,0,0,0,0,0,0,0,0,0,0,0,0,0,0,0,0,0,0,0,0,0,0,0,0,0,0,0,0,0,0,0,0,0,0,0,0,0,0,0,0,
0,0,0,0,0,0,0,0,0,0,0,0,0,0,0,0,0,0,0,0,0,0,0,0,0,0,0,0,0,0,0,0,0,0,0,0,0,0,0,0,0,0,0,0,0,0,0,0,0,0,0,0,0,0,0,0,0,0,0,0,0,0,0,0,0,0,0,0,0,0,0,0,0,0,0,0,0,0,0,0,0,0,0,0,0,0,0,0,0,0,0,0,0,0,0,0,0,0,0,0,0,0,0,0,0,0,0,0,0,0,0,0,0,0,0,0,0,0,0,0,0,0,0,0,0,0,0,0,0,0,0,0,0,0,0,0,0,0,0,0,0,0,0,0,0,0,0,0,0,0,0,0,0,0,0,0,0,0,0,0,0,0,0,0,0,0,0,0,0,0,0,0,0,0,0,0,0,0,0,0,0,0,0,0,0,0,0,0,0,0,0,0,0,0,0,0,0,0,0,0,
0,0,0,0,0,0,0,0,0,0,0,0,0,0,0,0,0,0,0,0,0,0,0,0,0,0,0,0,0,0,0,0,0,0,0,0,0,0,0,0,0,0,0,0,0,0,0,0,0,0,0,0,0,0,0,0,0,0,0,0,0,0,0,0,0,0,0,0,0,0,0,0,0,0,0,0,0,0,0,0,0,0,0,0,0,0,0,0,0,0,0,0,0,0,0,0,0,0,0,0,0,0,0,0,0,0,0,0,0,0,0,0,0,0,0,0,0,0,0,0,0,0,0,0,0,0,0,0,0,0,0,0,0,0,0,0,0,0,0,0,0,0,0,0,0,0,0,0,0,0,0,0,0,0,0,0,0,0,0,0,0,0,0,0,0,0,0,0,0,0,0,0,0,0,0,0,0,0,0,0,0,0,0,0,0,0,0,0,0,0,0,0,0,0,0,0,0,0,0,0,
0,0,0,1610613487,1610613503,1610613519,1610613535,1610613551,1610613519,1610613535,1610613551,1610613631,1610613647,0,0,0,0,0,0,0,0,0,0,0,0,0,0,0,0,0,0,0,0,0,0,0,0,0,0,0,0,0,0,0,0,0,0,0,0,0,0,0,0,0,0,0,0,0,0,0,0,0,0,0,0,0,0,0,0,0,0,0,0,0,0,0,0,0,0,0,0,0,0,0,0,0,0,0,0,0,0,0,0,0,0,0,0,0,0,0,0,0,0,0,0,0,0,0,0,0,0,0,0,0,0,0,0,0,0,0,0,0,0,0,0,0,0,0,0,0,0,0,0,0,0,0,0,0,0,0,0,0,0,0,0,0,0,0,0,0,0,0,0,0,0,0,0,0,0,0,0,0,0,0,0,0,0,0,0,0,0,0,0,0,0,0,0,0,0,0,0,0,0,0,0,0,0,0,0,0,0,0,0,0,0,0,0,0,0,0,
0,0,0,1610613486,1610613502,1610613518,1610613534,1610613550,1610613518,1610613534,1610613550,1610613630,1610613646,0,0,0,0,0,0,0,0,0,0,0,0,0,0,0,0,0,0,0,0,0,0,0,0,0,0,0,0,0,0,0,0,0,0,0,0,0,0,0,0,0,0,0,0,0,0,0,0,0,0,0,0,0,0,0,0,0,0,0,0,0,0,0,0,0,0,0,0,0,0,0,0,0,0,0,0,0,0,0,0,0,0,0,0,0,0,0,0,0,0,0,0,0,0,0,0,0,0,0,0,0,0,0,0,0,0,0,0,0,0,0,0,0,0,0,0,0,0,0,0,0,0,0,0,0,0,0,0,0,0,0,0,0,0,0,0,0,0,0,0,0,0,0,0,0,0,0,0,0,0,0,0,0,0,0,0,0,0,0,0,0,0,0,0,0,0,0,0,0,0,0,0,0,0,0,0,0,0,0,0,0,0,0,0,0,0,0,
0,0,0,1610613484,1610613500,1610613516,1610613532,1610613548,1610613564,1610613580,1610613596,1610613621,1610613637,0,0,0,0,0,0,0,0,0,0,0,0,0,0,0,0,0,0,0,0,0,0,0,0,0,0,0,0,0,0,0,0,0,0,0,0,0,0,0,0,0,0,0,0,0,0,0,0,0,0,0,0,0,0,0,0,0,0,0,0,0,0,0,0,0,0,0,0,0,0,0,0,0,0,0,0,0,0,0,0,0,0,0,0,0,0,0,0,0,0,0,0,0,0,0,0,0,0,0,0,0,0,0,0,0,0,0,0,0,0,0,0,0,0,0,0,0,0,0,0,0,0,0,0,0,0,0,0,0,0,0,0,0,0,0,0,0,0,0,0,0,0,0,0,0,0,0,0,0,0,0,0,0,0,0,0,0,0,0,0,0,0,0,0,0,0,0,0,0,0,0,0,0,0,0,0,0,0,0,0,0,0,0,0,0,0,0,
0,0,0,1610613483,1610613499,1610613515,1610613531,1610613547,1610613563,1610613579,1610613595,1610613621,1610613637,0,0,0,0,0,0,0,0,0,0,0,0,0,0,0,0,0,0,0,0,0,0,0,0,0,0,0,0,0,0,0,0,0,0,0,0,0,0,0,0,0,0,0,0,0,0,0,0,0,0,0,0,0,0,0,0,0,0,0,0,0,0,0,0,0,0,0,0,0,0,0,0,0,0,0,0,0,0,0,0,0,0,0,0,0,0,0,0,0,0,0,0,0,0,0,0,0,0,0,0,0,0,0,0,0,0,0,0,0,0,0,0,0,0,0,0,0,0,0,0,0,0,0,0,0,0,0,0,0,0,0,0,0,0,0,0,0,0,0,0,0,0,0,0,0,0,0,0,0,0,0,0,0,0,0,0,0,0,0,0,0,0,0,0,0,0,0,0,0,0,0,0,0,0,0,0,0,0,0,0,0,0,0,0,0,0,0,
0,0,0,1610613482,1610613498,1610613514,1610613530,1610613546,1610613562,1610613578,1610613594,1610613610,1610613610,0,0,0,0,0,0,0,0,0,0,0,0,0,0,0,0,0,0,0,0,0,0,0,0,0,0,0,0,0,0,0,0,0,0,0,0,0,0,0,0,0,0,0,0,0,0,0,0,0,0,0,0,0,0,0,0,0,0,0,0,0,0,0,0,0,0,0,0,0,0,0,0,0,0,0,0,0,0,0,0,0,0,0,0,0,0,0,0,0,0,0,0,0,0,0,0,0,0,0,0,0,0,0,0,0,0,0,0,0,0,0,0,0,0,0,0,0,0,0,0,0,0,0,0,0,0,0,0,0,0,0,0,0,0,0,0,0,0,0,0,0,0,0,0,0,0,0,0,0,0,0,0,0,0,0,0,0,0,0,0,0,0,0,0,0,0,0,0,0,0,0,0,0,0,0,0,0,0,0,0,0,0,0,0,0,0,0,
0,0,0,1610613481,1610613497,1610613513,1610613529,1610613545,1610613561,1610613577,1610613593,1610613609,1610613609,0,0,0,0,0,0,0,0,0,0,0,0,0,0,0,0,0,0,0,0,0,0,0,0,0,0,0,0,0,0,0,0,0,0,0,0,0,0,0,0,0,0,0,0,0,0,0,0,0,0,0,0,0,0,0,0,0,0,0,0,0,0,0,0,0,0,0,0,0,0,0,0,0,0,0,0,0,0,0,0,0,0,0,0,0,0,0,0,0,0,0,0,0,0,0,0,0,0,0,0,0,0,0,0,0,0,0,0,0,0,0,0,0,0,0,0,0,0,0,0,0,0,0,0,0,0,0,0,0,0,0,0,0,0,0,0,0,0,0,0,0,0,0,0,0,0,0,0,0,0,0,0,0,0,0,0,0,0,0,0,0,0,0,0,0,0,0,0,0,0,0,0,0,0,0,0,0,0,0,0,0,0,0,0,0,0,0,
0,0,0,1610613480,1610613496,1610613512,1610613528,1610613544,1610613560,1610613576,1610613592,1610613610,1610613610,0,0,0,0,0,0,0,0,0,0,0,0,0,0,0,0,0,0,0,0,0,0,0,0,0,0,0,0,0,0,0,0,0,0,0,0,0,0,0,0,0,0,0,0,0,0,0,0,0,0,0,0,0,0,0,0,0,0,0,0,0,0,0,0,0,0,0,0,0,0,0,0,0,0,0,0,0,0,0,0,0,0,0,0,0,0,0,0,0,0,0,0,0,0,0,0,0,0,0,0,0,0,0,0,0,0,0,0,0,0,0,0,0,0,0,0,0,0,0,0,0,0,0,0,0,0,0,0,0,0,0,0,0,0,0,0,0,0,0,0,0,0,0,0,0,0,0,0,0,0,0,0,0,0,0,0,0,0,0,0,0,0,0,0,0,0,0,0,0,0,0,0,0,0,0,0,0,0,0,0,0,0,0,0,0,0,0,
0,0,0,1610613479,1610613495,1610613511,1610613527,1610613543,1610613559,1610613575,1610613591,1610613621,1610613637,0,0,0,0,0,0,0,0,0,0,0,0,0,0,0,0,0,0,0,0,0,0,0,0,0,0,0,0,0,0,0,0,0,0,0,0,0,0,0,0,0,0,0,0,0,0,0,0,0,0,0,0,0,0,0,0,0,0,0,0,0,0,0,0,0,0,0,0,0,0,0,0,0,0,0,0,0,0,0,0,0,0,0,0,0,0,0,0,0,0,0,0,0,0,0,0,0,0,0,0,0,0,0,0,0,0,0,0,0,0,0,0,0,0,0,0,0,0,0,0,0,0,0,0,0,0,0,0,0,0,0,0,0,0,0,0,0,0,0,0,0,0,0,0,0,0,0,0,0,0,0,0,0,0,0,0,0,0,0,0,0,0,0,0,0,0,0,0,0,0,0,0,0,0,0,0,0,0,0,0,0,0,0,0,0,0,0,
0,0,0,1610613492,1610613508,1610613540,1610613540,1610613556,1610613572,1610613588,1610613604,1610613620,1610613636,0,0,0,0,0,0,0,0,0,0,0,0,0,0,0,0,0,0,0,0,0,0,0,0,0,0,0,0,0,0,0,0,0,0,0,0,0,0,0,0,0,0,0,0,0,0,0,0,0,0,0,0,0,0,0,0,0,0,0,0,0,0,0,0,0,0,0,0,0,0,0,0,0,0,0,0,0,0,0,0,0,0,0,0,0,0,0,0,0,0,0,0,0,0,0,0,0,0,0,0,0,0,0,0,0,0,0,0,0,0,0,0,0,0,0,0,0,0,0,0,0,0,0,0,0,0,0,0,0,0,0,0,0,0,0,0,0,0,0,0,0,0,0,0,0,0,0,0,0,0,0,0,0,0,0,0,0,0,0,0,0,0,0,0,0,0,0,0,0,0,0,0,0,0,0,0,0,0,0,0,0,0,0,0,0,0,0,
0,0,0,1610613491,1610613507,1610613539,1610613539,1610613555,1610613571,1610613587,1610613603,1610613619,1610613635,0,0,0,0,0,0,0,0,0,0,0,0,0,0,0,0,0,0,0,0,0,0,0,0,0,0,0,0,0,0,0,0,0,0,0,0,0,0,0,0,0,0,0,0,0,0,0,0,0,0,0,0,0,0,0,0,0,0,0,0,0,0,0,0,0,0,0,0,0,0,0,0,0,0,0,0,0,0,0,0,0,0,0,0,0,0,0,0,0,0,0,0,0,0,0,0,0,0,0,0,0,0,0,0,0,0,0,0,0,0,0,0,0,0,0,0,0,0,0,0,0,0,0,0,0,0,0,0,0,0,0,0,0,0,0,0,0,0,0,0,0,0,0,0,0,0,0,0,0,0,0,0,0,0,0,0,0,0,0,0,0,0,0,0,0,0,0,0,0,0,0,0,0,0,0,0,0,0,0,0,0,0,0,0,0,0,0,
0,0,0,0,0,0,0,0,0,0,0,0,0,0,0,0,0,0,0,0,0,0,0,0,0,0,0,0,0,0,0,0,0,0,0,0,0,0,0,0,0,0,0,0,0,0,0,0,0,0,0,0,0,0,0,0,0,0,0,0,0,0,0,0,0,0,0,0,0,0,0,0,0,0,0,0,0,0,0,0,0,0,0,0,0,0,0,0,0,0,0,0,0,0,0,0,0,0,0,0,0,0,0,0,0,0,0,0,0,0,0,0,0,0,0,0,0,0,0,0,0,0,0,0,0,0,0,0,0,0,0,0,0,0,0,0,0,0,0,0,0,0,0,0,0,0,0,0,0,0,0,0,0,0,0,0,0,0,0,0,0,0,0,0,0,0,0,0,0,0,0,0,0,0,0,0,0,0,0,0,0,0,0,0,0,0,0,0,0,0,0,0,0,0,0,0,0,0,0,0,
0,0,0,0,0,0,0,0,0,0,0,0,0,0,0,0,0,0,0,0,0,0,0,0,0,0,0,0,0,0,0,0,0,0,0,0,0,0,0,0,0,0,0,0,0,0,0,0,0,0,0,0,0,0,0,0,0,0,0,0,0,0,0,0,0,0,0,0,0,0,0,0,0,0,0,0,0,0,0,0,0,0,0,0,0,0,0,0,0,0,0,0,0,0,0,0,0,0,0,0,0,0,0,0,0,0,0,0,0,0,0,0,0,0,0,0,0,0,0,0,0,0,0,0,0,0,0,0,0,0,0,0,0,0,0,0,0,0,0,0,0,0,0,0,0,0,0,0,0,0,0,0,0,0,0,0,0,0,0,0,0,0,0,0,0,0,0,0,0,0,0,0,0,0,0,0,0,0,0,0,0,0,0,0,0,0,0,0,0,0,0,0,0,0,0,0,0,0,0,0,
0,0,0,0,0,0,0,0,0,0,0,0,0,0,0,0,0,0,0,0,0,0,0,0,0,0,0,0,0,0,0,0,0,0,0,0,0,0,0,0,0,0,0,0,0,0,0,0,0,0,0,0,0,0,0,0,0,0,0,0,0,0,0,0,0,0,0,0,0,0,0,0,0,0,0,0,0,0,0,0,0,0,0,0,0,0,0,0,0,0,0,0,0,0,0,0,0,0,0,0,0,0,0,0,0,0,0,0,0,0,0,0,0,0,0,0,0,0,0,0,0,0,0,0,0,0,0,0,0,0,0,0,0,0,0,0,0,0,0,0,0,0,0,0,0,0,0,0,0,0,0,0,0,0,0,0,0,0,0,0,0,0,0,0,0,0,0,0,0,0,0,0,0,0,0,0,0,0,0,0,0,0,0,0,0,0,0,0,0,0,0,0,0,0,0,0,0,0,0,0,
0,0,0,0,0,0,0,0,0,0,0,0,0,0,0,0,0,0,0,0,0,0,0,0,0,0,0,0,0,0,0,0,0,0,0,0,0,0,0,0,0,0,0,0,0,0,0,0,0,0,0,0,0,0,0,0,0,0,0,0,0,0,0,0,0,0,0,0,0,0,0,0,0,0,0,0,0,0,0,0,0,0,0,0,0,0,0,0,0,0,0,0,0,0,0,0,0,0,0,0,0,0,0,0,0,0,0,0,0,0,0,0,0,0,0,0,0,0,0,0,0,0,0,0,0,0,0,0,0,0,0,0,0,0,0,0,0,0,0,0,0,0,0,0,0,0,0,0,0,0,0,0,0,0,0,0,0,0,0,0,0,0,0,0,0,0,0,0,0,0,0,0,0,0,0,0,0,0,0,0,0,0,0,0,0,0,0,0,0,0,0,0,0,0,0,0,0,0,0,0
</data>
 </layer>
 <objectgroup id="18" name="collectibles">
  <object id="164" name="collectible" x="250.5" y="561.5" width="32" height="32">
   <properties>
    <property name="element_type" value="coin"/>
    <property name="score_value" type="int" value="10"/>
   </properties>
  </object>
  <object id="166" name="collectible" x="1069.5" y="576.167" width="32" height="32">
   <properties>
    <property name="element_type" value="coin"/>
    <property name="score_value" type="int" value="10"/>
   </properties>
  </object>
  <object id="174" name="collectible" x="3023.17" y="196" width="32" height="32">
   <properties>
    <property name="element_type" value="coin"/>
    <property name="score_value" type="int" value="10"/>
   </properties>
  </object>
  <object id="179" name="collectible" x="2941.5" y="2060.17" width="32" height="32">
   <properties>
    <property name="element_type" value="coin"/>
    <property name="score_value" type="int" value="10"/>
   </properties>
  </object>
  <object id="194" name="collectible" x="193.5" y="1342.83" width="32" height="32">
   <properties>
    <property name="element_type" value="coin"/>
    <property name="score_value" type="int" value="10"/>
   </properties>
  </object>
  <object id="211" name="collectible" x="2321.5" y="1914.83" width="32" height="32">
   <properties>
    <property name="element_type" value="coin"/>
    <property name="score_value" type="int" value="10"/>
   </properties>
  </object>
  <object id="214" name="collectible" x="1365.5" y="906.833" width="32" height="32">
   <properties>
    <property name="element_type" value="coin"/>
    <property name="score_value" type="int" value="10"/>
   </properties>
  </object>
  <object id="215" name="collectible" x="1729.5" y="1838.83" width="32" height="32">
   <properties>
    <property name="element_type" value="coin"/>
    <property name="score_value" type="int" value="10"/>
   </properties>
  </object>
  <object id="216" name="collectible" x="2345.5" y="2182.83" width="32" height="32">
   <properties>
    <property name="element_type" value="coin"/>
    <property name="score_value" type="int" value="10"/>
   </properties>
  </object>
  <object id="199" name="collectible" x="1594.83" y="188.167" width="32" height="32">
   <properties>
    <property name="element_type" value="coin"/>
    <property name="score_value" type="int" value="10"/>
   </properties>
  </object>
  <object id="200" name="collectible" x="777.5" y="826.833" width="32" height="32">
   <properties>
    <property name="element_type" value="coin"/>
    <property name="score_value" type="int" value="10"/>
   </properties>
  </object>
  <object id="201" name="collectible" x="232.167" y="1774.83" width="32" height="32">
   <properties>
    <property name="element_type" value="coin"/>
    <property name="score_value" type="int" value="10"/>
   </properties>
  </object>
  <object id="202" name="collectible" x="1750.83" y="1197.5" width="32" height="32">
   <properties>
    <property name="element_type" value="coin"/>
    <property name="score_value" type="int" value="10"/>
   </properties>
  </object>
  <object id="207" name="collectible" x="2461.5" y="620.167" width="32" height="32">
   <properties>
    <property name="element_type" value="coin"/>
    <property name="score_value" type="int" value="10"/>
   </properties>
  </object>
  <object id="180" name="collectible" x="2148.17" y="601.5" width="32" height="32">
   <properties>
    <property name="element_type" value="coin"/>
    <property name="score_value" type="int" value="10"/>
   </properties>
  </object>
  <object id="181" name="collectible" x="2492.17" y="1045.5" width="32" height="32">
   <properties>
    <property name="element_type" value="coin"/>
    <property name="score_value" type="int" value="10"/>
   </properties>
  </object>
  <object id="182" name="collectible" x="1426.83" y="1464.17" width="32" height="32">
   <properties>
    <property name="element_type" value="coin"/>
    <property name="score_value" type="int" value="10"/>
   </properties>
  </object>
  <object id="184" name="collectible" x="3029.5" y="1033.5" width="32" height="32">
   <properties>
    <property name="element_type" value="coin"/>
    <property name="score_value" type="int" value="10"/>
   </properties>
  </object>
  <object id="185" name="collectible" x="3054.5" y="692.167" width="32" height="32">
   <properties>
    <property name="element_type" value="coin"/>
    <property name="score_value" type="int" value="10"/>
   </properties>
  </object>
  <object id="186" name="collectible" x="1741.5" y="629.5" width="32" height="32">
   <properties>
    <property name="element_type" value="coin"/>
    <property name="score_value" type="int" value="10"/>
   </properties>
  </object>
  <object id="187" name="collectible" x="240.167" y="922.833" width="32" height="32">
   <properties>
    <property name="element_type" value="coin"/>
    <property name="score_value" type="int" value="10"/>
   </properties>
  </object>
  <object id="189" name="collectible" x="2952.17" y="1637.5" width="32" height="32">
   <properties>
    <property name="element_type" value="coin"/>
    <property name="score_value" type="int" value="10"/>
   </properties>
  </object>
  <object id="190" name="collectible" x="2150.83" y="1613.5" width="32" height="32">
   <properties>
    <property name="element_type" value="coin"/>
    <property name="score_value" type="int" value="10"/>
   </properties>
  </object>
  <object id="191" name="collectible" x="2520.17" y="1584.17" width="32" height="32">
   <properties>
    <property name="element_type" value="coin"/>
    <property name="score_value" type="int" value="10"/>
   </properties>
  </object>
  <object id="177" name="collectible" x="2361.5" y="149.833" width="32" height="32">
   <properties>
    <property name="element_type" value="coin"/>
    <property name="score_value" type="int" value="10"/>
   </properties>
  </object>
  <object id="171" name="collectible" x="2708.5" y="2203.17" width="32" height="32">
   <properties>
    <property name="element_type" value="coin"/>
    <property name="score_value" type="int" value="10"/>
   </properties>
  </object>
  <object id="172" name="special_item" x="1097.83" y="169.833" width="32" height="32">
   <properties>
    <property name="element_type" value="special_item"/>
    <property name="score_value" type="int" value="25"/>
   </properties>
  </object>
  <object id="173" name="collectible" x="770.595" y="1773.95" width="32" height="32" rotation="40.1712">
   <properties>
    <property name="element_type" value="coin"/>
    <property name="score_value" type="int" value="10"/>
   </properties>
  </object>
  <object id="167" name="collectible" x="1268.5" y="1941" width="32" height="32">
   <properties>
    <property name="element_type" value="coin"/>
    <property name="score_value" type="int" value="10"/>
   </properties>
  </object>
 </objectgroup>
 <objectgroup id="9" name="object" locked="1">
  <object id="84" name="collision" x="3086.97" y="124.727" width="32" height="1033.33">
   <properties>
    <property name="Blocked" type="bool" value="true"/>
    <property name="Type" value="collision"/>
   </properties>
  </object>
  <object id="85" name="collision" x="2382.55" y="671.818" width="32" height="481.333">
   <properties>
    <property name="Blocked" type="bool" value="true"/>
    <property name="Type" value="collision"/>
   </properties>
  </object>
  <object id="86" name="collision" x="2545.03" y="569.97" width="32" height="453.818">
   <properties>
    <property name="Blocked" type="bool" value="true"/>
    <property name="Type" value="collision"/>
   </properties>
  </object>
  <object id="87" name="collision" x="1824" y="672.545" width="560.667" height="32.6061">
   <properties>
    <property name="Blocked" type="bool" value="true"/>
    <property name="Type" value="collision"/>
   </properties>
  </object>
  <object id="88" name="collision" x="2944.58" y="223.364" width="32" height="800.363">
   <properties>
    <property name="Blocked" type="bool" value="true"/>
    <property name="Type" value="collision"/>
   </properties>
  </object>
  <object id="92" name="collision" x="2577.69" y="1006.42" width="374" height="17.4545">
   <properties>
    <property name="Blocked" type="bool" value="true"/>
    <property name="Type" value="collision"/>
   </properties>
  </object>
  <object id="93" name="collision" x="2415.55" y="1120.43" width="200" height="36.303">
   <properties>
    <property name="Blocked" type="bool" value="true"/>
    <property name="Type" value="collision"/>
   </properties>
  </object>
  <object id="94" name="collision" x="170.727" y="784.606" width="1289.33" height="32.2424">
   <properties>
    <property name="Blocked" type="bool" value="true"/>
    <property name="Type" value="collision"/>
   </properties>
  </object>
  <object id="95" name="collision" x="352.03" y="496.546" width="656.667" height="30.7878">
   <properties>
    <property name="Blocked" type="bool" value="true"/>
    <property name="Type" value="collision"/>
   </properties>
  </object>
  <object id="96" name="collision" x="1823.85" y="702.879" width="32" height="512.848">
   <properties>
    <property name="Blocked" type="bool" value="true"/>
    <property name="Type" value="collision"/>
   </properties>
  </object>
  <object id="217" name="collision" x="1648.85" y="574.879" width="32" height="766.181">
   <properties>
    <property name="Blocked" type="bool" value="true"/>
    <property name="Type" value="collision"/>
   </properties>
  </object>
  <object id="97" name="collision" x="1313.42" y="960.909" width="32" height="176.485">
   <properties>
    <property name="Blocked" type="bool" value="true"/>
    <property name="Type" value="collision"/>
   </properties>
  </object>
  <object id="218" name="collision" x="1313.42" y="1248.91" width="32" height="317.818">
   <properties>
    <property name="Blocked" type="bool" value="true"/>
    <property name="Type" value="collision"/>
   </properties>
  </object>
  <object id="229" name="collision" x="1313.42" y="1534.91" width="320" height="31.8183">
   <properties>
    <property name="Blocked" type="bool" value="true"/>
    <property name="Type" value="collision"/>
   </properties>
  </object>
  <object id="230" name="collision" x="1487.42" y="1407.91" width="320" height="31.8183">
   <properties>
    <property name="Blocked" type="bool" value="true"/>
    <property name="Type" value="collision"/>
   </properties>
  </object>
  <object id="98" name="collision" x="318.848" y="960.187" width="996.667" height="35.3333">
   <properties>
    <property name="Blocked" type="bool" value="true"/>
    <property name="Type" value="collision"/>
   </properties>
  </object>
  <object id="99" name="collision" x="704.307" y="1119.52" width="641.333" height="32.9093">
   <properties>
    <property name="Blocked" type="bool" value="true"/>
    <property name="Type" value="collision"/>
   </properties>
  </object>
  <object id="100" name="collision" x="2066.42" y="1681.03" width="828" height="31.4545">
   <properties>
    <property name="Blocked" type="bool" value="true"/>
    <property name="Type" value="collision"/>
   </properties>
  </object>
  <object id="221" name="collision" x="2238.42" y="1551.7" width="372" height="31.4545">
   <properties>
    <property name="Blocked" type="bool" value="true"/>
    <property name="Type" value="collision"/>
   </properties>
  </object>
  <object id="222" name="collision" x="2767.76" y="1550.36" width="273.333" height="31.4545">
   <properties>
    <property name="Blocked" type="bool" value="true"/>
    <property name="Type" value="collision"/>
   </properties>
  </object>
  <object id="101" name="collision" x="3008" y="1571.15" width="32" height="716.303">
   <properties>
    <property name="Blocked" type="bool" value="true"/>
    <property name="Type" value="collision"/>
   </properties>
  </object>
  <object id="102" name="collision" x="1327.39" y="2158.94" width="960.667" height="33.1515">
   <properties>
    <property name="Blocked" type="bool" value="true"/>
    <property name="Type" value="collision"/>
   </properties>
  </object>
  <object id="103" name="collision" x="2256.39" y="1937.33" width="32" height="157.394">
   <properties>
    <property name="Blocked" type="bool" value="true"/>
    <property name="Type" value="collision"/>
   </properties>
  </object>
  <object id="225" name="collision" x="2256.39" y="2177" width="32" height="96.7273">
   <properties>
    <property name="Blocked" type="bool" value="true"/>
    <property name="Type" value="collision"/>
   </properties>
  </object>
  <object id="104" name="collision" x="846.909" y="1710.61" width="502" height="32.2424">
   <properties>
    <property name="Blocked" type="bool" value="true"/>
    <property name="Type" value="collision"/>
   </properties>
  </object>
  <object id="231" name="collision" x="321.242" y="1712.94" width="372.667" height="32.2424">
   <properties>
    <property name="Blocked" type="bool" value="true"/>
    <property name="Type" value="collision"/>
   </properties>
  </object>
  <object id="106" name="collision" x="2863.73" y="1711.48" width="32" height="465.394">
   <properties>
    <property name="Blocked" type="bool" value="true"/>
    <property name="Type" value="collision"/>
   </properties>
  </object>
  <object id="107" name="collision" x="1326.6" y="2075.7" width="962" height="34.8485">
   <properties>
    <property name="Blocked" type="bool" value="true"/>
    <property name="Type" value="collision"/>
   </properties>
  </object>
  <object id="226" name="collision" x="1663.94" y="1936.7" width="624.667" height="34.8485">
   <properties>
    <property name="Blocked" type="bool" value="true"/>
    <property name="Type" value="collision"/>
   </properties>
  </object>
  <object id="227" name="collision" x="1807.94" y="1822.7" width="594.667" height="34.8485">
   <properties>
    <property name="Blocked" type="bool" value="true"/>
    <property name="Type" value="collision"/>
   </properties>
  </object>
  <object id="108" name="collision" x="2400.55" y="1850.73" width="32" height="324.364">
   <properties>
    <property name="Blocked" type="bool" value="true"/>
    <property name="Type" value="collision"/>
   </properties>
  </object>
  <object id="223" name="collision" x="2433.22" y="2158.06" width="434" height="17.6973">
   <properties>
    <property name="Blocked" type="bool" value="true"/>
    <property name="Type" value="collision"/>
   </properties>
  </object>
  <object id="224" name="collision" x="2288.55" y="2256.06" width="720" height="17.6973">
   <properties>
    <property name="Blocked" type="bool" value="true"/>
    <property name="Type" value="collision"/>
   </properties>
  </object>
  <object id="109" name="collision" x="815.212" y="1232" width="530.667" height="29.5753">
   <properties>
    <property name="Blocked" type="bool" value="true"/>
    <property name="Type" value="collision"/>
   </properties>
  </object>
  <object id="110" name="collision" x="815.788" y="1260.36" width="32" height="483.394">
   <properties>
    <property name="Blocked" type="bool" value="true"/>
    <property name="Type" value="collision"/>
   </properties>
  </object>
  <object id="111" name="collision" x="169.319" y="2288.61" width="1162.5" height="34">
   <properties>
    <property name="Blocked" type="bool" value="true"/>
    <property name="Type" value="collision"/>
   </properties>
  </object>
  <object id="232" name="finish" x="79.4853" y="2224.44" width="89" height="73.3334"/>
  <object id="112" name="collision" x="174.425" y="1838.61" width="1074" height="30.4848">
   <properties>
    <property name="Blocked" type="bool" value="true"/>
    <property name="Type" value="collision"/>
   </properties>
  </object>
  <object id="113" name="collision" x="1036.24" y="110.455" width="2054.67" height="35.152">
   <properties>
    <property name="Blocked" type="bool" value="true"/>
    <property name="Type" value="collision"/>
   </properties>
  </object>
  <object id="114" name="collision" x="687.758" y="1145.94" width="32" height="599.152">
   <properties>
    <property name="Blocked" type="bool" value="true"/>
    <property name="Type" value="collision"/>
   </properties>
  </object>
  <object id="117" name="collision" x="2208.49" y="1197.64" width="32" height="385.879">
   <properties>
    <property name="Blocked" type="bool" value="true"/>
    <property name="Type" value="collision"/>
   </properties>
  </object>
  <object id="118" name="collision" x="1328.27" y="1726.97" width="32" height="349.273">
   <properties>
    <property name="Blocked" type="bool" value="true"/>
    <property name="Type" value="collision"/>
   </properties>
  </object>
  <object id="122" name="collision" x="142.03" y="784.152" width="32" height="1084.85">
   <properties>
    <property name="Blocked" type="bool" value="true"/>
    <property name="Type" value="collision"/>
   </properties>
  </object>
  <object id="123" name="collision" x="289.212" y="958.788" width="32" height="785.878">
   <properties>
    <property name="Blocked" type="bool" value="true"/>
    <property name="Type" value="collision"/>
   </properties>
  </object>
  <object id="125" name="collision" x="1215.51" y="1868.48" width="32" height="371.394">
   <properties>
    <property name="Blocked" type="bool" value="true"/>
    <property name="Type" value="collision"/>
   </properties>
  </object>
  <object id="126" name="collision" x="166.424" y="2207.33" width="1052" height="31.7576">
   <properties>
    <property name="Blocked" type="bool" value="true"/>
    <property name="Type" value="collision"/>
   </properties>
  </object>
  <object id="127" name="collision" x="2609.42" y="1120.67" width="32" height="461.758">
   <properties>
    <property name="Blocked" type="bool" value="true"/>
    <property name="Type" value="collision"/>
   </properties>
  </object>
  <object id="128" name="collision" x="2736.82" y="1120" width="32" height="462.364">
   <properties>
    <property name="Blocked" type="bool" value="true"/>
    <property name="Type" value="collision"/>
   </properties>
  </object>
  <object id="130" name="collision" x="1170.52" y="224.667" width="1778.67" height="25.6973">
   <properties>
    <property name="Blocked" type="bool" value="true"/>
    <property name="Type" value="collision"/>
   </properties>
  </object>
  <object id="131" name="collision" x="2033.58" y="1327.88" width="32" height="382.97">
   <properties>
    <property name="Blocked" type="bool" value="true"/>
    <property name="Type" value="collision"/>
   </properties>
  </object>
  <object id="219" name="collision" x="1680.24" y="1327.88" width="353.333" height="28.9697">
   <properties>
    <property name="Blocked" type="bool" value="true"/>
    <property name="Type" value="collision"/>
   </properties>
  </object>
  <object id="220" name="collision" x="1855.24" y="1186.88" width="353.333" height="28.9697">
   <properties>
    <property name="Blocked" type="bool" value="true"/>
    <property name="Type" value="collision"/>
   </properties>
  </object>
  <object id="135" name="collision" x="160.909" y="-0.697" width="32" height="666.667">
   <properties>
    <property name="Blocked" type="bool" value="true"/>
    <property name="Type" value="collision"/>
   </properties>
  </object>
  <object id="136" name="collision" x="319.42" y="-0.85" width="32" height="528.606">
   <properties>
    <property name="Blocked" type="bool" value="true"/>
    <property name="Type" value="collision"/>
   </properties>
  </object>
  <object id="138" name="collision" x="1007.82" y="142.697" width="32" height="384.242">
   <properties>
    <property name="Blocked" type="bool" value="true"/>
    <property name="Type" value="collision"/>
   </properties>
  </object>
  <object id="139" name="collision" x="1137.06" y="224" width="32" height="432.121">
   <properties>
    <property name="Blocked" type="bool" value="true"/>
    <property name="Type" value="collision"/>
   </properties>
  </object>
  <object id="141" name="collision" x="1454.82" y="785.637" width="32" height="653.819">
   <properties>
    <property name="Blocked" type="bool" value="true"/>
    <property name="Type" value="collision"/>
   </properties>
  </object>
  <object id="142" name="collision" x="192.818" y="-0.0606667" width="126" height="15.7575">
   <properties>
    <property name="Blocked" type="bool" value="true"/>
    <property name="Type" value="collision"/>
   </properties>
  </object>
  <object id="151" name="collision" x="1328.58" y="2191.24" width="32" height="120">
   <properties>
    <property name="Blocked" type="bool" value="true"/>
    <property name="Type" value="collision"/>
   </properties>
  </object>
  <object id="153" name="collision" x="1632.58" y="1535.58" width="32" height="416">
   <properties>
    <property name="Blocked" type="bool" value="true"/>
    <property name="Type" value="collision"/>
   </properties>
  </object>
  <object id="228" name="collision" x="1807.58" y="1428.58" width="32" height="394">
   <properties>
    <property name="Blocked" type="bool" value="true"/>
    <property name="Type" value="collision"/>
   </properties>
  </object>
  <object id="154" name="collision" x="1650.25" y="545.909" width="898" height="30.6667">
   <properties>
    <property name="Blocked" type="bool" value="true"/>
    <property name="Type" value="collision"/>
   </properties>
  </object>
  <object id="156" name="collision" x="2769.57" y="1119.57" width="320" height="32">
   <properties>
    <property name="Blocked" type="bool" value="true"/>
    <property name="Type" value="collision"/>
   </properties>
  </object>
  <object id="161" name="collision" x="193.576" y="639.909" width="946" height="33.333">
   <properties>
    <property name="Blocked" type="bool" value="true"/>
    <property name="Type" value="collision"/>
   </properties>
  </object>
  <object id="162" name="player" x="250.565" y="55.4385">
   <point/>
  </object>
  <object id="233" name="destructible_wall" x="2623.5" y="1119" width="128" height="33.5">
   <properties>
    <property name="Blocked" type="bool" value="true"/>
    <property name="Type" value="destructible_wall"/>
   </properties>
  </object>
  <object id="235" name="destructible_wall" x="1346" y="1137.5" width="111" height="34" rotation="90">
   <properties>
    <property name="Blocked" type="bool" value="true"/>
    <property name="Type" value="destructible_wall"/>
   </properties>
  </object>
  <object id="261" name="destructible_wall" x="2289" y="2097" width="80" height="34" rotation="90">
   <properties>
    <property name="Blocked" type="bool" value="true"/>
    <property name="Type" value="destructible_wall"/>
   </properties>
  </object>
  <object id="236" name="piege" x="1247.5" y="192" width="32" height="32">
   <properties>
    <property name="element_type" value="piege"/>
   </properties>
  </object>
  <object id="238" name="piege" x="2105.5" y="147.5" width="32" height="32">
   <properties>
    <property name="element_type" value="piege"/>
   </properties>
  </object>
  <object id="239" name="piege" x="2882.5" y="172" width="32" height="32">
   <properties>
    <property name="element_type" value="piege"/>
   </properties>
  </object>
  <object id="240" name="piege" x="3055" y="510" width="32" height="32">
   <properties>
    <property name="element_type" value="piege"/>
   </properties>
  </object>
  <object id="241" name="piege" x="2979" y="906.5" width="32" height="32">
   <properties>
    <property name="element_type" value="piege"/>
   </properties>
  </object>
  <object id="242" name="piege" x="2787.5" y="1085.5" width="32" height="32">
   <properties>
    <property name="element_type" value="piege"/>
   </properties>
  </object>
  <object id="243" name="piege" x="2462" y="876.5" width="32" height="32">
   <properties>
    <property name="element_type" value="piege"/>
   </properties>
  </object>
  <object id="244" name="piege" x="1984" y="615" width="32" height="32">
   <properties>
    <property name="element_type" value="piege"/>
   </properties>
  </object>
  <object id="245" name="piege" x="1683.5" y="870" width="32" height="32">
   <properties>
    <property name="element_type" value="piege"/>
   </properties>
  </object>
  <object id="246" name="piege" x="1947.5" y="1217" width="32" height="32">
   <properties>
    <property name="element_type" value="piege"/>
   </properties>
  </object>
  <object id="247" name="piege" x="2116.5" y="1436.5" width="32" height="32">
   <properties>
    <property name="element_type" value="piege"/>
   </properties>
  </object>
  <object id="248" name="piege" x="2379.5" y="1648.5" width="32" height="32">
   <properties>
    <property name="element_type" value="piege"/>
   </properties>
  </object>
  <object id="249" name="piege" x="2876.5" y="1600" width="32" height="32">
   <properties>
    <property name="element_type" value="piege"/>
   </properties>
  </object>
  <object id="250" name="piege" x="2945" y="1930.5" width="32" height="32">
   <properties>
    <property name="element_type" value="piege"/>
   </properties>
  </object>
  <object id="251" name="piege" x="2562.5" y="2223" width="32" height="32">
   <properties>
    <property name="element_type" value="piege"/>
   </properties>
  </object>
  <object id="252" name="piege" x="2366" y="1979.5" width="32" height="32">
   <properties>
    <property name="element_type" value="piege"/>
   </properties>
  </object>
  <object id="253" name="piege" x="1927.5" y="1903" width="32" height="32">
   <properties>
    <property name="element_type" value="piege"/>
   </properties>
  </object>
  <object id="254" name="piege" x="1774" y="1643" width="32" height="32">
   <properties>
    <property name="element_type" value="piege"/>
   </properties>
  </object>
  <object id="255" name="piege" x="1529.5" y="1442" width="32" height="32">
   <properties>
    <property name="element_type" value="piege"/>
   </properties>
  </object>
  <object id="256" name="piege" x="1420" y="1183" width="32" height="32">
   <properties>
    <property name="element_type" value="piege"/>
   </properties>
  </object>
  <object id="257" name="piege" x="948.5" y="865" width="32" height="32">
   <properties>
    <property name="element_type" value="piege"/>
   </properties>
  </object>
  <object id="258" name="piege" x="827.5" y="1178.5" width="32" height="32">
   <properties>
    <property name="element_type" value="piege"/>
   </properties>
  </object>
  <object id="259" name="piege" x="252.5" y="1598" width="32" height="32">
   <properties>
    <property name="element_type" value="piege"/>
   </properties>
  </object>
  <object id="260" name="piege" x="1248" y="2186" width="32" height="32">
   <properties>
    <property name="element_type" value="piege"/>
   </properties>
  </object>
 </objectgroup>
</map>
