<?xml version="1.0" encoding="UTF-8"?>
<map version="1.10" tiledversion="1.11.2" orientation="orthogonal" renderorder="right-down" width="80" height="80" tilewidth="16" tileheight="16" infinite="0" nextlayerid="21" nextobjectid="261">
 <tileset firstgid="1" source="Nature.tsx"/>
 <tileset firstgid="721" source="deuxieme niveau.tsx"/>
 <layer id="3" name="background" width="80" height="80" locked="1">
  <data encoding="csv">
292,293,294,295,292,293,292,293,294,295,294,295,292,293,294,295,292,293,294,295,292,293,294,295,292,293,294,295,292,293,294,295,295,295,295,295,295,295,294,295,292,293,294,295,292,293,294,295,292,293,373,374,295,372,373,374,295,295,295,374,375,372,373,374,375,372,373,293,295,295,295,295,295,294,295,292,293,294,295,292,
332,333,334,335,332,333,332,333,334,335,334,335,332,333,334,335,332,333,334,335,332,333,334,335,332,333,334,335,332,333,334,335,332,295,295,335,332,333,334,335,332,333,334,335,332,333,334,335,332,333,413,414,295,412,413,414,415,412,413,295,295,295,295,295,415,412,413,333,295,295,335,332,333,334,335,332,333,334,335,332,
372,373,374,375,372,373,372,373,374,375,374,375,372,373,374,375,372,373,374,375,372,373,374,375,372,373,374,375,372,373,374,375,372,295,374,295,295,373,374,375,372,373,374,375,372,373,374,375,372,373,293,294,295,295,295,294,295,292,293,294,295,292,293,295,295,292,293,373,295,374,295,295,373,374,375,372,373,374,375,372,
412,413,414,415,412,413,292,293,294,295,414,415,412,413,414,415,412,413,414,415,412,413,414,415,412,413,414,415,412,413,414,415,412,413,295,415,412,295,295,415,412,413,414,415,412,413,414,415,412,413,333,334,335,332,295,295,335,332,333,334,335,332,333,334,295,295,333,413,413,295,415,412,295,295,415,412,413,414,415,412,
292,293,294,295,334,335,332,333,334,335,294,295,292,293,294,295,292,293,294,295,292,293,294,295,292,293,294,295,292,293,294,295,292,293,295,295,292,295,295,295,295,295,295,295,292,293,294,295,295,295,373,374,375,372,373,374,295,295,373,374,375,372,373,295,295,372,373,295,293,295,295,292,295,295,295,295,295,295,295,292,
332,333,334,335,374,375,372,373,374,375,334,335,332,333,334,335,332,333,334,335,332,333,334,335,332,333,334,335,332,333,334,335,332,333,334,295,332,295,295,335,332,333,334,335,295,295,295,335,332,333,413,414,415,412,413,414,415,295,295,295,415,295,295,295,415,412,413,333,333,334,295,332,295,295,335,332,333,334,335,295,
372,373,374,375,295,415,292,293,294,295,374,375,372,373,374,375,372,373,374,375,372,373,374,375,372,373,374,375,372,373,374,375,372,373,374,295,372,373,374,295,295,295,374,375,372,373,374,375,372,373,293,294,295,292,293,294,295,292,293,295,295,295,293,294,295,292,293,373,373,374,295,372,373,374,295,295,295,374,375,372,
412,413,414,415,335,294,295,333,334,335,414,415,412,413,414,415,412,413,414,415,412,413,414,415,412,413,414,415,412,413,414,415,412,413,414,295,412,413,414,415,412,413,295,295,295,295,295,415,412,413,333,334,335,332,333,334,335,332,333,334,335,332,333,334,335,332,333,413,413,414,295,412,413,414,415,412,413,295,295,295,
292,372,373,374,375,334,335,373,374,375,294,295,292,293,294,295,292,293,294,295,292,293,294,295,292,293,294,295,292,293,294,295,292,293,294,295,295,295,294,295,292,293,294,295,292,293,295,295,292,293,373,374,375,372,373,374,375,372,373,374,375,372,373,374,375,372,373,293,293,294,295,295,295,294,295,292,293,294,295,292,
332,412,413,414,415,374,375,413,294,295,292,293,294,293,294,335,332,333,334,335,332,333,334,335,332,333,334,335,332,333,334,335,332,333,334,335,332,295,295,335,332,333,334,335,332,333,334,295,295,333,413,414,415,412,413,414,415,412,413,414,415,412,413,414,415,412,413,333,333,334,335,332,295,295,335,332,333,334,335,332,
372,373,374,412,413,414,415,375,334,335,332,333,334,333,334,375,372,373,374,375,372,373,374,375,372,373,374,375,372,373,374,375,372,373,374,375,372,373,374,295,295,373,374,375,372,373,295,295,372,373,293,294,295,292,293,294,295,292,293,294,295,292,293,294,295,292,293,373,373,374,375,372,373,374,295,295,373,374,375,372,
412,413,414,415,412,413,414,415,374,375,372,373,374,373,374,415,412,413,414,415,412,413,414,415,412,413,414,415,412,413,414,415,412,413,414,415,412,413,414,415,295,295,295,415,295,295,295,415,412,413,333,334,335,332,333,334,335,332,333,334,335,332,333,334,335,332,333,413,413,414,415,412,413,414,415,295,295,295,415,295,
292,293,294,295,292,293,294,295,414,415,412,413,414,413,414,295,292,293,294,295,292,293,294,295,292,293,294,295,292,293,294,295,292,293,294,295,292,293,294,295,292,293,295,295,295,293,294,295,292,293,373,374,375,372,373,374,375,372,373,374,375,372,373,374,375,372,373,293,293,294,295,292,293,294,295,292,293,295,295,295,
332,333,334,335,332,333,334,335,332,333,334,335,332,333,334,335,332,333,334,335,332,333,334,335,332,333,334,335,332,333,334,335,332,333,334,335,332,333,334,335,332,333,334,335,332,333,334,335,332,333,413,414,415,412,413,414,415,412,413,414,415,412,413,414,415,412,413,333,333,334,335,332,333,334,335,332,333,334,335,332,
372,373,374,375,372,373,374,375,372,373,374,375,372,373,374,375,372,373,374,375,372,373,374,375,372,373,374,375,372,373,374,375,372,373,374,375,372,373,374,375,372,373,374,375,372,373,374,375,372,373,293,294,295,292,293,294,295,292,293,294,295,292,293,294,295,292,293,373,373,374,375,372,373,374,375,372,373,374,375,372,
412,413,414,415,412,413,414,415,412,413,414,415,412,413,414,415,412,413,414,415,412,413,414,415,412,413,414,415,412,413,414,415,412,413,414,415,412,413,414,415,412,413,414,415,412,413,414,415,412,413,333,334,335,332,333,334,335,332,333,334,335,332,333,334,335,332,333,413,413,414,415,412,413,414,415,412,413,414,415,412,
292,293,294,295,292,293,294,295,292,293,294,295,292,293,294,295,292,293,294,295,292,293,294,295,292,293,294,295,292,293,294,295,292,293,294,295,292,293,294,295,292,293,294,295,292,293,294,295,292,293,373,374,375,372,373,374,375,372,373,374,375,372,373,374,375,372,373,293,293,294,295,292,293,294,295,292,293,294,295,292,
332,333,334,335,332,333,334,335,332,333,334,335,332,333,334,335,332,333,334,335,332,333,334,335,332,333,334,335,332,333,334,335,332,333,334,335,332,333,334,335,332,333,334,335,332,333,334,335,332,333,413,414,415,412,413,414,415,412,413,414,415,412,413,414,415,412,413,333,333,334,335,332,333,334,335,332,333,334,335,332,
372,373,374,375,372,373,374,375,372,373,374,375,372,373,374,375,372,373,374,375,372,373,374,375,372,373,374,375,372,373,374,375,372,373,374,375,372,373,374,375,372,373,374,375,372,373,374,375,372,373,293,294,295,292,293,294,295,292,293,294,295,292,293,294,295,292,293,373,373,374,375,372,373,374,375,372,373,374,375,372,
412,413,414,415,412,413,414,415,412,413,414,415,412,413,414,415,412,413,414,415,412,413,414,415,412,413,414,415,412,413,414,415,412,413,414,415,412,413,414,415,412,413,414,415,412,413,414,415,412,413,333,334,335,332,333,334,335,332,333,334,335,332,333,334,335,332,333,413,413,414,415,412,413,414,415,412,413,414,415,412,
292,293,294,295,292,293,294,295,292,293,294,295,292,293,294,295,292,293,294,295,292,293,294,295,292,293,294,295,292,293,294,295,292,293,294,295,292,293,294,295,292,293,294,295,292,293,294,295,292,293,373,374,375,372,373,374,375,372,373,374,375,372,373,374,375,372,373,293,293,294,295,292,293,294,295,292,293,294,295,292,
332,333,334,335,332,333,334,335,332,333,334,335,332,333,334,335,332,333,334,335,332,333,334,335,332,333,334,335,332,333,334,335,332,333,334,335,332,333,334,335,332,333,334,335,332,333,334,335,332,333,413,414,415,412,413,414,415,412,413,414,415,412,413,414,415,412,413,333,333,334,335,332,333,334,335,332,333,334,335,332,
372,373,374,375,372,373,374,375,372,373,374,375,372,373,374,375,372,373,374,375,372,373,374,375,372,373,374,375,372,373,374,375,372,373,374,375,372,373,374,375,372,373,374,375,372,373,374,375,372,373,293,294,295,292,293,294,295,292,293,294,295,292,293,294,295,292,293,373,373,374,375,372,373,374,375,372,373,374,375,372,
412,413,414,415,412,413,414,415,412,413,414,415,412,413,414,415,412,413,414,415,412,413,414,415,412,413,414,415,412,413,414,415,412,413,414,415,412,413,414,415,412,413,414,415,412,413,414,415,412,413,333,334,335,332,333,334,335,332,333,334,335,332,333,334,335,332,333,413,413,414,415,412,413,414,415,412,413,414,415,412,
292,293,294,295,292,293,294,295,292,293,294,295,292,293,294,295,292,293,294,295,292,293,294,295,292,293,294,295,292,293,294,295,292,293,294,295,292,293,294,295,292,293,294,295,292,293,294,295,292,293,373,374,375,372,373,374,375,372,373,374,375,372,373,374,375,372,373,293,293,294,295,292,293,294,295,292,293,294,295,292,
332,333,334,335,332,333,334,335,332,333,334,335,332,333,334,335,332,333,334,335,332,333,334,335,332,333,334,335,332,333,334,335,332,333,334,335,332,333,334,335,332,333,334,335,332,333,334,335,332,333,413,414,415,412,413,414,415,412,413,414,415,412,413,414,415,412,413,333,333,334,335,332,333,334,335,332,333,334,335,332,
372,373,374,375,372,373,374,375,372,373,374,375,372,373,374,375,372,373,374,375,372,373,374,375,372,373,374,375,372,373,374,375,372,373,374,375,372,373,374,375,372,373,374,375,372,373,374,375,372,373,293,294,295,292,293,294,295,292,293,294,295,292,293,294,295,292,293,373,373,374,375,372,373,374,375,372,373,374,375,372,
412,413,414,415,412,413,414,415,412,413,414,415,412,413,414,415,412,413,414,415,412,413,414,415,412,413,414,415,412,413,414,415,412,413,414,415,412,413,414,415,412,413,414,415,412,413,414,415,412,413,333,334,335,332,333,334,335,332,333,334,335,332,333,334,335,332,333,413,413,414,415,412,413,414,415,412,413,414,415,412,
292,293,294,295,292,293,294,295,292,293,294,295,292,293,294,295,292,293,294,295,292,293,294,295,292,293,294,295,292,293,294,295,292,293,294,295,292,293,294,295,292,293,294,295,292,293,294,295,292,293,373,374,375,372,373,374,375,372,373,374,375,372,373,374,375,372,373,293,293,294,295,292,293,294,295,292,293,294,295,292,
332,333,334,335,332,333,334,335,332,333,334,335,332,333,334,335,332,333,334,335,332,333,334,335,332,333,334,335,332,333,334,335,332,333,334,335,332,333,334,335,332,333,334,335,332,333,334,335,332,333,413,414,415,412,413,414,415,412,413,414,415,412,413,414,415,412,413,333,333,334,335,332,333,334,335,332,333,334,335,332,
372,373,374,375,372,373,374,375,372,373,374,375,372,373,374,375,372,373,374,375,372,373,374,375,372,373,374,375,372,373,374,375,372,373,374,375,372,373,374,375,372,373,374,375,372,373,374,375,372,373,293,294,295,292,293,294,295,292,293,294,295,292,293,294,295,292,293,373,373,374,375,372,373,374,375,372,373,374,375,372,
412,413,414,415,412,413,414,415,412,413,414,415,412,413,414,415,412,413,414,415,412,413,414,415,412,413,414,415,412,413,414,415,412,413,414,415,412,413,414,415,412,413,414,415,412,413,414,415,412,413,333,334,335,332,333,334,335,332,333,334,335,332,333,334,335,332,333,413,413,414,415,412,413,414,415,412,413,414,415,412,
292,293,294,295,292,293,294,295,292,293,294,295,292,293,294,295,292,293,294,295,292,293,294,295,292,293,294,295,292,293,294,295,292,293,294,295,292,293,294,295,292,293,294,295,292,293,294,295,292,293,373,374,375,372,373,374,375,372,373,374,375,372,373,374,375,372,373,293,293,294,295,292,293,294,295,292,293,294,295,292,
332,333,334,335,332,333,334,335,332,333,334,335,332,333,334,335,332,333,334,335,332,333,334,335,332,333,334,335,332,333,334,335,332,333,334,335,332,333,334,335,332,333,334,335,332,333,334,335,332,333,413,414,415,412,413,414,415,412,413,414,415,412,413,414,415,412,413,333,333,334,335,332,333,334,335,332,333,334,335,332,
372,373,374,375,372,373,374,375,372,373,374,375,372,373,374,375,372,373,374,375,372,373,374,375,372,373,374,375,372,373,374,375,372,373,374,375,372,373,374,375,372,373,374,375,372,373,374,375,372,373,293,294,295,292,293,294,295,292,293,294,295,292,293,294,295,292,293,373,373,374,375,372,373,374,375,372,373,374,375,372,
412,413,414,415,412,413,414,415,412,413,414,415,412,413,414,415,412,413,414,415,412,413,414,415,412,413,414,415,412,413,414,415,412,413,414,415,412,413,414,415,412,413,414,415,412,413,414,415,412,413,333,334,335,332,333,334,335,332,333,334,335,332,333,334,335,332,333,413,413,414,415,412,413,414,415,412,413,414,415,412,
292,293,294,295,292,293,294,295,292,293,294,295,292,293,294,295,292,293,294,295,292,293,294,295,292,293,294,295,292,293,294,295,292,293,294,295,292,293,294,295,292,293,294,295,292,293,294,295,292,293,373,374,375,372,373,374,375,372,373,374,375,372,373,374,375,372,373,293,293,294,295,292,293,294,295,292,293,294,295,292,
332,333,334,335,332,333,334,335,332,333,334,335,332,333,334,335,332,333,334,335,332,333,334,335,332,333,334,335,332,333,334,335,332,333,334,335,332,333,334,335,332,333,334,335,332,333,334,335,332,333,413,414,415,412,413,414,415,412,413,414,415,412,413,414,415,412,413,333,333,334,335,332,333,334,335,332,333,334,335,332,
372,373,374,375,372,373,374,375,372,373,374,375,372,373,374,375,372,373,374,375,372,373,374,375,372,373,374,375,372,373,374,375,372,373,374,375,372,373,374,375,372,373,374,375,372,373,374,375,372,373,293,294,295,292,293,294,295,292,293,294,295,292,293,294,295,292,293,373,373,374,375,372,373,374,375,372,373,374,375,372,
412,413,414,415,412,413,414,415,412,413,414,415,412,413,414,415,412,413,414,415,412,413,414,415,412,413,414,415,412,413,414,415,412,413,414,415,412,413,414,415,412,413,414,415,412,413,414,415,412,413,333,334,335,332,333,334,335,332,333,334,335,332,333,334,335,332,333,413,413,414,415,412,413,414,415,412,413,414,415,412,
292,293,294,295,292,293,294,295,292,293,294,295,292,293,294,295,292,293,294,295,292,293,294,295,292,293,294,295,292,293,294,295,292,293,294,295,292,293,294,295,292,293,294,295,292,293,294,295,292,293,373,374,375,372,373,374,375,372,373,374,375,372,373,374,375,372,373,293,293,294,295,292,293,294,295,292,293,294,295,292,
332,333,334,335,332,333,334,335,332,333,334,335,332,333,334,335,332,333,334,335,332,333,334,335,332,333,334,335,332,333,334,335,332,333,334,335,332,333,334,335,332,333,334,335,332,333,334,335,332,333,413,414,415,412,413,414,415,412,413,414,415,412,413,414,415,412,413,333,333,334,335,332,333,334,335,332,333,334,335,332,
372,373,374,375,372,373,374,375,372,373,374,375,372,373,374,375,372,373,374,375,372,373,374,375,372,373,374,375,372,373,374,375,372,373,374,375,372,373,374,375,372,373,374,375,372,373,374,375,372,373,373,373,374,375,372,373,374,375,372,373,374,375,372,373,374,375,372,373,373,374,375,372,373,374,375,372,373,374,375,372,
412,413,414,415,412,413,414,415,412,413,414,415,412,413,414,415,412,413,414,415,412,413,414,415,412,413,414,415,412,413,414,415,412,413,414,415,412,413,414,415,412,413,414,415,412,413,414,415,412,413,413,413,414,415,412,413,414,415,412,413,414,415,412,413,414,415,412,413,413,414,415,412,413,414,415,412,413,414,415,412,
292,293,294,295,292,293,294,295,292,293,294,295,292,293,294,295,292,293,294,295,292,293,294,295,292,293,294,295,292,293,294,295,292,293,294,295,292,293,294,295,292,293,294,295,292,293,294,295,292,293,293,293,294,295,292,293,294,295,292,293,294,295,292,293,294,295,292,293,293,294,295,292,293,294,295,292,293,294,295,292,
332,333,334,335,332,333,334,335,332,333,334,335,332,333,334,335,332,333,334,335,332,333,334,335,332,333,334,335,332,333,334,335,332,333,334,335,332,333,334,335,332,333,334,335,332,333,334,335,332,333,333,333,334,335,332,333,334,335,332,333,334,335,332,333,334,335,332,333,333,334,335,332,333,334,335,332,333,334,335,332,
372,373,374,375,372,373,374,375,372,373,374,375,372,373,374,375,372,373,374,375,372,373,374,375,372,373,374,375,372,373,374,375,372,373,374,375,372,373,374,375,372,373,374,375,372,373,374,375,372,373,373,373,374,375,372,373,374,375,372,373,374,375,372,373,374,375,372,373,373,374,375,372,373,374,375,372,373,374,375,372,
412,413,414,415,412,413,414,415,412,413,414,415,412,413,414,415,412,413,414,415,412,413,414,415,412,413,414,415,412,413,414,415,412,413,414,415,412,413,414,415,412,413,414,415,412,413,414,415,412,413,413,413,414,415,412,413,414,415,412,413,414,415,412,413,414,415,412,413,413,414,415,412,413,414,415,412,413,414,415,412,
292,293,294,295,292,293,294,295,292,293,294,295,292,293,294,295,292,293,294,295,292,293,294,295,292,293,294,295,292,293,294,295,292,293,294,295,292,293,294,295,292,293,294,295,292,293,294,295,292,293,293,295,295,295,295,295,294,295,292,293,294,295,292,293,294,295,292,293,295,295,295,295,295,294,295,292,293,294,295,292,
332,333,334,335,332,333,334,335,332,333,334,335,332,333,334,335,332,333,334,335,332,333,334,335,332,333,334,335,332,333,334,335,332,333,334,335,332,333,334,335,332,333,334,335,332,333,334,335,332,333,333,295,295,335,332,333,334,335,332,333,334,335,332,333,334,335,332,333,295,295,335,332,333,334,335,332,333,334,335,332,
295,374,295,295,373,374,375,372,373,374,375,372,373,374,375,372,373,295,374,295,295,373,374,375,372,373,374,375,372,373,374,375,372,373,295,374,295,295,373,374,375,372,373,374,375,372,373,374,375,372,373,295,374,295,295,373,374,375,372,373,374,375,372,373,374,375,372,373,295,374,295,295,373,374,375,372,373,374,375,372,
413,295,415,412,295,295,415,412,413,414,415,412,413,414,415,412,413,413,295,415,412,295,295,415,412,413,414,415,412,413,414,415,412,413,413,295,415,412,295,295,415,412,413,414,415,412,413,414,415,412,413,413,295,415,412,295,295,415,412,413,414,415,412,413,414,415,412,413,413,295,415,412,295,295,415,412,413,414,415,412,
293,295,295,292,295,295,295,295,295,295,295,292,293,294,295,295,295,293,295,295,292,295,295,295,295,295,295,295,292,293,294,295,295,295,293,295,295,292,295,295,295,295,295,295,295,292,293,294,295,295,295,293,295,295,292,295,295,295,295,295,295,295,292,293,294,295,295,295,293,295,295,292,295,295,295,295,295,295,295,292,
333,334,295,332,295,295,335,332,333,334,335,295,295,295,335,332,333,333,334,295,332,295,295,335,332,333,334,335,295,295,295,335,332,333,333,334,295,332,295,295,335,332,333,334,335,295,295,295,335,332,333,333,334,295,332,295,295,335,332,333,334,335,295,295,295,335,332,333,333,334,295,332,295,295,335,332,333,334,335,295,
373,374,295,372,373,374,295,295,295,374,375,372,373,374,375,372,373,373,374,295,372,373,374,295,295,295,374,375,372,373,374,375,372,373,373,374,295,372,373,374,295,295,295,374,375,372,373,374,375,372,373,373,374,295,372,373,374,295,295,295,374,375,372,373,374,375,372,373,373,374,295,372,373,374,295,295,295,374,375,372,
413,414,295,412,413,414,415,412,413,295,295,295,295,295,415,412,413,413,414,295,412,413,414,415,412,413,295,295,295,295,295,415,412,413,413,414,295,412,413,414,415,412,413,295,295,295,295,295,415,412,413,413,414,295,412,413,414,415,412,413,295,295,295,295,295,415,412,413,413,414,295,412,413,414,415,412,413,295,295,295,
293,294,295,295,295,294,295,292,293,294,295,292,293,295,295,292,293,293,294,295,295,295,294,295,292,293,294,295,292,293,295,295,292,293,293,294,295,295,295,294,295,292,293,294,295,292,293,295,295,292,293,293,294,295,295,295,294,295,292,293,294,295,292,293,295,295,292,293,293,294,295,295,295,294,295,292,293,294,295,292,
333,334,335,332,295,295,335,332,333,334,335,332,333,334,295,295,333,333,334,335,332,295,295,335,332,333,334,335,332,333,334,295,295,333,333,334,335,332,295,295,335,332,333,334,335,332,333,334,295,295,333,333,334,335,332,295,295,335,332,333,334,335,332,333,334,295,295,333,333,334,335,332,295,295,335,332,333,334,335,332,
373,374,375,372,373,374,295,295,373,374,375,372,373,295,295,372,373,373,374,375,372,373,374,295,295,373,374,375,372,373,295,295,372,373,373,374,375,372,373,374,295,295,373,374,375,372,373,295,295,372,373,373,374,375,372,373,374,295,295,373,374,375,372,373,295,295,372,373,373,374,375,372,373,374,295,295,373,374,375,372,
413,414,415,412,413,414,415,295,295,295,415,295,295,295,415,412,413,413,414,415,412,413,414,415,295,295,295,415,295,295,295,415,412,413,413,414,415,412,413,414,415,295,295,295,415,295,295,295,415,412,413,413,414,415,412,413,414,415,295,295,295,415,295,295,295,415,412,413,413,414,415,412,413,414,415,295,295,295,415,295,
293,294,295,292,293,294,295,292,293,295,295,295,293,294,295,292,293,293,294,295,292,293,294,295,292,293,295,295,295,293,294,295,292,293,293,294,295,292,293,294,295,292,293,295,295,295,293,294,295,292,293,293,294,295,292,293,294,295,292,293,295,295,295,293,294,295,292,293,293,294,295,292,293,294,295,292,293,295,295,295,
333,334,335,332,333,334,335,332,333,334,335,332,333,334,335,332,333,333,334,335,332,333,334,335,332,333,334,335,332,333,334,335,332,333,333,334,335,332,333,334,335,332,333,334,335,332,333,334,335,332,333,333,334,335,332,333,334,335,332,333,334,335,332,333,334,335,332,333,333,334,335,332,333,334,335,332,333,334,335,332,
373,374,375,372,373,374,375,372,373,374,375,372,373,374,375,372,373,373,374,375,372,373,374,375,372,373,374,375,372,373,374,375,372,373,373,374,375,372,373,374,375,372,373,374,375,372,373,374,375,372,373,373,374,375,372,373,374,375,372,373,374,375,372,373,374,375,372,373,373,374,375,372,373,374,375,372,373,374,375,372,
413,414,415,412,413,414,415,412,413,414,415,412,413,414,415,412,413,413,414,415,412,413,414,415,412,413,414,415,412,413,414,415,412,413,413,414,415,412,413,414,415,412,413,414,415,412,413,414,415,412,413,413,414,415,412,413,414,415,412,413,414,415,412,413,414,415,412,413,413,414,415,412,413,414,415,412,413,414,415,412,
293,294,295,292,293,294,295,292,293,294,295,292,293,294,295,292,293,293,294,295,292,293,294,295,292,293,294,295,292,293,294,295,292,293,293,294,295,292,293,294,295,292,293,294,295,292,293,294,295,292,293,293,294,295,292,293,294,295,292,293,294,295,292,293,294,295,292,293,293,294,295,292,293,294,295,292,293,294,295,292,
333,334,335,332,333,334,335,332,333,334,335,332,333,334,335,332,333,333,334,335,332,333,334,335,332,333,334,335,332,333,334,335,332,333,333,334,335,332,333,334,335,332,333,334,335,332,333,334,335,332,333,333,334,335,332,333,334,335,332,333,334,335,332,333,334,335,332,333,333,334,335,332,333,334,335,332,333,334,335,332,
373,374,375,372,373,374,375,372,373,374,375,372,373,374,375,372,373,373,374,375,372,373,374,375,372,373,374,375,372,373,374,375,372,373,373,374,375,372,373,374,375,372,373,374,375,372,373,374,375,372,373,373,374,375,372,373,374,375,372,373,374,375,372,373,374,375,372,373,373,374,375,372,373,374,375,372,373,374,375,372,
413,414,415,412,413,414,415,412,413,414,415,412,413,414,415,412,413,413,414,415,412,413,414,415,412,413,414,415,412,413,414,415,412,413,413,414,415,412,413,414,415,412,413,414,415,412,413,414,415,412,413,413,414,415,412,413,414,415,412,413,414,415,412,413,414,415,412,413,413,414,415,412,413,414,415,412,413,414,415,412,
293,294,295,292,293,294,295,292,293,294,295,292,293,294,295,292,293,293,294,295,292,293,294,295,292,293,294,295,292,293,294,295,292,293,293,294,295,292,293,294,295,292,293,294,295,292,293,294,295,292,293,293,294,295,292,293,294,295,292,293,294,295,292,293,294,295,292,293,293,294,295,292,293,294,295,292,293,294,295,292,
333,334,335,332,333,334,335,332,333,334,335,332,333,334,335,332,333,333,334,335,332,333,334,335,332,333,334,335,332,333,334,335,332,333,333,334,335,332,333,334,335,332,333,334,335,332,333,334,335,332,333,333,334,335,332,333,334,335,332,333,334,335,332,333,334,335,332,333,333,334,335,332,333,334,335,332,333,334,335,332,
373,374,375,372,373,374,375,372,373,374,375,372,373,374,375,372,373,373,374,375,372,373,374,375,372,373,374,375,372,373,374,375,372,373,373,374,375,372,373,374,375,372,373,374,375,372,373,374,375,372,373,373,374,375,372,373,374,375,372,373,374,375,372,373,374,375,372,373,373,374,375,372,373,374,375,372,373,374,375,372,
413,414,415,412,413,414,415,412,413,414,415,412,413,414,415,412,413,413,414,415,412,413,414,415,412,413,414,415,412,413,414,415,412,413,413,414,415,412,413,414,415,412,413,414,415,412,413,414,415,412,413,413,414,415,412,413,414,415,412,413,414,415,412,413,414,415,412,413,413,414,415,412,413,414,415,412,413,414,415,412,
293,294,295,292,293,294,295,292,293,294,295,292,293,294,295,292,293,293,294,295,292,293,294,295,292,293,294,295,292,293,294,295,292,293,293,294,295,292,293,294,295,292,293,294,295,292,293,294,295,292,293,293,294,295,292,293,294,295,292,293,294,295,292,293,294,295,292,293,293,294,295,292,293,294,295,292,293,294,295,292,
333,334,335,332,333,334,335,332,333,334,335,332,333,334,335,332,333,333,334,335,332,333,334,335,332,333,334,335,332,333,334,335,332,333,333,334,335,332,333,334,335,332,333,334,335,332,333,334,335,332,333,333,334,335,332,333,334,335,332,333,334,335,332,333,334,335,332,333,333,334,335,332,333,334,335,332,333,334,335,332,
373,374,375,372,373,374,375,372,373,374,375,372,373,374,375,372,373,373,374,375,372,373,374,375,372,373,374,375,372,373,374,375,372,373,373,374,375,372,373,374,375,372,373,374,375,372,373,374,375,372,373,373,374,375,372,373,374,375,372,373,374,375,372,373,374,375,372,373,373,374,375,372,373,374,375,372,373,374,375,372,
413,414,415,412,413,414,415,412,413,414,415,412,413,414,415,412,413,413,414,415,412,413,414,415,412,413,414,415,412,413,414,415,412,413,413,414,415,412,413,414,415,412,413,414,415,412,413,414,415,412,413,413,414,415,412,413,414,415,412,413,414,415,412,413,414,415,412,413,413,414,415,412,413,414,415,412,413,414,415,412,
293,294,295,292,293,294,295,292,293,294,295,292,293,294,295,292,293,293,294,295,292,293,294,295,292,293,294,295,292,293,294,295,292,293,293,294,295,292,293,294,295,292,293,294,295,292,293,294,295,292,293,293,294,295,292,293,294,295,292,293,294,295,292,293,294,295,292,293,293,294,295,292,293,294,295,292,293,294,295,292,
333,334,335,332,333,334,335,332,333,334,335,332,333,334,335,332,333,333,334,335,332,333,334,335,332,333,334,335,332,333,334,335,332,333,333,334,335,332,333,334,335,332,333,334,335,332,333,334,335,332,333,333,334,335,332,333,334,335,332,333,334,335,332,333,334,335,332,333,333,334,335,332,333,334,335,332,333,334,335,332,
373,374,375,372,373,374,375,372,373,374,375,372,373,374,375,372,373,373,374,375,372,373,374,375,372,373,374,375,372,373,374,375,372,373,373,374,375,372,373,374,375,372,373,374,375,372,373,374,375,372,373,373,374,375,372,373,374,375,372,373,374,375,372,373,374,375,372,373,373,374,375,372,373,374,375,372,373,374,375,372,
413,414,415,412,413,414,415,412,413,414,415,412,413,414,415,412,413,413,414,415,412,413,414,415,412,413,414,415,412,413,414,415,412,413,413,414,415,412,413,414,415,412,413,414,415,412,413,414,415,412,413,413,414,415,412,413,414,415,412,413,414,415,412,413,414,415,412,413,413,414,415,412,413,414,415,412,413,414,415,412
</data>
 </layer>
 <layer id="6" name="walls" width="80" height="80" locked="1">
  <data encoding="csv">
167,167,167,168,168,168,168,168,168,168,168,168,168,168,168,168,168,168,168,168,168,168,168,168,168,168,168,168,168,168,168,168,168,1610612904,1610612904,1610612904,1610612904,1610612904,1610612904,1610612904,1610612904,1610612904,1610612904,1610612904,1610612904,1610612904,1610612904,1610612904,1610612904,1610612904,1610612904,1610612904,1610612904,1610612904,1610612904,1610612904,1610612904,1610612904,1610612904,1610612904,1610612904,1610612904,1610612904,1610612904,1610612904,1610612904,1610612904,1610612904,1610612904,1610612904,1610612904,1610612904,1610612904,1610612904,1610612904,1610612904,1610612904,1610612904,1610612944,1610612904,
167,207,167,168,168,168,168,168,168,168,168,168,168,168,168,168,168,168,168,168,168,168,168,168,168,168,168,168,168,168,168,168,168,1610612904,1610612904,1610612904,1610612904,1610612904,1610612904,1610612904,1610612904,1610612904,1610612904,1610612904,1610612904,1610612904,1610612904,1610612904,1610612904,1610612904,1610612904,1610612904,1610612904,1610612904,1610612904,1610612904,1610612904,1610612904,1610612904,1610612904,1610612904,1610612904,1610612904,1610612904,1610612904,1610612904,1610612904,1610612904,1610612904,1610612904,1610612904,1610612904,1610612904,1610612904,1610612904,1610612904,1610612904,1610612903,1610612943,1610612904,
167,207,0,0,0,0,0,0,0,0,0,0,0,0,0,0,0,0,0,0,0,0,0,0,0,0,0,0,0,0,0,0,0,0,0,0,0,0,0,0,0,0,0,0,0,0,0,0,0,0,0,0,0,0,0,0,0,0,0,0,0,0,0,0,0,0,0,0,0,0,0,0,0,0,0,0,0,0,168,168,
167,207,0,0,0,0,0,0,0,0,0,0,0,0,0,0,0,0,0,0,0,0,0,0,0,0,0,0,0,0,0,0,0,0,0,0,0,0,0,0,0,0,0,0,0,0,0,0,0,0,0,0,0,0,0,0,0,0,0,0,0,0,0,0,0,0,0,0,0,0,0,0,0,0,0,0,0,0,168,168,
167,207,0,0,0,0,0,0,0,0,0,0,0,0,0,0,0,0,0,0,0,0,0,0,0,0,0,0,0,0,0,0,0,0,0,0,0,0,0,0,0,0,0,0,0,0,0,0,0,0,0,0,0,0,0,0,0,0,0,0,0,0,0,0,0,0,0,0,0,0,0,0,0,0,0,0,0,0,168,168,
167,207,0,0,0,0,0,0,0,0,0,0,0,0,0,0,0,0,0,0,0,0,0,0,0,0,0,0,0,0,0,0,0,0,0,0,0,0,0,0,0,0,0,0,0,0,0,0,0,0,0,0,0,0,0,0,0,0,0,0,0,0,0,0,0,0,0,0,0,0,0,0,0,0,0,0,0,0,168,168,
167,207,0,0,0,0,0,0,0,0,0,0,0,0,0,0,0,0,0,0,0,0,0,0,0,0,0,0,0,0,0,0,0,0,0,0,0,0,0,0,0,0,0,0,0,0,0,0,0,0,0,0,0,0,0,0,0,0,0,0,0,0,0,0,0,0,0,0,0,0,0,0,0,0,0,0,0,0,168,168,
167,207,0,0,0,0,0,0,0,0,0,0,0,0,0,0,0,0,0,0,0,0,0,0,0,0,0,0,0,0,0,0,0,0,0,0,0,0,0,0,0,0,0,0,0,0,0,0,0,0,0,0,0,0,0,0,0,0,0,0,0,0,0,0,0,0,0,0,0,0,0,0,0,0,0,0,0,0,168,168,
167,207,0,0,0,0,0,0,0,0,0,0,0,0,0,0,0,0,0,0,0,0,0,0,0,0,0,0,0,0,0,0,0,0,0,0,0,0,0,0,0,0,0,0,0,0,0,0,0,0,0,0,0,0,0,0,0,0,0,0,0,0,0,0,0,0,0,0,0,0,0,0,0,0,0,0,0,0,168,168,
167,207,0,0,0,0,0,0,0,0,0,0,0,0,0,0,0,0,0,0,0,0,0,0,0,0,0,0,0,0,0,0,0,0,0,0,0,0,0,0,0,0,0,0,0,0,0,0,0,0,0,0,0,0,0,0,0,0,0,0,0,0,0,0,0,0,0,0,0,0,0,0,0,0,0,0,0,0,168,168,
167,207,0,0,0,0,0,0,0,0,0,0,0,0,0,0,0,0,0,0,0,0,0,0,0,0,0,0,0,0,0,0,0,0,0,0,0,0,0,0,0,0,0,0,0,0,0,0,0,0,0,0,0,0,0,0,0,0,0,0,0,0,0,0,0,0,0,0,0,0,0,0,0,0,0,0,0,0,168,168,
168,207,0,0,0,0,0,0,0,0,0,0,0,0,0,0,0,0,0,0,0,0,0,0,0,0,0,0,0,0,0,0,0,0,0,0,0,0,0,0,0,0,0,0,0,0,0,0,0,0,0,0,0,0,0,0,0,0,0,0,0,0,0,0,0,0,0,0,0,0,0,0,0,0,0,0,0,0,168,168,
168,207,0,0,0,0,0,0,0,0,0,0,0,0,0,0,0,0,0,0,0,0,0,0,0,0,0,0,0,0,0,0,0,0,0,0,0,0,0,0,0,0,0,0,0,0,0,0,0,0,0,0,0,0,0,0,0,0,0,0,0,0,0,0,0,0,0,0,0,0,0,0,0,0,0,0,0,0,168,168,
168,207,0,0,0,0,0,0,0,0,0,0,0,0,0,0,0,0,0,0,0,0,0,0,0,0,0,0,0,0,0,0,0,0,0,0,0,0,0,0,0,0,0,0,0,0,0,0,0,0,0,0,0,0,0,0,0,0,0,0,0,0,0,0,0,0,0,0,0,0,0,0,0,0,0,0,0,0,168,168,
168,207,0,0,0,0,0,0,0,0,0,0,0,0,0,0,0,0,0,0,0,0,0,0,0,0,0,0,0,0,0,0,0,0,0,0,0,0,0,0,0,0,0,0,0,0,0,0,0,0,0,0,0,0,0,0,0,0,0,0,0,0,0,0,0,0,0,0,0,0,0,0,0,0,0,0,0,0,168,168,
168,207,0,0,0,0,0,0,0,0,0,0,0,0,0,0,0,0,0,0,0,0,0,0,0,0,0,0,0,0,0,0,0,0,0,0,0,0,0,0,0,0,0,0,0,0,0,0,0,0,0,0,0,0,0,0,0,0,0,0,0,0,0,0,0,0,0,0,0,0,0,0,0,0,0,0,0,0,168,168,
168,207,0,0,0,0,0,0,0,0,0,0,0,0,0,0,0,0,0,0,0,0,0,0,0,0,0,0,0,0,0,0,0,0,0,0,0,0,0,0,0,0,0,0,0,0,0,0,0,0,0,0,0,0,0,0,0,0,0,0,0,0,0,0,0,0,0,0,0,0,0,0,0,0,0,0,0,0,168,168,
168,207,0,0,0,0,0,0,0,0,0,0,0,0,0,0,0,0,0,0,0,0,0,0,0,0,0,0,0,0,0,0,0,0,0,0,0,0,0,0,0,0,0,0,0,0,0,0,0,0,0,0,0,0,0,0,0,0,0,0,0,0,0,0,0,0,0,0,0,0,0,0,0,0,0,0,0,0,168,168,
168,207,0,0,0,0,0,0,0,0,0,0,0,0,0,0,0,0,0,0,0,0,0,0,0,0,0,0,0,0,0,0,0,0,0,0,0,0,0,0,0,0,0,0,0,0,0,0,0,0,0,0,0,0,0,0,0,0,0,0,0,0,0,0,0,0,0,0,0,0,0,0,0,0,0,0,0,0,168,168,
168,207,0,0,0,0,0,0,0,0,0,0,0,0,0,0,0,0,0,0,0,0,0,0,0,0,0,0,0,0,0,0,0,0,0,0,0,0,0,0,0,0,0,0,0,0,0,0,0,0,0,0,0,0,0,0,0,0,0,0,0,0,0,0,0,0,0,0,0,0,0,0,0,0,0,0,0,0,168,168,
168,207,0,0,0,0,0,0,0,0,0,0,0,0,0,0,0,0,0,0,0,0,0,0,0,0,0,0,0,0,0,0,0,0,0,0,0,0,0,0,0,0,0,0,0,0,0,0,0,0,0,0,0,0,0,0,0,0,0,0,0,0,0,0,0,0,0,0,0,0,0,0,0,0,0,0,0,0,168,168,
168,207,0,0,0,0,0,0,0,0,0,0,0,0,0,0,0,0,0,0,0,0,0,0,0,0,0,0,0,0,0,0,0,0,0,0,0,0,0,0,0,0,0,0,0,0,0,0,0,0,0,0,0,0,0,0,0,0,0,0,0,0,0,0,0,0,0,0,0,0,0,0,0,0,0,0,0,0,168,168,
168,207,0,0,0,0,0,0,0,0,0,0,0,0,0,0,0,0,0,0,0,0,0,0,0,0,0,0,0,0,0,0,0,0,0,0,0,0,0,0,0,0,0,0,0,0,0,0,0,0,0,0,0,0,0,0,0,0,0,0,0,0,0,0,0,0,0,0,0,0,0,0,0,0,0,0,0,0,168,168,
168,207,0,0,0,0,0,0,0,0,0,0,0,0,0,0,0,0,0,0,0,0,0,0,0,0,0,0,0,0,0,0,0,0,0,0,0,0,0,0,0,0,0,0,0,0,0,0,0,0,0,0,0,0,0,0,0,0,0,0,0,0,0,0,0,0,0,0,0,0,0,0,0,0,0,0,0,0,168,168,
168,207,0,0,0,0,0,0,0,0,0,0,0,0,0,0,0,0,0,0,0,0,0,0,0,0,0,0,0,0,0,0,0,0,0,0,0,0,0,0,0,0,0,0,0,0,0,0,0,0,0,0,0,0,0,0,0,0,0,0,0,0,0,0,0,0,0,0,0,0,0,0,0,0,0,0,0,0,168,168,
168,207,0,0,0,0,0,0,0,0,0,0,0,0,0,0,0,0,0,0,0,0,0,0,0,0,0,0,0,0,0,0,0,0,0,0,0,0,0,0,0,0,0,0,0,0,0,0,0,0,0,0,0,0,0,0,0,0,0,0,0,0,0,0,0,0,0,0,0,0,0,0,0,0,0,0,0,0,168,168,
167,207,0,0,0,0,0,0,0,0,0,0,0,0,0,0,0,0,0,0,0,0,0,0,0,0,0,0,0,0,0,0,0,0,0,0,0,0,0,0,0,0,0,0,0,0,0,0,0,0,0,0,0,0,0,0,0,0,0,0,0,0,0,0,0,0,0,0,0,0,0,0,0,0,0,0,0,0,168,168,
167,207,0,0,0,0,0,0,0,0,0,0,0,0,0,0,0,0,0,0,0,0,0,0,0,0,0,0,0,0,0,0,0,0,0,0,0,0,0,0,0,0,0,0,0,0,0,0,0,0,0,0,0,0,0,0,0,0,0,0,0,0,0,0,0,0,0,0,0,0,0,0,0,0,0,0,0,0,168,168,
167,207,0,0,0,0,0,0,0,0,0,0,0,0,0,0,0,0,0,0,0,0,0,0,0,0,0,0,0,0,0,0,0,0,0,0,0,0,0,0,0,0,0,0,0,0,0,0,0,0,0,0,0,0,0,0,0,0,0,0,0,0,0,0,0,0,0,0,0,0,0,0,0,0,0,0,0,0,168,168,
168,207,0,0,0,0,0,0,0,0,0,0,0,0,0,0,0,0,0,0,0,0,0,0,0,0,0,0,0,0,0,0,0,0,0,0,0,0,0,0,0,0,0,0,0,0,0,0,0,0,0,0,0,0,0,0,0,0,0,0,0,0,0,0,0,0,0,0,0,0,0,0,0,0,0,0,0,0,168,168,
168,207,0,0,0,0,0,0,0,0,0,0,0,0,0,0,0,0,0,0,0,0,0,0,0,0,0,0,0,0,0,0,0,0,0,0,0,0,0,0,0,0,0,0,0,0,0,0,0,0,0,0,0,0,0,0,0,0,0,0,0,0,0,0,0,0,0,0,0,0,0,0,0,0,0,0,0,0,168,168,
168,207,0,0,0,0,0,0,0,0,0,0,0,0,0,0,0,0,0,0,0,0,0,0,0,0,0,0,0,0,0,0,0,0,0,0,0,0,0,0,0,0,0,0,0,0,0,0,0,0,0,0,0,0,0,0,0,0,0,0,0,0,0,0,0,0,0,0,0,0,0,0,0,0,0,0,0,0,168,168,
168,207,0,0,0,0,0,0,0,0,0,0,0,0,0,0,0,0,0,0,0,0,0,0,0,0,0,0,0,0,0,0,0,0,0,0,0,0,0,0,0,0,0,0,0,0,0,0,0,0,0,0,0,0,0,0,0,0,0,0,0,0,0,0,0,0,0,0,0,0,0,0,0,0,0,0,0,0,168,168,
168,207,0,0,0,0,0,0,0,0,0,0,0,0,0,0,0,0,0,0,0,0,0,0,0,0,0,0,0,0,0,0,0,0,0,0,0,0,0,0,0,0,0,0,0,0,0,0,0,0,0,0,0,0,0,0,0,0,0,0,0,0,0,0,0,0,0,0,0,0,0,0,0,0,0,0,0,0,168,168,
168,207,0,0,0,0,0,0,0,0,0,0,0,0,0,0,0,0,0,0,0,0,0,0,0,0,0,0,0,0,0,0,0,0,0,0,0,0,0,0,0,0,0,0,0,0,0,0,0,0,0,0,0,0,0,0,0,0,0,0,0,0,0,0,0,0,0,0,0,0,0,0,0,0,0,0,0,0,168,168,
168,207,0,0,0,0,0,0,0,0,0,0,0,0,0,0,0,0,0,0,0,0,0,0,0,0,0,0,0,0,0,0,0,0,0,0,0,0,0,0,0,0,0,0,0,0,0,0,0,0,0,0,0,0,0,0,0,0,0,0,0,0,0,0,0,0,0,0,0,0,0,0,0,0,0,0,0,0,168,168,
168,207,0,0,0,0,0,0,0,0,0,0,0,0,0,0,0,0,0,0,0,0,0,0,0,0,0,0,0,0,0,0,0,0,0,0,0,0,0,0,0,0,0,0,0,0,0,0,0,0,0,0,0,0,0,0,0,0,0,0,0,0,0,0,0,0,0,0,0,0,0,0,0,0,0,0,0,0,168,168,
167,168,0,0,0,0,0,0,0,0,0,0,0,0,0,0,0,0,0,0,0,0,0,0,0,0,0,0,0,0,0,0,0,0,0,0,0,0,0,0,0,0,0,0,0,0,0,0,0,0,0,0,0,0,0,0,0,0,0,0,0,0,0,0,0,0,0,0,0,0,0,0,0,0,0,0,0,0,168,168,
167,168,0,0,0,0,0,0,0,0,0,0,0,0,0,0,0,0,0,0,0,0,0,0,0,0,0,0,0,0,0,0,0,0,0,0,0,0,0,0,0,0,0,0,0,0,0,0,0,0,0,0,0,0,0,0,0,0,0,0,0,0,0,0,0,0,0,0,0,0,0,0,0,0,0,0,0,0,168,168,
167,168,0,0,0,0,0,0,0,0,0,0,0,0,0,0,0,0,0,0,0,0,0,0,0,0,0,0,0,0,0,0,0,0,0,0,0,0,0,0,0,0,0,0,0,0,0,0,0,0,0,0,0,0,0,0,0,0,0,0,0,0,0,0,0,0,0,0,0,0,0,0,0,0,0,0,0,0,168,168,
167,168,0,0,0,0,0,0,0,0,0,0,0,0,0,0,0,0,0,0,0,0,0,0,0,0,0,0,0,0,0,0,0,0,0,0,0,0,0,0,0,0,0,0,0,0,0,0,0,0,0,0,0,0,0,0,0,0,0,0,0,0,0,0,0,0,0,0,0,0,0,0,0,0,0,0,0,0,168,168,
167,168,0,0,0,0,0,0,0,0,0,0,0,0,0,0,0,0,0,0,0,0,0,0,0,0,0,0,0,0,0,0,0,0,0,0,0,0,0,0,0,0,0,0,0,0,0,0,0,0,0,0,0,0,0,0,0,0,0,0,0,0,0,0,0,0,0,0,0,0,0,0,0,0,0,0,0,0,168,168,
167,168,0,0,0,0,0,0,0,0,0,0,0,0,0,0,0,0,0,0,0,0,0,0,0,0,0,0,0,0,0,0,0,0,0,0,0,0,0,0,0,0,0,0,0,0,0,0,0,0,0,0,0,0,0,0,0,0,0,0,0,0,0,0,0,0,0,0,0,0,0,0,0,0,0,0,0,0,168,168,
167,168,0,0,0,0,0,0,0,0,0,0,0,0,0,0,0,0,0,0,0,0,0,0,0,0,0,0,0,0,0,0,0,0,0,0,0,0,0,0,0,0,0,0,0,0,0,0,0,0,0,0,0,0,0,0,0,0,0,0,0,0,0,0,0,0,0,0,0,0,0,0,0,0,0,0,0,0,168,168,
207,208,0,0,0,0,0,0,0,0,0,0,0,0,0,0,0,0,0,0,0,0,0,0,0,0,0,0,0,0,0,0,0,0,0,0,0,0,0,0,0,0,0,0,0,0,0,0,0,0,0,0,0,0,0,0,0,0,0,0,0,0,0,0,0,0,0,0,0,0,0,0,0,0,0,0,0,0,168,168,
167,168,0,0,0,0,0,0,0,0,0,0,0,0,0,0,0,0,0,0,0,0,0,0,0,0,0,0,0,0,0,0,0,0,0,0,0,0,0,0,0,0,0,0,0,0,0,0,0,0,0,0,0,0,0,0,0,0,0,0,0,0,0,0,0,0,0,0,0,0,0,0,0,0,0,0,0,0,168,168,
167,168,0,0,0,0,0,0,0,0,0,0,0,0,0,0,0,0,0,0,0,0,0,0,0,0,0,0,0,0,0,0,0,0,0,0,0,0,0,0,0,0,0,0,0,0,0,0,0,0,0,0,0,0,0,0,0,0,0,0,0,0,0,0,0,0,0,0,0,0,0,0,0,0,0,0,0,0,168,168,
167,168,0,0,0,0,0,0,0,0,0,0,0,0,0,0,0,0,0,0,0,0,0,0,0,0,0,0,0,0,0,0,0,0,0,0,0,0,0,0,0,0,0,0,0,0,0,0,0,0,0,0,0,0,0,0,0,0,0,0,0,0,0,0,0,0,0,0,0,0,0,0,0,0,0,0,0,0,168,168,
168,168,0,0,0,0,0,0,0,0,0,0,0,0,0,0,0,0,0,0,0,0,0,0,0,0,0,0,0,0,0,0,0,0,0,0,0,0,0,0,0,0,0,0,0,0,0,0,0,0,0,0,0,0,0,0,0,0,0,0,0,0,0,0,0,0,0,0,0,0,0,0,0,0,0,0,0,0,168,168,
168,168,0,0,0,0,0,0,0,0,0,0,0,0,0,0,0,0,0,0,0,0,0,0,0,0,0,0,0,0,0,0,0,0,0,0,0,0,0,0,0,0,0,0,0,0,0,0,0,0,0,0,0,0,0,0,0,0,0,0,0,0,0,0,0,0,0,0,0,0,0,0,0,0,0,0,0,0,168,168,
168,168,0,0,0,0,0,0,0,0,0,0,0,0,0,0,0,0,0,0,0,0,0,0,0,0,0,0,0,0,0,0,0,0,0,0,0,0,0,0,0,0,0,0,0,0,0,0,0,0,0,0,0,0,0,0,0,0,0,0,0,0,0,0,0,0,0,0,0,0,0,0,0,0,0,0,0,0,168,168,
168,168,0,0,0,0,0,0,0,0,0,0,0,0,0,0,0,0,0,0,0,0,0,0,0,0,0,0,0,0,0,0,0,0,0,0,0,0,0,0,0,0,0,0,0,0,0,0,0,0,0,0,0,0,0,0,0,0,0,0,0,0,0,0,0,0,0,0,0,0,0,0,0,0,0,0,0,0,168,168,
168,168,0,0,0,0,0,0,0,0,0,0,0,0,0,0,0,0,0,0,0,0,0,0,0,0,0,0,0,0,0,0,0,0,0,0,0,0,0,0,0,0,0,0,0,0,0,0,0,0,0,0,0,0,0,0,0,0,0,0,0,0,0,0,0,0,0,0,0,0,0,0,0,0,0,0,0,0,168,168,
168,168,0,0,0,0,0,0,0,0,0,0,0,0,0,0,0,0,0,0,0,0,0,0,0,0,0,0,0,0,0,0,0,0,0,0,0,0,0,0,0,0,0,0,0,0,0,0,0,0,0,0,0,0,0,0,0,0,0,0,0,0,0,0,0,0,0,0,0,0,0,0,0,0,0,0,0,0,168,168,
168,168,0,0,0,0,0,0,0,0,0,0,0,0,0,0,0,0,0,0,0,0,0,0,0,0,0,0,0,0,0,0,0,0,0,0,0,0,0,0,0,0,0,0,0,0,0,0,0,0,0,0,0,0,0,0,0,0,0,0,0,0,0,0,0,0,0,0,0,0,0,0,0,0,0,0,0,0,168,168,
168,168,0,0,0,0,0,0,0,0,0,0,0,0,0,0,0,0,0,0,0,0,0,0,0,0,0,0,0,0,0,0,0,0,0,0,0,0,0,0,0,0,0,0,0,0,0,0,0,0,0,0,0,0,0,0,0,0,0,0,0,0,0,0,0,0,0,0,0,0,0,0,0,0,0,0,0,0,168,168,
168,168,0,0,0,0,0,0,0,0,0,0,0,0,0,0,0,0,0,0,0,0,0,0,0,0,0,0,0,0,0,0,0,0,0,0,0,0,0,0,0,0,0,0,0,0,0,0,0,0,0,0,0,0,0,0,0,0,0,0,0,0,0,0,0,0,0,0,0,0,0,0,0,0,0,0,0,0,168,168,
168,168,0,0,0,0,0,0,0,0,0,0,0,0,0,0,0,0,0,0,0,0,0,0,0,0,0,0,0,0,0,0,0,0,0,0,0,0,0,0,0,0,0,0,0,0,0,0,0,0,0,0,0,0,0,0,0,0,0,0,0,0,0,0,0,0,0,0,0,0,0,0,0,0,0,0,0,0,168,168,
168,168,0,0,0,0,0,0,0,0,0,0,0,0,0,0,0,0,0,0,0,0,0,0,0,0,0,0,0,0,0,0,0,0,0,0,0,0,0,0,0,0,0,0,0,0,0,0,0,0,0,0,0,0,0,0,0,0,0,0,0,0,0,0,0,0,0,0,0,0,0,0,0,0,0,0,0,0,168,168,
168,168,0,0,0,0,0,0,0,0,0,0,0,0,0,0,0,0,0,0,0,0,0,0,0,0,0,0,0,0,0,0,0,0,0,0,0,0,0,0,0,0,0,0,0,0,0,0,0,0,0,0,0,0,0,0,0,0,0,0,0,0,0,0,0,0,0,0,0,0,0,0,0,0,0,0,0,0,168,168,
168,168,0,0,0,0,0,0,0,0,0,0,0,0,0,0,0,0,0,0,0,0,0,0,0,0,0,0,0,0,0,0,0,0,0,0,0,0,0,0,0,0,0,0,0,0,0,0,0,0,0,0,0,0,0,0,0,0,0,0,0,0,0,0,0,0,0,0,0,0,0,0,0,0,0,0,0,0,168,168,
168,168,0,0,0,0,0,0,0,0,0,0,0,0,0,0,0,0,0,0,0,0,0,0,0,0,0,0,0,0,0,0,0,0,0,0,0,0,0,0,0,0,0,0,0,0,0,0,0,0,0,0,0,0,0,0,0,0,0,0,0,0,0,0,0,0,0,0,0,0,0,0,0,0,0,0,0,0,168,168,
168,168,0,0,0,0,0,0,0,0,0,0,0,0,0,0,0,0,0,0,0,0,0,0,0,0,0,0,0,0,0,0,0,0,0,0,0,0,0,0,0,0,0,0,0,0,0,0,0,0,0,0,0,0,0,0,0,0,0,0,0,0,0,0,0,0,0,0,0,0,0,0,0,0,0,0,0,0,168,168,
168,168,0,0,0,0,0,0,0,0,0,0,0,0,0,0,0,0,0,0,0,0,0,0,0,0,0,0,0,0,0,0,0,0,0,0,0,0,0,0,0,0,0,0,0,0,0,0,0,0,0,0,0,0,0,0,0,0,0,0,0,0,0,0,0,0,0,0,0,0,0,0,0,0,0,0,0,0,168,168,
168,168,0,0,0,0,0,0,0,0,0,0,0,0,0,0,0,0,0,0,0,0,0,0,0,0,0,0,0,0,0,0,0,0,0,0,0,0,0,0,0,0,0,0,0,0,0,0,0,0,0,0,0,0,0,0,0,0,0,0,0,0,0,0,0,0,0,0,0,0,0,0,0,0,0,0,0,0,168,168,
168,168,0,0,0,0,0,0,0,0,0,0,0,0,0,0,0,0,0,0,0,0,0,0,0,0,0,0,0,0,0,0,0,0,0,0,0,0,0,0,0,0,0,0,0,0,0,0,0,0,0,0,0,0,0,0,0,0,0,0,0,0,0,0,0,0,0,0,0,0,0,0,0,0,0,0,0,0,168,168,
168,168,0,0,0,0,0,0,0,0,0,0,0,0,0,0,0,0,0,0,0,0,0,0,0,0,0,0,0,0,0,0,0,0,0,0,0,0,0,0,0,0,0,0,0,0,0,0,0,0,0,0,0,0,0,0,0,0,0,0,0,0,0,0,0,0,0,0,0,0,0,0,0,0,0,0,0,0,168,168,
168,168,0,0,0,0,0,0,0,0,0,0,0,0,0,0,0,0,0,0,0,0,0,0,0,0,0,0,0,0,0,0,0,0,0,0,0,0,0,0,0,0,0,0,0,0,0,0,0,0,0,0,0,0,0,0,0,0,0,0,0,0,0,0,0,0,0,0,0,0,0,0,0,0,0,0,0,0,168,168,
168,168,0,0,0,0,0,0,0,0,0,0,0,0,0,0,0,0,0,0,0,0,0,0,0,0,0,0,0,0,0,0,0,0,0,0,0,0,0,0,0,0,0,0,0,0,0,0,0,0,0,0,0,0,0,0,0,0,0,0,0,0,0,0,0,0,0,0,0,0,0,0,0,0,0,0,0,0,168,168,
168,168,0,0,0,0,0,0,0,0,0,0,0,0,0,0,0,0,0,0,0,0,0,0,0,0,0,0,0,0,0,0,0,0,0,0,0,0,0,0,0,0,0,0,0,0,0,0,0,0,0,0,0,0,0,0,0,0,0,0,0,0,0,0,0,0,0,0,0,0,0,0,0,0,0,0,0,0,168,168,
168,168,0,0,0,0,0,0,0,0,0,0,0,0,0,0,0,0,0,0,0,0,0,0,0,0,0,0,0,0,0,0,0,0,0,0,0,0,0,0,0,0,0,0,0,0,0,0,0,0,0,0,0,0,0,0,0,0,0,0,0,0,0,0,0,0,0,0,0,0,0,0,0,0,0,0,0,0,168,168,
168,168,0,0,0,0,0,0,0,0,0,0,0,0,0,0,0,0,0,0,0,0,0,0,0,0,0,0,0,0,0,0,0,0,0,0,0,0,0,0,0,0,0,0,0,0,0,0,0,0,0,0,0,0,0,0,0,0,0,0,0,0,0,0,0,0,0,0,0,0,0,0,0,0,0,0,0,0,168,168,
168,168,0,0,0,0,0,0,0,0,0,0,0,0,0,0,0,0,0,0,0,0,0,0,0,0,0,0,0,0,0,0,0,0,0,0,0,0,0,0,0,0,0,0,0,0,0,0,0,0,0,0,0,0,0,0,0,0,0,0,0,0,0,0,0,0,0,0,0,0,0,0,0,0,0,0,0,0,168,168,
168,168,0,0,0,0,0,0,0,0,0,0,0,0,0,0,0,0,0,0,0,0,0,0,0,0,0,0,0,0,0,0,0,0,0,0,0,0,0,0,0,0,0,0,0,0,0,0,0,0,0,0,0,0,0,0,0,0,0,0,0,0,0,0,0,0,0,0,0,0,0,0,0,0,0,0,0,0,168,168,
168,168,0,0,0,0,0,0,0,0,0,0,0,0,0,0,0,0,0,0,0,0,0,0,0,0,0,0,0,0,0,0,0,0,0,0,0,0,0,0,0,0,0,0,0,0,0,0,0,0,0,0,0,0,0,0,0,0,0,0,0,0,0,0,0,0,0,0,0,0,0,0,0,0,0,0,0,0,168,168,
168,168,0,0,0,0,0,0,0,0,0,0,0,0,0,0,0,0,0,0,0,0,0,0,0,0,0,0,0,0,0,0,0,0,0,0,0,0,0,0,0,0,0,0,0,0,0,0,0,0,0,0,0,0,0,0,0,0,0,0,0,0,0,0,0,0,0,0,0,0,0,0,0,0,0,0,0,0,168,168,
168,168,0,0,0,0,0,0,0,0,0,0,0,0,0,0,0,0,0,0,0,0,0,0,0,0,0,0,0,0,0,0,0,0,0,0,0,0,0,0,0,0,0,0,0,0,0,0,0,0,0,0,0,0,0,0,0,0,0,0,0,0,0,0,0,0,0,0,0,0,0,0,0,0,0,0,0,0,168,168,
168,168,0,0,0,0,0,0,0,0,0,0,0,0,0,0,0,0,0,0,0,0,0,0,0,0,0,0,0,0,0,0,0,0,0,0,0,0,0,0,0,0,0,0,0,0,0,0,0,0,0,0,0,0,0,0,0,0,0,0,0,0,0,0,0,0,0,0,0,0,0,0,0,0,0,0,0,0,167,168,
168,168,1610612904,1610612904,1610612904,1610612904,1610612904,1610612904,1610612904,1610612904,1610612904,1610612904,1610612904,1610612904,1610612904,1610612904,1610612904,1610612904,1610612904,1610612904,1610612904,1610612904,1610612904,1610612904,1610612904,1610612904,1610612904,1610612904,1610612904,1610612904,1610612904,1610612904,1610612904,1610612904,1610612904,1610612904,1610612904,1610612904,1610612904,1610612904,1610612904,1610612904,1610612904,1610612904,1610612904,1610612904,1610612904,1610612904,1610612904,1610612904,1610612904,1610612904,1610612904,1610612904,1610612904,1610612904,1610612904,1610612904,1610612904,1610612904,1610612904,1610612904,1610612904,1610612904,1610612904,1610612904,1610612904,1610612904,1610612904,1610612904,1610612904,1610612904,1610612904,1610612904,1610612904,1610612904,1610612904,1610612904,1610612944,1610612904,
168,168,1610612904,1610612904,1610612904,1610612904,1610612904,1610612904,1610612904,1610612904,1610612904,1610612904,1610612904,1610612904,1610612904,1610612904,1610612904,1610612904,1610612904,1610612904,1610612904,1610612904,1610612904,1610612904,1610612904,1610612904,1610612904,1610612904,1610612904,1610612904,1610612904,1610612904,1610612904,1610612904,1610612904,1610612904,1610612904,1610612904,1610612904,1610612904,1610612904,1610612904,1610612904,1610612904,1610612904,1610612904,1610612904,1610612904,1610612904,1610612904,1610612904,1610612904,1610612904,1610612904,1610612904,1610612904,1610612904,1610612904,1610612904,1610612904,1610612904,1610612904,1610612904,1610612904,1610612904,1610612904,1610612904,1610612904,1610612904,1610612904,1610612904,1610612904,1610612904,1610612904,1610612904,1610612904,1610612904,1610612903,1610612943,1610612904
</data>
 </layer>
 <layer id="16" name="mur" width="80" height="80" locked="1">
  <data encoding="csv">
0,0,0,0,0,0,0,0,0,0,0,0,0,0,0,0,0,0,0,0,0,0,0,0,0,0,0,0,0,0,0,0,0,0,0,0,0,0,0,0,0,0,0,0,0,0,0,0,0,0,0,0,0,0,0,0,0,0,0,0,0,0,0,0,0,0,0,0,0,0,0,0,0,0,0,0,0,0,0,0,
0,0,0,0,0,0,0,0,0,0,0,0,0,0,0,0,0,0,0,0,0,0,0,0,0,0,0,0,0,0,0,0,0,0,0,0,0,0,0,0,0,0,0,0,0,0,0,0,0,0,0,0,0,0,0,0,0,0,0,0,0,0,0,0,0,0,0,0,0,0,0,0,0,0,0,0,0,0,0,0,
0,0,0,0,0,0,0,0,0,0,0,0,0,0,0,0,0,0,0,0,0,0,0,0,2684354831,0,0,0,0,1610612927,0,0,0,0,0,0,0,0,0,0,0,0,0,0,0,0,0,2684354751,0,0,0,0,0,0,0,0,0,0,0,0,0,0,0,0,0,0,0,0,0,0,0,0,0,0,0,0,0,0,0,0,
0,0,0,0,0,0,0,0,0,0,0,0,0,0,0,0,0,0,0,0,0,0,0,0,2684354831,0,0,0,0,1610612927,0,0,0,0,0,0,0,0,0,0,0,0,0,0,0,0,0,2684354751,0,0,0,0,0,0,0,0,0,0,0,0,0,0,0,0,0,0,0,0,0,0,0,0,0,0,0,0,0,0,0,0,
0,0,0,0,0,0,0,0,0,0,0,0,0,0,0,0,0,0,0,0,0,0,0,0,2684354831,0,0,0,0,1610612927,0,0,0,0,0,0,0,0,0,0,0,0,0,0,0,0,0,2684354751,0,0,0,0,0,0,0,0,0,0,0,0,0,0,0,0,0,0,0,0,0,0,0,0,0,0,0,0,0,0,0,0,
0,0,0,0,0,0,0,0,0,0,0,0,0,0,0,0,2684354831,0,0,0,0,0,0,0,2684354831,0,0,0,0,1610612927,0,0,0,0,0,0,0,0,0,0,0,0,0,0,0,0,0,2684354751,0,0,0,0,0,0,0,0,0,0,0,0,0,0,0,2684354751,0,0,0,0,0,0,0,0,0,0,0,0,0,0,0,0,
0,0,0,0,0,0,0,0,0,0,0,0,0,0,0,0,2684354831,0,0,0,0,0,0,0,0,0,0,0,0,2684354831,0,0,0,0,0,0,0,0,2684354831,0,0,0,0,0,0,0,0,2684354751,0,0,0,0,0,0,0,0,0,0,0,0,0,0,0,2684354751,0,0,0,0,0,0,0,0,0,0,0,0,0,0,0,0,
0,0,0,0,0,0,0,0,271,0,0,0,0,0,0,0,2684354831,0,0,0,0,0,0,0,0,0,0,0,0,2684354831,0,0,0,0,0,0,0,0,2684354831,0,0,0,0,0,0,0,0,2684354751,0,0,0,0,0,0,0,0,0,0,0,0,0,0,0,2684354751,0,0,0,0,0,0,0,0,0,0,0,0,0,0,0,0,
0,0,0,0,0,0,0,0,311,0,0,0,0,0,0,0,271,0,0,0,0,0,0,0,0,0,0,0,0,191,0,0,0,0,0,0,0,0,2684354831,0,0,0,0,0,0,0,0,2684354751,0,0,0,0,0,0,0,0,0,0,0,0,0,0,0,2684354751,0,0,0,0,0,0,0,0,0,0,0,0,0,0,0,0,
0,0,0,0,0,0,0,0,351,0,0,0,191,191,191,191,191,191,191,191,191,0,0,0,0,0,0,0,0,231,0,0,0,0,0,0,0,0,191,191,191,191,191,191,271,271,271,2684354751,191,191,191,191,191,191,191,191,3221225663,3221225663,3221225663,3221225663,3221225663,3221225663,3221225663,3221225663,0,0,0,0,0,0,0,0,0,0,0,0,0,0,0,0,
0,0,0,0,0,0,0,0,391,0,0,0,0,0,0,0,0,0,191,0,0,0,0,0,0,0,0,0,0,271,0,0,0,0,0,0,0,0,231,0,0,0,0,0,0,0,0,0,0,2684354751,0,0,0,0,0,0,0,0,0,0,0,0,0,0,0,0,0,0,0,0,0,0,0,0,0,0,0,0,0,0,
0,0,0,0,0,0,0,0,431,0,0,0,0,0,0,0,0,0,191,0,0,0,0,0,311,0,0,0,0,311,0,0,0,0,0,0,0,0,271,0,0,0,0,0,0,0,0,0,0,2684354751,0,0,0,0,0,0,0,0,0,0,0,0,0,0,0,0,0,0,0,0,0,0,0,0,0,0,0,0,0,0,
0,0,0,0,0,0,0,0,471,0,0,0,0,0,0,0,0,0,231,0,0,0,0,0,351,0,0,0,0,351,0,0,0,0,0,0,0,0,311,0,0,0,0,0,0,0,0,0,0,2684354751,0,0,0,0,0,0,0,0,0,0,0,0,0,0,0,0,0,0,0,0,0,0,0,0,0,0,0,0,0,0,
0,0,0,0,0,0,0,191,191,191,0,0,0,0,0,0,0,0,271,0,0,0,191,191,191,0,0,0,0,391,0,0,0,0,0,0,0,0,351,0,0,0,191,0,0,0,0,0,0,2684354751,0,0,0,0,0,0,0,0,0,0,0,0,0,0,0,0,0,0,0,0,0,0,0,0,0,0,0,0,0,0,
0,0,0,0,0,0,0,0,0,0,0,0,0,0,0,0,0,0,311,0,0,0,0,0,0,0,0,0,0,191,191,191,191,191,191,191,191,191,391,0,0,0,231,0,0,0,0,0,0,2684354751,3221225663,3221225663,3221225663,3221225663,3221225663,3221225663,3221225663,3221225663,3221225663,0,0,0,0,0,0,2684354751,0,0,0,0,0,0,0,0,0,0,0,0,0,0,
0,0,0,0,0,0,0,0,0,0,0,0,0,0,0,0,0,0,351,0,0,0,0,0,0,0,0,0,0,231,0,0,0,0,0,0,0,0,431,0,0,0,271,0,0,0,0,0,0,2684354751,0,0,0,0,0,0,0,0,0,0,0,0,0,0,0,2684354751,0,0,0,0,2684354751,3221225663,3221225663,3221225663,3221225663,3221225663,3221225663,3221225663,0,0,
0,0,0,0,0,0,0,0,0,0,191,191,191,191,191,0,0,0,391,0,0,0,0,0,0,0,0,0,0,271,0,0,0,0,0,0,0,0,0,0,0,0,311,0,0,0,0,0,0,2684354751,0,0,0,0,0,0,0,0,0,0,0,0,0,0,0,2684354751,0,0,0,0,2684354751,0,0,0,0,0,0,0,0,0,
0,0,0,0,0,0,0,0,0,0,0,0,0,0,0,0,0,0,431,0,0,0,0,0,0,0,0,0,0,311,0,0,0,0,0,0,0,0,0,0,0,0,351,0,0,0,0,0,0,2684354751,0,0,0,0,0,0,0,0,0,0,0,0,0,0,0,2684354751,0,0,0,0,2684354751,0,0,0,0,0,0,0,0,0,
0,0,0,0,0,0,0,0,0,0,0,0,0,0,0,0,0,0,0,0,0,0,0,0,0,0,0,0,0,0,0,0,0,0,0,0,0,0,0,0,0,0,391,0,0,0,0,0,0,2684354751,0,0,0,0,0,0,0,0,0,0,0,0,0,0,0,2684354751,0,0,0,0,2684354751,0,0,0,0,0,0,0,0,0,
0,0,0,0,0,0,0,0,0,0,0,0,0,0,0,0,0,0,0,0,0,0,0,0,0,0,0,0,0,0,0,0,0,0,0,0,0,191,191,191,191,191,431,0,0,0,0,0,0,0,0,0,0,0,0,0,0,0,0,0,191,191,191,191,191,191,191,3221225663,3221225663,3221225663,3221225663,0,0,0,0,0,0,0,0,0,
0,0,0,0,0,0,0,0,0,0,0,0,0,0,0,0,0,0,0,0,0,0,0,0,0,0,0,0,0,0,0,0,0,0,0,0,0,0,0,0,0,0,471,0,0,0,0,0,0,0,0,0,0,0,0,0,0,0,0,0,2684354751,0,0,0,0,0,0,0,0,0,2684354751,0,0,0,0,0,0,0,0,0,
0,0,271,271,271,271,191,191,191,191,191,0,0,0,0,0,0,0,0,0,0,0,0,0,0,0,0,0,0,0,0,0,0,0,0,0,0,0,0,0,0,0,191,0,0,0,0,0,0,0,0,0,0,0,0,0,0,0,0,0,2684354751,0,0,0,0,0,0,0,0,0,2684354751,0,0,0,0,0,0,0,0,0,
0,0,0,0,0,0,0,0,0,0,0,0,0,0,0,0,0,0,0,0,0,0,0,0,0,0,0,0,0,191,0,0,0,0,0,0,0,0,0,0,0,0,231,0,0,0,0,0,0,0,0,0,0,0,0,0,0,0,0,0,2684354751,0,0,0,0,0,0,0,0,0,2684354751,0,0,0,0,0,0,0,0,0,
0,0,0,0,0,0,0,0,0,0,0,0,0,0,0,0,0,0,0,0,0,0,0,0,0,0,0,0,0,231,191,191,191,191,191,191,191,191,191,191,191,191,271,3221225663,3221225663,3221225663,3221225663,3221225663,3221225663,3221225663,3221225663,3221225663,0,0,0,0,0,0,0,0,2684354751,0,0,0,0,0,0,0,0,0,2684354751,0,0,0,0,0,0,0,0,0,
0,0,0,0,0,0,0,0,0,0,0,0,0,0,0,0,0,0,0,0,0,0,0,0,0,0,0,0,0,271,0,0,0,0,0,0,0,0,0,0,0,0,0,0,0,0,0,0,0,0,0,0,0,0,0,0,0,0,0,0,0,0,0,0,0,0,0,0,0,0,2684354751,0,0,0,0,0,0,0,0,0,
0,0,0,0,0,0,0,0,191,0,0,0,0,0,0,0,0,0,0,0,0,0,0,0,0,0,0,0,0,311,0,0,0,0,0,0,0,0,0,0,0,0,0,0,0,0,0,0,0,0,0,0,0,0,0,0,0,0,0,0,0,0,0,0,0,0,0,0,0,0,2684354751,0,0,0,0,0,0,0,0,0,
0,0,0,0,0,0,0,0,231,0,0,0,0,0,0,0,0,0,0,0,0,0,0,0,0,0,0,191,191,191,0,0,0,0,0,0,0,0,0,0,0,0,0,0,0,0,0,0,0,0,0,0,0,0,0,1610612927,0,0,0,0,0,0,0,0,0,0,0,0,0,0,2684354751,0,0,0,0,0,0,0,0,0,
0,0,0,0,0,0,0,0,191,0,0,0,0,0,0,0,0,0,0,0,0,0,0,0,0,0,0,0,0,0,0,0,0,3221225903,191,191,1610612967,1610613007,1610613047,1610613087,1610613127,1610613167,0,0,0,0,0,0,0,0,0,0,0,0,0,1610612927,0,0,0,0,0,0,0,0,0,0,0,0,0,0,2684354751,0,0,0,0,0,0,0,0,0,
0,0,0,0,0,0,0,0,311,0,0,0,0,0,0,0,0,0,0,0,0,0,0,0,0,0,0,0,0,0,0,0,0,3221225863,0,0,0,0,0,0,0,271,0,0,0,0,0,0,0,0,0,0,0,0,0,1610612927,0,0,0,0,0,0,0,0,0,0,0,0,0,0,2684354751,0,0,0,0,0,0,0,0,0,
0,0,0,0,0,0,0,0,351,0,0,0,0,0,0,0,0,0,0,0,0,0,0,0,0,0,0,0,0,0,0,0,0,3221225823,0,0,0,0,0,0,0,311,0,0,0,0,0,0,0,0,0,0,0,0,0,1610612927,191,191,191,191,191,191,191,191,0,0,0,0,0,0,2684354751,0,0,0,0,0,0,0,0,0,
0,0,0,0,0,0,0,0,391,0,0,0,0,0,0,0,0,0,471,0,0,0,0,0,0,0,0,0,0,0,0,2684355031,2684354991,2684354951,0,0,0,0,0,0,0,351,0,0,0,0,0,0,0,0,0,0,0,0,0,2684354751,0,0,0,0,0,0,0,0,0,0,0,0,0,0,0,0,0,0,0,0,0,0,0,0,
0,0,0,0,0,0,0,0,431,0,0,0,0,0,0,0,0,0,191,0,0,0,0,0,0,0,0,0,0,0,0,391,0,0,0,0,0,3221225783,0,0,0,391,0,0,0,0,0,0,0,0,0,0,0,0,0,2684354751,0,0,0,0,0,0,0,0,0,0,0,0,0,0,0,0,0,0,0,0,0,0,0,0,
0,0,0,0,0,0,0,0,471,191,191,191,191,191,191,191,191,191,231,0,0,0,0,0,0,0,0,0,0,0,0,431,0,0,0,0,0,3221225743,0,0,0,431,0,0,0,0,0,0,0,0,0,0,0,0,0,2684354751,0,0,0,0,0,0,0,0,0,0,0,0,0,0,0,0,0,0,0,0,0,0,0,0,
0,0,0,0,0,0,0,0,0,0,0,0,0,0,0,0,0,0,271,0,0,0,0,0,0,0,0,0,0,0,0,471,0,0,0,0,0,3221225703,0,0,0,431,0,0,0,0,0,0,0,0,0,0,0,0,0,2684354751,0,0,0,0,0,0,0,0,0,0,0,0,0,0,0,0,0,0,0,0,0,0,0,0,
0,0,0,0,0,0,0,0,0,0,0,0,0,0,0,0,0,0,191,191,0,0,0,191,271,271,271,271,271,271,191,271,0,0,0,191,191,271,0,0,0,271,271,271,271,271,271,271,191,191,191,191,191,191,191,191,191,0,0,0,0,0,0,0,0,0,0,0,0,0,0,0,0,0,0,0,0,0,0,0,
0,0,0,0,0,0,0,0,0,0,0,0,0,0,0,0,0,0,351,0,0,0,0,0,0,0,0,0,0,0,231,0,0,0,0,231,0,0,0,0,0,0,0,0,0,0,0,0,0,2684354751,0,0,0,0,0,0,2684354751,0,0,0,0,0,0,0,0,0,191,191,191,2684354751,0,0,0,0,0,0,0,0,0,0,
0,0,0,0,0,0,0,0,0,0,0,0,0,351,0,0,0,0,0,0,0,0,0,0,0,0,0,0,0,0,271,0,0,0,0,271,0,0,0,0,0,0,0,0,0,0,0,0,0,2684354751,0,0,0,0,0,0,2684354751,0,0,0,0,0,0,0,0,0,2684354751,0,0,2684354751,0,0,0,0,0,0,0,0,0,0,
0,0,0,0,0,0,0,0,0,0,0,0,0,391,0,0,0,0,0,0,0,0,0,0,0,0,0,0,0,0,311,0,0,0,0,311,0,0,0,0,0,0,0,0,0,0,0,0,0,2684354751,0,0,0,0,0,0,2684354751,0,0,0,0,0,0,0,0,0,2684354751,0,0,2684354751,0,0,0,0,0,0,0,0,0,0,
0,0,0,0,0,1610613007,3221225743,3221225743,3221225743,3221225743,191,191,191,191,0,0,0,0,0,0,0,0,0,0,0,0,0,0,0,0,0,0,0,0,0,351,0,0,0,0,0,0,0,1610613007,0,0,0,0,0,2684354751,0,0,0,0,0,0,2684354751,0,0,0,0,0,0,0,0,0,2684354751,0,0,2684354751,0,0,0,0,0,0,0,0,0,0,
0,0,0,0,0,1610613007,0,0,0,0,0,0,0,231,191,191,191,2684355031,2684354991,2684354951,3221225943,0,0,0,0,0,0,0,0,0,0,0,0,0,0,391,0,0,0,0,0,0,0,1610613007,0,0,0,0,0,2684354751,0,0,0,0,0,0,2684354751,0,0,0,0,0,0,0,0,0,2684354751,0,0,2684354751,0,0,0,0,0,0,0,0,0,0,
0,0,0,0,0,1610613007,0,0,0,0,0,0,0,271,0,0,0,0,0,0,3221225903,0,0,0,0,0,0,0,0,0,0,0,0,0,0,431,0,0,0,0,0,0,0,1610613007,0,0,0,0,0,2684354751,0,0,0,0,0,0,2684354751,0,0,0,0,0,0,0,0,0,2684354751,0,0,2684354751,0,0,0,0,0,0,0,0,0,0,
0,0,0,0,0,1610613007,0,0,0,0,0,0,0,311,0,0,0,0,0,0,3221225863,191,1610613007,191,0,0,0,191,191,191,191,191,191,191,191,191,0,0,0,0,0,0,0,1610613007,0,0,0,0,0,2684354751,0,0,0,0,0,0,2684354751,191,191,191,191,0,0,0,0,0,2684354751,0,0,2684354751,0,0,0,0,0,0,0,0,0,0,
0,0,0,0,0,1610613007,0,0,0,0,0,0,0,351,0,0,0,0,0,0,0,0,1610613007,0,0,0,0,0,0,0,0,0,0,0,0,2684354831,0,0,0,0,0,0,0,1610613007,0,0,0,0,0,2684354751,0,0,0,0,0,0,2684354751,0,0,0,0,0,0,0,0,0,2684354751,0,0,2684354751,0,0,0,0,0,0,0,0,0,0,
0,0,0,0,0,1610613007,0,0,0,0,0,0,0,391,0,0,0,0,0,0,0,0,1610613007,0,0,0,0,0,0,0,0,0,0,0,0,2684354831,0,0,0,0,0,0,0,1610613007,0,0,0,0,0,2684354751,0,0,0,0,0,0,2684354751,0,0,0,0,0,0,0,0,0,2684354751,0,0,2684354751,0,0,0,0,0,0,0,0,0,0,
0,0,0,0,0,1610613007,0,0,0,1610613007,0,0,0,0,0,0,0,2684354831,0,0,0,0,1610613007,0,0,0,0,0,0,0,0,0,0,0,0,2684354831,271,271,0,0,0,271,271,271,0,0,0,0,0,3221225663,3221225663,3221225663,3221225663,0,0,0,2684354751,0,0,0,0,0,0,0,0,0,0,0,0,2684354751,0,0,0,0,0,0,0,0,0,0,
0,0,0,0,0,0,0,0,0,1610613007,0,0,0,0,0,0,0,2684354831,0,0,0,0,0,0,0,0,0,0,0,2684354831,0,0,0,0,0,0,0,2684354751,0,0,0,0,0,0,0,0,0,0,0,0,0,0,0,0,0,0,2684354751,0,0,0,0,0,0,0,0,0,0,0,0,2684354751,191,191,191,191,0,0,0,0,0,0,
0,0,0,0,0,0,0,0,0,1610613007,0,0,0,0,0,0,0,2684354831,0,0,0,0,0,0,0,0,0,0,0,2684354831,0,0,0,0,0,0,0,2684354751,0,0,0,0,0,0,0,0,0,0,0,0,0,0,0,0,0,0,2684354751,0,0,0,0,0,0,0,0,0,0,0,0,0,0,0,0,0,0,0,0,0,0,0,
0,0,191,191,191,191,191,191,191,191,0,0,0,0,0,0,0,2684354831,0,0,0,0,0,0,0,0,0,0,0,2684354831,0,0,0,0,0,0,0,2684354751,0,0,0,0,0,0,0,0,0,0,0,0,0,0,0,0,0,0,2684354751,0,0,0,0,0,0,0,0,0,0,0,0,0,0,0,0,0,0,0,0,0,0,0,
0,0,0,0,0,0,0,0,0,2684354751,0,0,0,0,0,0,0,2684354751,0,0,0,0,0,0,0,0,0,0,0,1610612927,0,0,0,0,0,0,0,2684354751,0,0,0,0,0,0,0,0,0,0,0,0,0,0,0,0,0,0,2684354751,3221225663,3221225663,3221225663,3221225663,3221225663,3221225663,3221225663,3221225663,3221225663,0,0,0,0,0,0,0,0,0,0,0,0,0,0,
0,0,0,0,0,0,0,0,0,2684354751,0,0,0,0,0,0,0,2684354751,0,0,0,0,0,0,0,0,0,0,0,1610612927,0,0,0,0,0,0,0,0,0,0,0,0,0,0,0,0,0,0,0,0,0,0,0,0,0,0,2684354751,0,0,0,0,0,0,0,0,0,0,0,0,0,0,1610612927,0,0,0,0,0,0,0,0,
0,0,0,0,0,0,0,0,0,2684354751,0,0,0,0,0,0,0,2684354751,0,0,0,0,0,0,0,0,0,0,0,1610612927,0,0,0,0,0,0,0,0,0,0,0,0,0,0,0,0,0,0,0,0,0,0,191,191,191,191,2684354751,0,0,0,0,0,0,0,0,0,0,0,0,0,0,1610612927,0,0,0,0,0,0,0,0,
0,0,0,0,0,0,0,0,0,2684354751,0,0,0,0,0,0,0,2684354751,0,0,0,0,0,0,0,0,0,0,0,1610612927,0,0,0,0,0,0,0,0,0,0,0,0,0,0,0,0,0,0,0,0,0,0,191,191,191,191,1610612927,0,0,0,0,0,0,0,0,0,0,0,0,0,0,1610612927,0,0,0,0,0,0,0,0,
0,0,0,0,0,0,191,191,191,191,0,0,0,0,0,0,0,0,0,0,0,0,191,191,191,191,191,191,191,191,191,3221225663,3221225663,3221225663,3221225663,3221225663,3221225663,3221225663,191,191,191,191,191,191,191,0,0,0,0,0,0,0,0,0,0,0,1610612927,0,0,0,0,0,0,0,0,0,0,0,0,0,0,1610612927,0,0,0,0,0,0,0,0,
0,0,0,0,0,0,0,0,0,0,0,0,0,0,0,0,0,0,0,0,0,0,0,0,0,0,0,0,0,0,0,2684354751,0,0,0,0,0,0,0,0,0,0,0,0,0,0,0,0,0,0,0,0,0,0,0,0,1610612927,0,0,0,0,0,0,0,0,0,0,0,0,0,0,2684354751,0,0,0,0,0,0,0,0,
0,0,0,0,0,0,0,0,0,0,0,0,0,0,0,0,0,0,0,0,0,0,0,0,0,0,0,0,0,0,0,2684354751,0,0,0,0,0,0,0,0,0,0,0,0,0,0,0,0,0,0,0,0,0,0,0,0,1610612927,0,0,0,0,0,0,0,0,0,0,0,0,0,0,2684354751,0,0,0,0,0,0,0,0,
0,0,0,0,0,0,0,0,0,0,0,0,0,0,0,0,0,0,2684354751,0,0,0,0,0,0,0,0,0,0,0,0,2684354751,0,0,0,0,0,0,0,0,0,0,0,0,0,0,0,0,0,0,0,0,0,0,0,0,1610612927,0,0,0,0,0,0,191,191,191,191,191,191,191,191,2684354751,0,0,0,0,0,0,0,0,
0,0,0,0,0,0,0,0,0,0,0,0,0,0,0,0,0,0,2684354751,0,0,0,0,0,0,0,0,0,0,0,0,2684354751,0,0,0,0,0,0,0,0,0,0,0,0,0,0,0,0,2684354751,191,191,191,191,191,191,191,1610612927,0,0,0,0,0,0,2684354751,0,0,0,0,0,0,0,0,0,0,0,0,0,0,0,0,
0,0,0,0,0,0,0,0,0,0,0,0,0,0,0,0,0,0,2684354751,0,0,0,0,0,0,0,0,0,0,0,0,2684354751,0,0,0,0,0,0,0,0,0,0,0,0,0,0,0,0,2684354751,0,0,2684354751,0,0,0,0,0,0,0,0,0,0,0,2684354751,0,0,0,0,0,0,0,0,0,0,0,0,0,0,0,0,
0,0,0,0,0,0,2684354751,191,191,191,191,191,191,191,191,191,191,191,2684354751,0,0,0,0,0,0,0,0,0,0,0,0,2684354751,0,0,0,0,0,0,0,0,0,0,0,0,0,0,0,0,2684354751,0,0,2684354751,0,0,0,0,0,0,0,0,0,0,0,2684354751,0,0,0,0,0,0,0,0,0,0,0,0,0,0,0,0,
0,0,0,0,0,0,2684354751,0,0,0,0,0,0,0,0,0,0,0,0,0,0,0,0,0,0,0,191,191,191,191,191,191,191,3221225663,3221225663,3221225663,3221225663,3221225663,3221225663,3221225663,3221225663,0,0,0,0,0,0,0,2684354751,0,0,2684354751,0,0,0,0,0,0,0,0,0,0,0,2684354751,0,0,0,0,0,0,0,0,0,0,0,0,0,0,0,0,
0,0,0,0,0,0,2684354751,0,0,0,0,0,0,0,0,0,0,0,0,0,0,0,0,0,0,0,0,0,0,0,0,1610612927,0,0,0,0,0,0,0,0,0,0,0,0,0,0,0,0,0,0,0,2684354751,0,0,0,0,0,0,0,0,0,0,0,2684354751,0,0,0,0,0,0,0,0,0,0,0,0,0,0,0,0,
0,0,0,0,0,0,2684354751,0,0,0,0,0,0,0,0,0,0,0,0,0,0,0,0,0,0,0,0,0,0,0,0,1610612927,0,0,0,0,0,0,0,0,0,0,0,0,0,0,0,0,0,0,0,2684354751,0,0,0,0,0,0,0,0,0,0,0,2684354751,0,0,0,0,0,0,0,0,0,0,0,0,0,0,0,0,
0,0,0,0,0,0,2684354751,0,0,0,0,0,0,0,0,0,0,0,0,0,0,0,0,0,0,0,0,0,0,0,0,1610612927,0,0,0,0,0,0,0,0,0,0,0,0,0,0,0,0,0,0,0,2684354751,0,0,0,0,0,0,0,0,0,0,0,2684354751,0,0,0,0,0,0,0,0,0,0,0,0,0,0,0,0,
0,0,0,0,0,0,2684354751,0,0,0,0,0,0,0,0,0,0,0,0,0,0,0,0,0,0,0,0,0,0,0,0,1610612927,0,0,0,0,0,0,0,0,0,0,0,0,0,0,0,0,0,0,0,2684354751,0,0,0,0,0,0,0,0,0,0,0,2684354751,0,0,0,0,0,0,0,0,0,0,0,0,0,0,0,0,
0,0,0,0,0,0,2684354751,0,0,0,0,2684354751,191,191,191,191,191,191,191,2684354751,191,191,191,191,191,191,191,191,191,191,191,191,0,0,0,0,0,0,0,0,0,0,191,191,191,191,0,0,0,0,0,2684354751,0,0,0,0,0,0,0,0,0,0,0,0,0,0,0,0,191,191,191,191,0,0,0,0,0,0,0,0,
0,0,0,0,0,0,2684354751,0,0,0,0,2684354751,0,0,0,0,0,0,0,2684354751,0,0,0,0,0,0,0,0,0,0,0,0,0,0,0,0,0,0,0,0,0,0,0,0,0,2684354751,0,0,0,0,0,2684354751,0,0,0,0,0,0,0,0,0,0,0,0,0,0,0,0,0,0,0,2684354751,0,0,0,0,0,0,0,0,
0,0,0,0,0,0,2684354751,0,0,0,0,2684354751,0,0,0,0,0,0,0,2684354751,0,0,0,0,0,0,0,0,0,0,0,0,0,0,0,0,0,0,0,0,0,0,0,0,0,2684354751,0,0,0,0,0,2684354751,0,0,0,0,0,0,0,0,0,0,0,0,0,0,0,0,0,0,0,2684354751,0,0,0,0,0,0,0,0,
0,0,0,0,0,0,3221225663,0,0,0,0,2684354751,0,0,0,0,0,0,0,2684354751,0,0,0,0,0,0,0,0,0,0,0,0,0,0,0,0,0,0,0,0,0,0,0,0,0,2684354751,0,0,0,0,0,2684354751,0,0,0,0,0,0,0,0,0,0,0,0,0,0,0,0,0,0,0,2684354751,0,0,0,0,0,0,0,0,
0,0,0,0,0,0,0,0,0,0,0,2684354751,0,0,0,0,0,0,0,2684354751,0,0,0,0,0,0,0,0,0,0,0,0,0,0,0,0,0,0,0,0,0,0,0,0,0,3221225663,3221225663,3221225663,3221225663,3221225663,3221225663,2684354751,3221225663,3221225663,3221225663,3221225663,0,0,0,0,0,0,2684354751,191,191,191,191,191,191,191,191,191,0,0,0,0,0,0,0,0,
0,0,0,0,0,0,0,0,0,0,0,0,0,0,0,0,0,0,0,2684354751,0,0,0,0,0,0,0,0,0,0,0,0,0,0,0,2684354751,0,0,0,0,0,0,0,0,0,0,0,0,0,0,0,2684354751,0,0,0,0,0,0,0,0,0,0,2684354751,0,0,0,0,0,0,0,0,2684354751,0,0,0,0,0,0,0,0,
0,0,0,0,0,0,0,0,0,0,0,0,0,0,0,0,0,0,0,0,0,0,0,0,0,0,0,0,0,0,0,0,0,0,0,2684354751,0,0,0,0,0,0,0,0,0,0,0,0,0,0,0,2684354751,0,0,0,0,0,0,0,0,0,0,2684354751,0,0,0,0,0,0,0,0,2684354751,0,0,0,0,0,0,0,0,
0,0,0,0,0,0,0,0,0,0,0,0,0,0,0,0,0,0,0,0,0,0,0,0,0,0,0,0,0,0,0,191,191,191,191,2684354751,0,0,0,0,0,0,0,0,0,0,0,0,0,0,0,2684354751,0,0,0,0,0,0,0,0,0,0,2684354751,0,0,0,0,0,0,0,0,2684354751,0,0,0,0,0,0,0,0,
0,0,0,0,0,0,0,0,0,0,0,0,0,0,0,0,0,0,0,0,0,0,0,0,0,0,0,0,0,0,0,0,0,0,0,191,191,191,191,2684354751,0,0,0,0,0,0,0,0,0,0,0,191,191,191,191,0,0,0,0,0,0,0,0,0,0,0,0,0,0,0,0,2684354751,0,0,0,0,0,0,0,0,
0,0,0,0,0,0,0,0,0,0,0,0,0,0,0,0,0,0,0,0,0,0,0,0,0,0,0,0,0,0,0,0,0,0,0,2684354751,0,0,0,2684354751,0,0,0,0,0,0,0,0,0,0,0,0,0,0,0,0,0,0,0,0,0,0,0,0,0,0,0,0,0,0,0,191,191,191,191,0,0,0,0,0,
0,0,0,0,0,0,0,2684354751,191,191,191,0,0,0,0,0,0,0,0,0,0,0,0,0,0,0,0,0,0,0,0,0,0,0,0,2684354751,0,0,0,2684354751,0,0,0,0,0,0,2684354751,0,0,0,0,0,0,0,0,0,0,0,0,0,0,0,0,0,0,0,0,0,0,0,0,0,0,0,0,0,0,0,0,0,
0,0,0,0,0,0,0,2684354751,0,0,0,0,0,0,0,0,0,0,0,0,0,0,0,0,0,0,0,0,0,0,0,0,0,0,0,2684354751,0,0,0,2684354751,0,0,0,0,0,0,2684354751,0,0,0,0,0,0,0,0,0,0,0,0,0,0,0,0,0,0,0,0,0,0,0,0,0,0,0,0,0,0,0,0,0,
0,0,0,0,0,0,0,2684354751,0,0,0,0,0,0,0,0,0,0,0,0,0,0,0,0,0,0,0,0,0,0,0,0,0,0,0,2684354751,0,0,0,0,0,0,0,0,0,0,2684354751,0,0,0,0,0,0,0,0,0,0,0,0,0,0,0,0,0,0,0,0,0,0,0,0,0,0,0,0,0,0,0,0,0,
0,0,0,0,0,0,0,2684354751,0,0,0,0,0,0,0,0,0,0,0,0,0,0,0,0,0,0,0,0,0,0,0,0,0,0,0,2684354751,0,0,0,0,0,0,0,0,0,0,2684354751,0,0,0,0,0,0,0,0,0,0,0,0,0,0,0,0,0,0,0,0,0,0,0,0,0,0,0,0,0,0,0,0,0,
0,0,0,0,0,0,0,0,0,0,0,0,0,0,0,0,0,0,0,0,0,0,0,0,0,0,0,0,0,0,0,0,0,0,0,0,0,0,0,0,0,0,0,0,0,0,0,0,0,0,0,0,0,0,0,0,0,0,0,0,0,0,0,0,0,0,0,0,0,0,0,0,0,0,0,0,0,0,0,0,
0,0,0,0,0,0,0,0,0,0,0,0,0,0,0,0,0,0,0,0,0,0,0,0,0,0,0,0,0,0,0,0,0,0,0,0,0,0,0,0,0,0,0,0,0,0,0,0,0,0,0,0,0,0,0,0,0,0,0,0,0,0,0,0,0,0,0,0,0,0,0,0,0,0,0,0,0,0,0,0
</data>
 </layer>
 <layer id="20" name="finish" width="80" height="80" locked="1">
  <data encoding="csv">
0,0,0,0,0,0,0,0,0,0,0,0,0,0,0,0,0,0,0,0,0,0,0,0,0,0,0,0,0,0,0,0,0,0,0,0,0,0,0,0,0,0,0,0,0,0,0,0,0,0,0,0,0,0,0,0,0,0,0,0,0,0,0,0,0,0,0,0,0,0,0,0,0,0,0,0,0,0,0,0,
0,0,0,0,0,0,0,0,0,0,0,0,0,0,0,0,0,0,0,0,0,0,0,0,0,0,0,0,0,0,0,0,0,0,0,0,0,0,0,0,0,0,0,0,0,0,0,0,0,0,0,0,0,0,0,0,0,0,0,0,0,0,0,0,0,0,0,0,0,0,0,0,0,0,0,0,0,0,0,0,
0,0,0,0,0,0,0,0,0,0,0,0,0,0,0,0,0,0,0,0,0,0,0,0,0,0,0,0,0,0,0,0,0,0,0,0,0,0,0,0,0,0,0,0,0,0,0,0,0,0,0,0,0,0,0,0,0,0,0,0,0,0,0,0,0,0,0,0,0,0,0,0,0,0,0,0,0,0,0,0,
0,0,0,0,0,0,0,0,0,0,0,0,0,0,0,0,0,0,0,0,0,0,0,0,0,0,0,0,0,0,0,0,0,0,0,0,0,0,0,0,0,0,0,0,0,0,0,0,0,0,0,0,0,0,0,0,0,0,0,0,0,0,0,0,0,0,0,0,0,0,0,0,0,0,0,0,0,0,0,0,
0,0,0,0,0,0,0,0,0,0,0,0,0,0,0,0,0,0,0,0,0,0,0,0,0,0,0,0,0,0,0,0,0,0,0,0,0,0,0,0,0,0,0,0,0,0,0,0,0,0,0,0,0,0,0,0,0,0,0,0,0,0,0,0,0,0,0,0,0,0,0,0,0,0,0,0,0,0,0,0,
0,0,0,0,0,0,0,0,0,0,0,0,0,0,0,0,0,0,0,0,0,0,0,0,0,0,0,0,0,0,0,0,0,0,0,0,0,0,0,0,0,0,0,0,0,0,0,0,0,0,0,0,0,0,0,0,0,0,0,0,0,0,0,0,0,0,0,0,0,0,0,0,0,0,0,0,0,0,0,0,
0,0,0,0,0,0,0,0,0,0,0,0,0,0,0,0,0,0,0,0,0,0,0,0,0,0,0,0,0,0,0,0,0,0,0,0,0,0,0,0,0,0,0,0,0,0,0,0,0,0,0,0,0,0,0,0,0,0,0,0,0,0,0,0,0,0,0,0,0,0,0,0,0,0,0,0,0,0,0,0,
0,0,0,0,0,0,0,0,0,0,0,0,0,0,0,0,0,0,0,0,0,0,0,0,0,0,0,0,0,0,0,0,0,0,0,0,0,0,0,0,0,0,0,0,0,0,0,0,0,0,0,0,0,0,0,0,0,0,0,0,0,0,0,0,0,0,0,0,0,0,0,0,0,0,0,0,0,0,0,0,
0,0,0,0,0,0,0,0,0,0,0,0,0,0,0,0,0,0,0,0,0,0,0,0,0,0,0,0,0,0,0,0,0,0,0,0,0,0,0,0,0,0,0,0,0,0,0,0,0,0,0,0,0,0,0,0,0,0,0,0,0,0,0,0,0,0,0,0,0,0,0,0,0,0,0,0,0,0,0,0,
0,0,0,0,0,0,0,0,0,0,0,0,0,0,0,0,0,0,0,0,0,0,0,0,0,0,0,0,0,0,0,0,0,0,0,0,0,0,0,0,0,0,0,0,0,0,0,0,0,0,0,0,0,0,0,0,0,0,0,0,0,0,0,0,0,0,0,0,0,0,0,0,0,0,0,0,0,0,0,0,
0,0,0,0,0,0,0,0,0,0,0,0,0,0,0,0,0,0,0,0,0,0,0,0,0,0,0,0,0,0,0,0,0,0,0,0,0,0,0,0,0,0,0,0,0,0,0,0,0,0,0,0,0,0,0,0,0,0,0,0,0,0,0,0,0,0,0,0,0,0,0,0,0,0,0,0,0,0,0,0,
0,0,0,0,0,0,0,0,0,0,0,0,0,0,0,0,0,0,0,0,0,0,0,0,0,0,0,0,0,0,0,0,0,0,0,0,0,0,0,0,0,0,0,0,0,0,0,0,0,0,0,0,0,0,0,0,0,0,0,0,0,0,0,0,0,0,0,0,0,0,0,0,0,0,0,0,0,0,0,0,
0,0,0,0,0,0,0,0,0,0,0,0,0,0,0,0,0,0,0,0,0,0,0,0,0,0,0,0,0,0,0,0,0,0,0,0,0,0,0,0,0,0,0,0,0,0,0,0,0,0,0,0,0,0,0,0,0,0,0,0,0,0,0,0,0,0,0,0,0,0,0,0,0,0,0,0,0,0,0,0,
0,0,0,0,0,0,0,0,0,0,0,0,0,0,0,0,0,0,0,0,0,0,0,0,0,0,0,0,0,0,0,0,0,0,0,0,0,0,0,0,0,0,0,0,0,0,0,0,0,0,0,0,0,0,0,0,0,0,0,0,0,0,0,0,0,0,0,0,0,0,0,0,0,0,0,0,0,0,0,0,
0,0,0,0,0,0,0,0,0,0,0,0,0,0,0,0,0,0,0,0,0,0,0,0,0,0,0,0,0,0,0,0,0,0,0,0,0,0,0,0,0,0,0,0,0,0,0,0,0,0,0,0,0,0,0,0,0,0,0,0,0,0,0,0,0,0,0,0,0,0,0,0,0,0,0,0,0,0,0,0,
0,0,0,0,0,0,0,0,0,0,0,0,0,0,0,0,0,0,0,0,0,0,0,0,0,0,0,0,0,0,0,0,0,0,0,0,0,0,0,0,0,0,0,0,0,0,0,0,0,0,0,0,0,0,0,0,0,0,0,0,0,0,0,0,0,0,0,0,0,0,0,0,0,0,0,0,0,0,0,0,
0,0,0,0,0,0,0,0,0,0,0,0,0,0,0,0,0,0,0,0,0,0,0,0,0,0,0,0,0,0,0,0,0,0,0,0,0,0,0,0,0,0,0,0,0,0,0,0,0,0,0,0,0,0,0,0,0,0,0,0,0,0,0,0,0,0,0,0,0,0,0,0,0,0,0,0,0,0,0,0,
0,0,0,0,0,0,0,0,0,0,0,0,0,0,0,0,0,0,0,0,0,0,0,0,0,0,0,0,0,0,0,0,0,0,0,0,0,0,0,0,0,0,0,0,0,0,0,0,0,0,0,0,0,0,0,0,0,0,0,0,0,0,0,0,0,0,0,0,0,0,0,0,0,0,0,0,0,0,0,0,
0,0,0,0,0,0,0,0,0,0,0,0,0,0,0,0,0,0,0,0,0,0,0,0,0,0,0,0,0,0,0,0,0,0,0,0,0,0,0,0,0,0,0,0,0,0,0,0,0,0,0,0,0,0,0,0,0,0,0,0,0,0,0,0,0,0,0,0,0,0,0,0,0,0,0,0,0,0,0,0,
0,0,0,0,0,0,0,0,0,0,0,0,0,0,0,0,0,0,0,0,0,0,0,0,0,0,0,0,0,0,0,0,0,0,0,0,0,0,0,0,0,0,0,0,0,0,0,0,0,0,0,0,0,0,0,0,0,0,0,0,0,0,0,0,0,0,0,0,0,0,0,0,0,0,0,0,0,0,0,0,
0,0,0,0,0,0,0,0,0,0,0,0,0,0,0,0,0,0,0,0,0,0,0,0,0,0,0,0,0,0,0,0,0,0,0,0,0,0,0,0,0,0,0,0,0,0,0,0,0,0,0,0,0,0,0,0,0,0,0,0,0,0,0,0,0,0,0,0,0,0,0,0,0,0,0,0,0,0,0,0,
0,0,0,0,0,0,0,0,0,0,0,0,0,0,0,0,0,0,0,0,0,0,0,0,0,0,0,0,0,0,0,0,0,0,0,0,0,0,0,0,0,0,0,0,0,0,0,0,0,0,0,0,0,0,0,0,0,0,0,0,0,0,0,0,0,0,0,0,0,0,0,0,0,0,0,0,0,0,0,0,
0,0,0,0,0,0,0,0,0,0,0,0,0,0,0,0,0,0,0,0,0,0,0,0,0,0,0,0,0,0,0,0,0,0,0,0,0,0,0,0,0,0,0,0,0,0,0,0,0,0,0,0,0,0,0,0,0,0,0,0,0,0,0,0,0,0,0,0,0,0,0,0,0,0,0,0,0,0,0,0,
0,0,0,0,0,0,0,0,0,0,0,0,0,0,0,0,0,0,0,0,0,0,0,0,0,0,0,0,0,0,0,0,0,0,0,0,0,0,0,0,0,0,0,0,0,0,0,0,0,0,0,0,0,0,0,0,0,0,0,0,0,0,0,0,0,0,0,0,0,0,0,0,0,0,0,0,0,0,0,0,
0,0,0,0,0,0,0,0,0,0,0,0,0,0,0,0,0,0,0,0,0,0,0,0,0,0,0,0,0,0,0,0,0,0,0,0,0,0,0,0,0,0,0,0,0,0,0,0,0,0,0,0,0,0,0,0,0,0,0,0,0,0,0,0,0,0,0,0,0,0,0,0,0,0,0,0,0,0,0,0,
0,0,0,0,0,0,0,0,0,0,0,0,0,0,0,0,0,0,0,0,0,0,0,0,0,0,0,0,0,0,0,0,0,0,0,0,0,0,0,0,0,0,0,0,0,0,0,0,0,0,0,0,0,0,0,0,0,0,0,0,0,0,0,0,0,0,0,0,0,0,0,0,0,0,0,0,0,0,0,0,
0,0,0,0,0,0,0,0,0,0,0,0,0,0,0,0,0,0,0,0,0,0,0,0,0,0,0,0,0,0,0,0,0,0,0,0,0,0,0,0,0,0,0,0,0,0,0,0,0,0,0,0,0,0,0,0,0,0,0,0,0,0,0,0,0,0,0,0,0,0,0,0,0,0,0,0,0,0,0,0,
0,0,0,0,0,0,0,0,0,0,0,0,0,0,0,0,0,0,0,0,0,0,0,0,0,0,0,0,0,0,0,0,0,0,0,0,0,0,0,0,0,0,0,0,0,0,0,0,0,0,0,0,0,0,0,0,0,0,0,0,0,0,0,0,0,0,0,0,0,0,0,0,0,0,0,0,0,0,0,0,
0,0,0,0,0,0,0,0,0,0,0,0,0,0,0,0,0,0,0,0,0,0,0,0,0,0,0,0,0,0,0,0,0,0,0,0,0,0,0,0,0,0,0,0,0,0,0,0,0,0,0,0,0,0,0,0,0,0,0,0,0,0,0,0,0,0,0,0,0,0,0,0,0,0,0,0,0,0,0,0,
0,0,0,0,0,0,0,0,0,0,0,0,0,0,0,0,0,0,0,0,0,0,0,0,0,0,0,0,0,0,0,0,0,0,0,0,0,0,0,0,0,0,0,0,0,0,0,0,0,0,0,0,0,0,0,0,0,0,0,0,0,0,0,0,0,0,0,0,0,0,0,0,0,0,0,0,0,0,0,0,
0,0,0,0,0,0,0,0,0,0,0,0,0,0,0,0,0,0,0,0,0,0,0,0,0,0,0,0,0,0,0,0,0,0,0,0,0,0,0,0,0,0,0,0,0,0,0,0,0,0,0,0,0,0,0,0,0,0,0,0,0,0,0,0,0,0,0,0,0,0,0,0,0,0,0,0,0,0,0,0,
0,0,0,0,0,0,0,0,0,0,0,0,0,0,0,0,0,0,0,0,0,0,0,0,0,0,0,0,0,0,0,0,0,0,0,0,0,0,0,0,0,0,0,0,0,0,0,0,0,0,0,0,0,0,0,0,0,0,0,0,0,0,0,0,0,0,0,0,0,0,0,0,0,0,0,0,0,0,0,0,
0,0,0,0,0,0,0,0,0,0,0,0,0,0,0,0,0,0,0,0,0,0,0,0,0,0,0,0,0,0,0,0,0,0,0,0,0,0,0,0,0,0,0,0,0,0,0,0,0,0,0,0,0,0,0,0,0,0,0,0,0,0,0,0,0,0,0,0,0,0,0,0,0,0,0,0,0,0,0,0,
0,0,0,0,0,0,0,0,0,0,0,0,0,0,0,0,0,0,0,0,0,0,0,0,0,0,0,0,0,0,0,0,0,0,0,0,0,0,0,0,0,0,0,0,0,0,0,0,0,0,0,0,0,0,0,0,0,0,0,0,0,0,0,0,0,0,0,0,0,0,0,0,0,0,0,0,0,0,0,0,
0,0,0,0,0,0,0,0,0,0,0,0,0,0,0,0,0,0,0,0,0,0,0,0,0,0,0,0,0,0,0,0,0,0,0,0,0,0,0,0,0,0,0,0,0,0,0,0,0,0,0,0,0,0,0,0,0,0,0,0,0,0,0,0,0,0,0,0,0,0,0,0,0,0,0,0,0,0,0,0,
0,0,0,0,0,0,0,0,0,0,0,0,0,0,0,0,0,0,0,0,0,0,0,0,0,0,0,0,0,0,0,0,0,0,0,0,0,0,0,0,0,0,0,0,0,0,0,0,0,0,0,0,0,0,0,0,0,0,0,0,0,0,0,0,0,0,0,0,0,0,0,0,0,0,0,0,0,0,0,0,
0,0,0,0,0,0,0,0,0,0,0,0,0,0,0,0,0,0,0,0,0,0,0,0,0,0,0,0,0,0,0,0,0,0,0,0,0,0,0,0,0,0,0,0,0,0,0,0,0,0,0,0,0,0,0,0,0,0,0,0,0,0,0,0,0,0,0,0,0,0,0,0,0,0,0,0,0,0,0,0,
0,0,0,0,0,0,0,0,0,0,0,0,0,0,0,0,0,0,0,0,0,0,0,0,0,0,0,0,0,0,0,0,0,0,0,0,0,0,0,0,0,0,0,0,0,0,0,0,0,0,0,0,0,0,0,0,0,0,0,0,0,0,0,0,0,0,0,0,0,0,0,0,0,0,0,0,0,0,0,0,
0,0,0,0,0,0,0,0,0,0,0,0,0,0,0,0,0,0,0,0,0,0,0,0,0,0,0,0,0,0,0,0,0,0,0,0,0,0,0,0,0,0,0,0,0,0,0,0,0,0,0,0,0,0,0,0,0,0,0,0,0,0,0,0,0,0,0,0,0,0,0,0,0,0,0,0,0,0,0,0,
0,0,0,0,0,0,0,0,0,0,0,0,0,0,0,0,0,0,0,0,0,0,0,0,0,0,0,0,0,0,0,0,0,0,0,0,0,0,0,0,0,0,0,0,0,0,0,0,0,0,0,0,0,0,0,0,0,0,0,0,0,0,0,0,0,0,0,0,0,0,0,0,0,0,0,0,0,0,0,0,
0,0,0,0,0,0,0,0,0,0,0,0,0,0,0,0,0,0,0,0,0,0,0,0,0,0,0,0,0,0,0,0,0,0,0,0,0,0,0,0,0,0,0,0,0,0,0,0,0,0,0,0,0,0,0,0,0,0,0,0,0,0,0,0,0,0,0,0,0,0,0,0,0,0,0,0,0,0,0,0,
0,0,0,0,0,0,0,0,0,0,0,0,0,0,0,0,0,0,0,0,0,0,0,0,0,0,0,0,0,0,0,0,0,0,0,0,0,0,0,0,0,0,0,0,0,0,0,0,0,0,0,0,0,0,0,0,0,0,0,0,0,0,0,0,0,0,0,0,0,0,0,0,0,0,0,0,0,0,0,0,
0,0,0,0,0,0,0,0,0,0,0,0,0,0,0,0,0,0,0,0,0,0,0,0,0,0,0,0,0,0,0,0,0,0,0,0,0,0,0,0,0,0,0,0,0,0,0,0,0,0,0,0,0,0,0,0,0,0,0,0,0,0,0,0,0,0,0,0,0,0,0,0,0,0,0,0,0,0,0,0,
0,0,0,0,0,0,0,0,0,0,0,0,0,0,0,0,0,0,0,0,0,0,0,0,0,0,0,0,0,0,0,0,0,0,0,0,0,0,0,0,0,0,0,0,0,0,0,0,0,0,0,0,0,0,0,0,0,0,0,0,0,0,0,0,0,0,0,0,0,0,0,0,0,0,0,0,0,0,0,0,
0,0,0,0,0,0,0,0,0,0,0,0,0,0,0,0,0,0,0,0,0,0,0,0,0,0,0,0,0,0,0,0,0,0,0,0,0,0,0,0,0,0,0,0,0,0,0,0,0,0,0,0,0,0,0,0,0,0,0,0,0,0,0,0,0,0,0,0,0,0,0,0,0,0,0,0,0,0,0,0,
0,0,0,0,0,0,0,0,0,0,0,0,0,0,0,0,0,0,0,0,0,0,0,0,0,0,0,0,0,0,0,0,0,0,0,0,0,0,0,0,0,0,0,0,0,0,0,0,0,0,0,0,0,0,0,0,0,0,0,0,0,0,0,0,0,0,0,0,0,0,0,0,0,0,0,0,0,0,0,0,
0,0,0,0,0,0,0,0,0,0,0,0,0,0,0,0,0,0,0,0,0,0,0,0,0,0,0,0,0,0,0,0,0,0,0,0,0,0,0,0,0,0,0,0,0,0,0,0,0,0,0,0,0,0,0,0,0,0,0,0,0,0,0,0,0,0,0,0,0,0,0,0,0,0,0,0,0,0,0,0,
0,0,0,0,0,0,0,0,0,0,0,0,0,0,0,0,0,0,0,0,0,0,0,0,0,0,0,0,0,0,0,0,0,0,0,0,0,0,0,0,0,0,0,0,0,0,0,0,0,0,0,0,0,0,0,0,0,0,0,0,0,0,0,0,0,0,0,0,0,0,0,0,0,0,0,0,0,0,0,0,
0,0,0,0,0,0,0,0,0,0,0,0,0,0,0,0,0,0,0,0,0,0,0,0,0,0,0,0,0,0,0,0,0,0,0,0,0,0,0,0,0,0,0,0,0,0,0,0,0,0,0,0,0,0,0,0,0,0,0,0,0,0,0,0,0,0,0,0,0,0,0,0,0,0,0,0,0,0,0,0,
0,0,0,0,0,0,0,0,0,0,0,0,0,0,0,0,0,0,0,0,0,0,0,0,0,0,0,0,0,0,0,0,0,0,0,0,0,0,0,0,0,0,0,0,0,0,0,0,0,0,0,0,0,0,0,0,0,0,0,0,0,0,0,0,0,0,0,0,0,0,0,0,0,0,0,0,0,0,0,0,
0,0,0,0,0,0,0,0,0,0,0,0,0,0,0,0,0,0,0,0,0,0,0,0,0,0,0,0,0,0,0,0,0,0,0,0,0,0,0,0,0,0,0,0,0,0,0,0,0,0,0,0,0,0,0,0,0,0,0,0,0,0,0,0,0,0,0,0,0,0,0,0,0,0,0,0,0,0,0,0,
0,0,0,0,0,0,0,0,0,0,0,0,0,0,0,0,0,0,0,0,0,0,0,0,0,0,0,0,0,0,0,0,0,0,0,0,0,0,0,0,0,0,0,0,0,0,0,0,0,0,0,0,0,0,0,0,0,0,0,0,0,0,0,0,0,0,0,0,0,0,0,0,0,0,0,0,0,0,0,0,
0,0,0,0,0,0,0,0,0,0,0,0,0,0,0,0,0,0,0,0,0,0,0,0,0,0,0,0,0,0,0,0,0,0,0,0,0,0,0,0,0,0,0,0,0,0,0,0,0,0,0,0,0,0,0,0,0,0,0,0,0,0,0,0,0,0,0,0,0,0,0,0,0,0,0,0,0,0,0,0,
0,0,0,0,0,0,0,0,0,0,0,0,0,0,0,0,0,0,0,0,0,0,0,0,0,0,0,0,0,0,0,0,0,0,0,0,0,0,0,0,0,0,0,0,0,0,0,0,0,0,0,0,0,0,0,0,0,0,0,0,0,0,0,0,0,0,0,0,0,0,0,0,0,0,0,0,0,0,0,0,
0,0,0,0,0,0,0,0,0,0,0,0,0,0,0,0,0,0,0,0,0,0,0,0,0,0,0,0,0,0,0,0,0,0,0,0,0,0,0,0,0,0,0,0,0,0,0,0,0,0,0,0,0,0,0,0,0,0,0,0,0,0,0,0,0,0,0,0,0,0,0,0,0,0,0,0,0,0,0,0,
0,0,0,0,0,0,0,0,0,0,0,0,0,0,0,0,0,0,0,0,0,0,0,0,0,0,0,0,0,0,0,0,0,0,0,0,0,0,0,0,0,0,0,0,0,0,0,0,0,0,0,0,0,0,0,0,0,0,0,0,0,0,0,0,0,0,0,0,0,0,0,0,0,0,0,0,0,0,0,0,
0,0,0,0,0,0,0,0,0,0,0,0,0,0,0,0,0,0,0,0,0,0,0,0,0,0,0,0,0,0,0,0,0,0,0,0,0,0,0,0,0,0,0,0,0,0,0,0,0,0,0,0,0,0,0,0,0,0,0,0,0,0,0,0,0,0,0,0,0,0,0,0,0,0,0,0,0,0,0,0,
0,0,0,0,0,0,0,0,0,0,0,0,0,0,0,0,0,0,0,0,0,0,0,0,0,0,0,0,0,0,0,0,0,0,0,0,0,0,0,0,0,0,0,0,0,0,0,0,0,0,0,0,0,0,0,0,0,0,0,0,0,0,0,0,0,0,0,0,0,0,0,0,0,0,0,0,0,0,0,0,
0,0,0,0,0,0,0,0,0,0,0,0,0,0,0,0,0,0,0,0,0,0,0,0,0,0,0,0,0,0,0,0,0,0,0,0,0,0,0,0,0,0,0,0,0,0,0,0,0,0,0,0,0,0,0,0,0,0,0,0,0,0,0,0,0,0,0,0,0,0,0,0,0,0,0,0,0,0,0,0,
0,0,0,0,0,0,0,0,0,0,0,0,0,0,0,0,0,0,0,0,0,0,0,0,0,0,0,0,0,0,0,0,0,0,0,0,0,0,0,0,0,0,0,0,0,0,0,0,0,0,0,0,0,0,0,0,0,0,0,0,0,0,0,0,0,0,0,0,0,0,0,0,0,0,0,0,0,0,0,0,
0,0,0,0,0,0,0,0,0,0,0,0,0,0,0,0,0,0,0,0,0,0,0,0,0,0,0,0,0,0,0,0,0,0,0,0,0,0,0,0,0,0,0,0,0,0,0,0,0,0,0,0,0,0,0,0,0,0,0,0,0,0,0,0,0,0,0,0,0,0,0,0,0,0,0,0,0,0,0,0,
0,0,0,0,0,0,0,0,0,0,0,0,0,0,0,0,0,0,0,0,0,0,0,0,0,0,0,0,0,0,0,0,0,0,0,0,0,0,0,0,0,0,0,0,0,0,0,0,0,0,0,0,0,0,0,0,0,0,0,0,0,0,0,0,0,0,0,0,0,0,0,0,0,0,0,0,0,0,0,0,
0,0,0,0,0,0,0,0,0,0,0,0,0,0,0,0,0,0,0,0,0,0,0,0,0,0,0,0,0,0,0,0,0,0,0,0,0,0,0,0,0,0,0,0,0,0,0,0,0,0,0,0,0,0,0,0,0,0,0,0,0,0,0,0,0,0,0,0,0,0,0,0,0,0,0,0,0,0,0,0,
0,0,0,0,0,0,0,0,0,0,0,0,0,0,0,0,0,0,0,0,0,0,0,0,0,0,0,0,0,0,0,0,0,0,0,0,0,0,0,0,0,0,0,0,0,0,0,0,0,0,0,0,0,0,0,0,0,0,0,0,0,0,0,0,0,0,0,0,0,0,0,0,0,0,0,0,0,0,0,0,
0,0,0,0,0,0,0,0,0,0,0,0,0,0,0,0,0,0,0,0,0,0,0,0,0,0,0,0,0,0,0,0,0,0,0,0,0,0,0,0,0,0,0,0,0,0,0,0,0,0,0,0,0,0,0,0,0,0,0,0,0,0,0,0,0,0,0,0,0,0,0,0,0,0,0,0,0,0,0,0,
0,0,0,0,0,0,0,0,0,0,0,0,0,0,0,0,0,0,0,0,0,0,0,0,0,0,0,0,0,0,0,0,0,0,0,0,0,0,0,0,0,0,0,0,0,0,0,0,0,0,0,0,0,0,0,0,0,0,0,0,0,0,0,0,0,0,0,0,0,0,0,0,0,0,0,0,0,0,0,0,
0,0,0,0,0,0,0,0,0,0,0,0,0,0,0,0,0,0,0,0,0,0,0,0,0,0,0,0,0,0,0,0,0,0,0,0,0,0,0,0,0,0,0,0,0,0,0,0,0,0,0,0,0,0,0,0,0,0,0,0,0,0,0,0,0,0,0,0,0,0,0,0,0,0,0,0,0,0,0,0,
0,0,0,0,0,0,0,0,0,0,0,0,0,0,0,0,0,0,0,0,0,0,0,0,0,0,0,0,0,0,0,0,0,0,0,0,0,0,0,0,0,0,0,0,0,0,0,0,0,0,0,0,0,0,0,0,0,0,0,0,0,0,0,0,0,0,0,0,0,0,0,0,0,0,0,0,0,0,0,0,
0,0,0,0,0,0,0,0,0,0,0,0,0,0,0,0,0,0,0,0,0,0,0,0,0,0,0,0,0,0,0,0,0,0,0,0,0,0,0,0,0,0,0,0,0,0,0,0,0,0,0,0,0,0,0,0,0,0,0,0,0,0,0,0,0,0,0,0,0,0,0,0,0,0,0,0,0,0,0,0,
0,0,0,0,0,0,0,0,0,0,0,0,0,0,0,0,0,0,0,0,0,0,0,0,0,0,0,0,0,0,0,0,0,0,0,0,0,0,0,0,0,0,0,0,0,0,0,0,0,0,0,0,0,0,0,0,0,0,0,0,0,0,0,0,0,0,0,0,0,0,0,0,0,0,0,0,0,0,0,0,
0,0,0,0,0,0,0,0,0,0,0,0,0,0,0,0,0,0,0,0,0,0,0,0,0,0,0,0,0,0,0,0,0,0,0,0,0,0,0,0,0,0,0,0,0,0,0,0,0,0,0,0,0,0,0,0,0,0,0,0,0,0,0,0,0,0,0,0,0,0,0,0,0,0,0,0,0,0,0,0,
0,0,0,0,0,0,0,0,0,0,0,0,0,0,0,0,0,0,0,0,0,0,0,0,0,0,0,0,0,0,0,0,0,0,0,0,0,0,0,0,0,0,0,0,0,0,0,0,0,0,0,0,0,0,0,0,0,0,0,0,0,0,0,0,0,0,0,0,0,0,0,0,0,0,0,0,0,0,0,0,
0,0,0,0,0,0,0,0,0,0,0,0,0,0,0,0,0,0,0,0,0,0,0,0,0,0,0,0,0,0,0,0,0,0,0,0,0,0,0,0,0,0,0,0,0,0,0,0,0,0,0,0,0,0,0,0,0,0,0,0,0,0,0,0,0,0,0,0,0,0,0,0,0,0,0,0,0,0,0,0,
0,0,0,0,0,0,0,0,0,0,0,0,0,0,0,0,0,0,0,0,0,0,0,0,0,0,0,0,0,0,0,0,0,0,0,0,0,0,0,0,0,0,0,0,0,0,0,0,0,0,0,0,0,0,0,0,0,0,0,0,0,0,0,0,0,0,0,0,0,0,0,0,0,0,0,0,0,0,0,0,
0,0,0,0,0,0,0,0,0,0,0,0,0,0,0,0,0,0,0,0,0,0,0,0,0,0,0,0,0,0,0,0,0,0,0,0,0,0,0,0,0,0,0,0,0,0,0,0,0,0,0,0,0,0,0,0,0,0,0,0,0,0,0,0,0,0,0,0,0,0,0,0,0,0,0,0,0,0,0,0,
0,0,0,5,6,0,0,0,0,0,0,0,0,0,0,0,0,0,0,0,0,0,0,0,0,0,0,0,0,0,0,0,0,0,0,0,0,0,0,0,0,0,0,0,0,0,0,0,0,0,0,0,0,0,0,0,0,0,0,0,0,0,0,0,0,0,0,0,0,0,0,0,0,0,0,0,0,0,0,0,
0,0,0,45,46,0,0,0,0,0,0,0,0,0,0,0,0,0,0,0,0,0,0,0,0,0,0,0,0,0,0,0,0,0,0,0,0,0,0,0,0,0,0,0,0,0,0,0,0,0,0,0,0,0,0,0,0,0,0,0,0,0,0,0,0,0,0,0,0,0,0,0,0,0,0,0,0,0,0,0,
0,0,0,0,0,0,0,0,0,0,0,0,0,0,0,0,0,0,0,0,0,0,0,0,0,0,0,0,0,0,0,0,0,0,0,0,0,0,0,0,0,0,0,0,0,0,0,0,0,0,0,0,0,0,0,0,0,0,0,0,0,0,0,0,0,0,0,0,0,0,0,0,0,0,0,0,0,0,0,0,
0,0,0,0,0,0,0,0,0,0,0,0,0,0,0,0,0,0,0,0,0,0,0,0,0,0,0,0,0,0,0,0,0,0,0,0,0,0,0,0,0,0,0,0,0,0,0,0,0,0,0,0,0,0,0,0,0,0,0,0,0,0,0,0,0,0,0,0,0,0,0,0,0,0,0,0,0,0,0,0,
0,0,0,0,0,0,0,0,0,0,0,0,0,0,0,0,0,0,0,0,0,0,0,0,0,0,0,0,0,0,0,0,0,0,0,0,0,0,0,0,0,0,0,0,0,0,0,0,0,0,0,0,0,0,0,0,0,0,0,0,0,0,0,0,0,0,0,0,0,0,0,0,0,0,0,0,0,0,0,0
</data>
 </layer>
 <objectgroup id="9" name="object" locked="1">
  <object id="1" name="player" x="1186.07" y="198.708">
   <point/>
  </object>
  <object id="36" name="collision" x="0" y="-0.125" width="32" height="1272.13">
   <properties>
    <property name="Blocked" type="bool" value="true"/>
    <property name="Type" value="collision"/>
   </properties>
  </object>
  <object id="37" name="collision" x="1248.38" y="-2.5" width="31.875" height="1282.88">
   <properties>
    <property name="Blocked" type="bool" value="true"/>
    <property name="Type" value="collision"/>
   </properties>
  </object>
  <object id="38" name="collision" x="4" y="1248.13" width="1259.88" height="31.875">
   <properties>
    <property name="Blocked" type="bool" value="true"/>
    <property name="Type" value="collision"/>
   </properties>
  </object>
  <object id="39" name="collision" x="4.125" y="1" width="1260.88" height="30.75">
   <properties>
    <property name="Blocked" type="bool" value="true"/>
    <property name="Type" value="collision"/>
   </properties>
  </object>
  <object id="40" name="collision" x="128" y="112.625" width="16" height="110.375">
   <properties>
    <property name="Blocked" type="bool" value="true"/>
    <property name="Type" value="collision"/>
   </properties>
  </object>
  <object id="41" name="collision" x="111.375" y="208" width="48.625" height="15.375">
   <properties>
    <property name="Blocked" type="bool" value="true"/>
    <property name="Type" value="collision"/>
   </properties>
  </object>
  <object id="42" name="collision" x="191.875" y="143.875" width="144.875" height="16.75">
   <properties>
    <property name="Blocked" type="bool" value="true"/>
    <property name="Type" value="collision"/>
   </properties>
  </object>
  <object id="43" name="collision" x="287.5" y="158" width="16" height="130.125">
   <properties>
    <property name="Blocked" type="bool" value="true"/>
    <property name="Type" value="collision"/>
   </properties>
  </object>
  <object id="44" name="collision" x="255.25" y="79.563" width="16" height="64.1875">
   <properties>
    <property name="Blocked" type="bool" value="true"/>
    <property name="Type" value="collision"/>
   </properties>
  </object>
  <object id="112" name="destructible_wall" x="176.75" y="1105.31" width="16" height="92.1875">
   <properties>
    <property name="Blocked" type="bool" value="true"/>
    <property name="Type" value="destructible_wall"/>
   </properties>
  </object>
  <object id="254" name="destructible_wall" x="176.75" y="1105.31" width="16" height="92.1875">
   <properties>
    <property name="Blocked" type="bool" value="true"/>
    <property name="Type" value="destructible_wall"/>
   </properties>
  </object>
  <object id="259" name="destructible_wall" x="290.75" y="935.313" width="16" height="102.188">
   <properties>
    <property name="Blocked" type="bool" value="true"/>
    <property name="Type" value="destructible_wall"/>
   </properties>
  </object>
  <object id="257" name="destructible_wall" x="124.75" y="351.313" width="16" height="92.1875">
   <properties>
    <property name="Blocked" type="bool" value="true"/>
    <property name="Type" value="destructible_wall"/>
   </properties>
  </object>
  <object id="113" name="destructible_wall" x="559.25" y="384.813" width="16" height="47.4375">
   <properties>
    <property name="Blocked" type="bool" value="true"/>
    <property name="Type" value="destructible_wall"/>
   </properties>
  </object>
  <object id="126" name="destructible_wall" x="1007.5" y="464.161" width="112" height="15.6114">
   <properties>
    <property name="Blocked" type="bool" value="true"/>
    <property name="Type" value="destructible_wall"/>
   </properties>
  </object>
  <object id="114" name="destructible_wall" x="658.75" y="943.563" width="16" height="95.4375">
   <properties>
    <property name="Blocked" type="bool" value="true"/>
    <property name="Type" value="destructible_wall"/>
   </properties>
  </object>
  <object id="129" name="destructible_wall" x="705.75" y="705.199" width="96.8182" height="15.7102">
   <properties>
    <property name="Blocked" type="bool" value="true"/>
    <property name="Type" value="destructible_wall"/>
   </properties>
  </object>
  <object id="131" name="destructible_wall" x="1169.75" y="721.988" width="82.5455" height="15.8518">
   <properties>
    <property name="Blocked" type="bool" value="true"/>
    <property name="Type" value="destructible_wall"/>
   </properties>
  </object>
  <object id="258" name="destructible_wall" x="377.75" y="657.988" width="82.5455" height="15.8518">
   <properties>
    <property name="Blocked" type="bool" value="true"/>
    <property name="Type" value="destructible_wall"/>
   </properties>
  </object>
  <object id="252" name="destructible_wall" x="311.75" y="541.988" width="82.5455" height="15.8518">
   <properties>
    <property name="Blocked" type="bool" value="true"/>
    <property name="Type" value="destructible_wall"/>
   </properties>
  </object>
  <object id="130" name="destructible_wall" x="297.75" y="1132.56" width="194.545" height="16.983">
   <properties>
    <property name="Blocked" type="bool" value="true"/>
    <property name="Type" value="destructible_wall"/>
   </properties>
  </object>
  <object id="260" name="destructible_wall" x="27.75" y="1060.56" width="84.5455" height="16.983">
   <properties>
    <property name="Blocked" type="bool" value="true"/>
    <property name="Type" value="destructible_wall"/>
   </properties>
  </object>
  <object id="120" name="destructible_wall" x="818" y="1166.56" width="16" height="79.4375">
   <properties>
    <property name="Blocked" type="bool" value="true"/>
    <property name="Type" value="destructible_wall"/>
   </properties>
  </object>
  <object id="124" name="destructible_wall" x="963.659" y="656.563" width="101.841" height="13.9375">
   <properties>
    <property name="Blocked" type="bool" value="true"/>
    <property name="Type" value="destructible_wall"/>
   </properties>
  </object>
  <object id="49" name="collision" x="159.875" y="255.125" width="74.875" height="16.625">
   <properties>
    <property name="Blocked" type="bool" value="true"/>
    <property name="Type" value="collision"/>
   </properties>
  </object>
  <object id="50" name="collision" x="32.5" y="336" width="143.5" height="16">
   <properties>
    <property name="Blocked" type="bool" value="true"/>
    <property name="Type" value="collision"/>
   </properties>
  </object>
  <object id="51" name="collision" x="127.25" y="400.25" width="16.625" height="127.75">
   <properties>
    <property name="Blocked" type="bool" value="true"/>
    <property name="Type" value="collision"/>
   </properties>
  </object>
  <object id="53" name="collision" x="97.5" y="927.5" width="203.875" height="18.5">
   <properties>
    <property name="Blocked" type="bool" value="true"/>
    <property name="Type" value="collision"/>
   </properties>
  </object>
  <object id="54" name="collision" x="368.909" y="544.375" width="143.091" height="15.625">
   <properties>
    <property name="Blocked" type="bool" value="true"/>
    <property name="Type" value="collision"/>
   </properties>
  </object>
  <object id="137" name="collision" x="831" y="801.193" width="70.5455" height="29.625">
   <properties>
    <property name="Blocked" type="bool" value="true"/>
    <property name="Type" value="collision"/>
   </properties>
  </object>
  <object id="55" name="collision" x="619.25" y="145.25" width="404.5" height="15.5">
   <properties>
    <property name="Blocked" type="bool" value="true"/>
    <property name="Type" value="collision"/>
   </properties>
  </object>
  <object id="57" name="collision" x="607.375" y="96.625" width="15.75" height="159.25">
   <properties>
    <property name="Blocked" type="bool" value="true"/>
    <property name="Type" value="collision"/>
   </properties>
  </object>
  <object id="58" name="collision" x="671" y="208.25" width="17" height="176">
   <properties>
    <property name="Blocked" type="bool" value="true"/>
    <property name="Type" value="collision"/>
   </properties>
  </object>
  <object id="59" name="collision" x="591" y="304.5" width="86" height="16.625">
   <properties>
    <property name="Blocked" type="bool" value="true"/>
    <property name="Type" value="collision"/>
   </properties>
  </object>
  <object id="60" name="collision" x="479.25" y="368.875" width="351" height="15.5">
   <properties>
    <property name="Blocked" type="bool" value="true"/>
    <property name="Type" value="collision"/>
   </properties>
  </object>
  <object id="61" name="collision" x="463.75" y="352" width="16.25" height="79.75">
   <properties>
    <property name="Blocked" type="bool" value="true"/>
    <property name="Type" value="collision"/>
   </properties>
  </object>
  <object id="64" name="collision" x="655.978" y="543.859" width="236.022" height="16.2826">
   <properties>
    <property name="Blocked" type="bool" value="true"/>
    <property name="Type" value="collision"/>
   </properties>
  </object>
  <object id="125" name="collision" x="559.25" y="544" width="48.25" height="15.5">
   <properties>
    <property name="Blocked" type="bool" value="true"/>
    <property name="Type" value="collision"/>
   </properties>
  </object>
  <object id="65" name="collision" x="559.5" y="543.5" width="15.5" height="177">
   <properties>
    <property name="Blocked" type="bool" value="true"/>
    <property name="Type" value="collision"/>
   </properties>
  </object>
  <object id="150" name="collision" x="1006.5" y="879" width="15.5" height="144">
   <properties>
    <property name="Blocked" type="bool" value="true"/>
    <property name="Type" value="collision"/>
   </properties>
  </object>
  <object id="151" name="collision" x="1121.5" y="246" width="15.5" height="234">
   <properties>
    <property name="Blocked" type="bool" value="true"/>
    <property name="Type" value="collision"/>
   </properties>
  </object>
  <object id="152" name="collision" x="895.5" y="544" width="15.5" height="361">
   <properties>
    <property name="Blocked" type="bool" value="true"/>
    <property name="Type" value="collision"/>
   </properties>
  </object>
  <object id="203" name="collision" x="879.5" y="418" width="15.5" height="140.5">
   <properties>
    <property name="Blocked" type="bool" value="true"/>
    <property name="Type" value="collision"/>
   </properties>
  </object>
  <object id="205" name="collision" x="1057" y="561" width="15.5" height="142">
   <properties>
    <property name="Blocked" type="bool" value="true"/>
    <property name="Type" value="collision"/>
   </properties>
  </object>
  <object id="206" name="collision" x="1104" y="561.5" width="15.5" height="175">
   <properties>
    <property name="Blocked" type="bool" value="true"/>
    <property name="Type" value="collision"/>
   </properties>
  </object>
  <object id="153" name="collision" x="815.5" y="894.5" width="15.5" height="274">
   <properties>
    <property name="Blocked" type="bool" value="true"/>
    <property name="Type" value="collision"/>
   </properties>
  </object>
  <object id="154" name="collision" x="495" y="830" width="15.5" height="209.5">
   <properties>
    <property name="Blocked" type="bool" value="true"/>
    <property name="Type" value="collision"/>
   </properties>
  </object>
  <object id="66" name="collision" x="431.75" y="656" width="128.25" height="16">
   <properties>
    <property name="Blocked" type="bool" value="true"/>
    <property name="Type" value="collision"/>
   </properties>
  </object>
  <object id="138" name="collision" x="320.25" y="656" width="63.75" height="16">
   <properties>
    <property name="Blocked" type="bool" value="true"/>
    <property name="Type" value="collision"/>
   </properties>
  </object>
  <object id="196" name="collision" x="287.25" y="543" width="33.75" height="16">
   <properties>
    <property name="Blocked" type="bool" value="true"/>
    <property name="Type" value="collision"/>
   </properties>
  </object>
  <object id="139" name="collision" x="320.25" y="624.5" width="15.25" height="29.5">
   <properties>
    <property name="Blocked" type="bool" value="true"/>
    <property name="Type" value="collision"/>
   </properties>
  </object>
  <object id="67" name="collision" x="530" y="430.667" width="144" height="16.1667">
   <properties>
    <property name="Blocked" type="bool" value="true"/>
    <property name="Type" value="collision"/>
   </properties>
  </object>
  <object id="204" name="collision" x="882.5" y="464.167" width="139.5" height="16.1667">
   <properties>
    <property name="Blocked" type="bool" value="true"/>
    <property name="Type" value="collision"/>
   </properties>
  </object>
  <object id="155" name="collision" x="28" y="750.667" width="144" height="16.1667">
   <properties>
    <property name="Blocked" type="bool" value="true"/>
    <property name="Type" value="collision"/>
   </properties>
  </object>
  <object id="156" name="collision" x="1121.5" y="239.167" width="137.5" height="14.6667">
   <properties>
    <property name="Blocked" type="bool" value="true"/>
    <property name="Type" value="collision"/>
   </properties>
  </object>
  <object id="157" name="collision" x="1002" y="881.667" width="144" height="12.1667">
   <properties>
    <property name="Blocked" type="bool" value="true"/>
    <property name="Type" value="collision"/>
   </properties>
  </object>
  <object id="169" name="collision" x="509" y="946.167" width="152" height="12.1667">
   <properties>
    <property name="Blocked" type="bool" value="true"/>
    <property name="Type" value="collision"/>
   </properties>
  </object>
  <object id="170" name="collision" x="914" y="769.667" width="144" height="12.1667">
   <properties>
    <property name="Blocked" type="bool" value="true"/>
    <property name="Type" value="collision"/>
   </properties>
  </object>
  <object id="162" name="collision" x="996" y="1089.17" width="144" height="12.1667">
   <properties>
    <property name="Blocked" type="bool" value="true"/>
    <property name="Type" value="collision"/>
   </properties>
  </object>
  <object id="158" name="collision" x="480" y="830.667" width="239" height="16.1667">
   <properties>
    <property name="Blocked" type="bool" value="true"/>
    <property name="Type" value="collision"/>
   </properties>
  </object>
  <object id="159" name="collision" x="178" y="1024.67" width="331" height="15.6667">
   <properties>
    <property name="Blocked" type="bool" value="true"/>
    <property name="Type" value="collision"/>
   </properties>
  </object>
  <object id="160" name="collision" x="960" y="304.667" width="175" height="16.1667">
   <properties>
    <property name="Blocked" type="bool" value="true"/>
    <property name="Type" value="collision"/>
   </properties>
  </object>
  <object id="161" name="collision" x="781" y="223.667" width="162.5" height="16.1667">
   <properties>
    <property name="Blocked" type="bool" value="true"/>
    <property name="Type" value="collision"/>
   </properties>
  </object>
  <object id="68" name="collision" x="656" y="436.083" width="16.058" height="108">
   <properties>
    <property name="Blocked" type="bool" value="true"/>
    <property name="Type" value="collision"/>
   </properties>
  </object>
  <object id="69" name="collision" x="480" y="560.333" width="15.9167" height="48.3333">
   <properties>
    <property name="Blocked" type="bool" value="true"/>
    <property name="Type" value="collision"/>
   </properties>
  </object>
  <object id="140" name="collision" x="495.792" y="479.458" width="15.6667" height="80.583">
   <properties>
    <property name="Blocked" type="bool" value="true"/>
    <property name="Type" value="collision"/>
   </properties>
  </object>
  <object id="141" name="collision" x="512.292" y="479.458" width="15.6667" height="16.583">
   <properties>
    <property name="Blocked" type="bool" value="true"/>
    <property name="Type" value="collision"/>
   </properties>
  </object>
  <object id="71" name="collision" x="426.667" y="416.458" width="38" height="15.125">
   <properties>
    <property name="Blocked" type="bool" value="true"/>
    <property name="Type" value="collision"/>
   </properties>
  </object>
  <object id="72" name="collision" x="287.167" y="464.333" width="16.1667" height="111">
   <properties>
    <property name="Blocked" type="bool" value="true"/>
    <property name="Type" value="collision"/>
   </properties>
  </object>
  <object id="80" name="collision" x="208.417" y="576.333" width="15.5833" height="128.5">
   <properties>
    <property name="Blocked" type="bool" value="true"/>
    <property name="Type" value="collision"/>
   </properties>
  </object>
  <object id="82" name="collision" x="112.167" y="1185.83" width="17.5" height="64.6667">
   <properties>
    <property name="Blocked" type="bool" value="true"/>
    <property name="Type" value="collision"/>
   </properties>
  </object>
  <object id="182" name="collision" x="287.667" y="879.833" width="18.5" height="67.6667">
   <properties>
    <property name="Blocked" type="bool" value="true"/>
    <property name="Type" value="collision"/>
   </properties>
  </object>
  <object id="183" name="collision" x="304.167" y="1025.83" width="16" height="123.667">
   <properties>
    <property name="Blocked" type="bool" value="true"/>
    <property name="Type" value="collision"/>
   </properties>
  </object>
  <object id="186" name="collision" x="97.167" y="946.833" width="16" height="135.667">
   <properties>
    <property name="Blocked" type="bool" value="true"/>
    <property name="Type" value="collision"/>
   </properties>
  </object>
  <object id="256" name="collision" x="175.667" y="1038.83" width="16" height="64.6667">
   <properties>
    <property name="Blocked" type="bool" value="true"/>
    <property name="Type" value="collision"/>
   </properties>
  </object>
  <object id="251" name="collision" x="461.667" y="232.833" width="16" height="158.667">
   <properties>
    <property name="Blocked" type="bool" value="true"/>
    <property name="Type" value="collision"/>
   </properties>
  </object>
  <object id="117" name="collision" x="80.667" y="614.833" width="16" height="105.667">
   <properties>
    <property name="Blocked" type="bool" value="true"/>
    <property name="Type" value="collision"/>
   </properties>
  </object>
  <object id="118" name="collision" x="272.167" y="703.833" width="17" height="128.417">
   <properties>
    <property name="Blocked" type="bool" value="true"/>
    <property name="Type" value="collision"/>
   </properties>
  </object>
  <object id="119" name="collision" x="464.167" y="720.333" width="15.5" height="125.167">
   <properties>
    <property name="Blocked" type="bool" value="true"/>
    <property name="Type" value="collision"/>
   </properties>
  </object>
  <object id="121" name="collision" x="575.917" y="704.333" width="33.25" height="15.4167">
   <properties>
    <property name="Blocked" type="bool" value="true"/>
    <property name="Type" value="collision"/>
   </properties>
  </object>
  <object id="178" name="collision" x="578.917" y="1152.33" width="59.25" height="15.4167">
   <properties>
    <property name="Blocked" type="bool" value="true"/>
    <property name="Type" value="collision"/>
   </properties>
  </object>
  <object id="179" name="collision" x="494.917" y="1135.33" width="64.25" height="15.4167">
   <properties>
    <property name="Blocked" type="bool" value="true"/>
    <property name="Type" value="collision"/>
   </properties>
  </object>
  <object id="187" name="collision" x="346.917" y="832.833" width="158.25" height="15.4167">
   <properties>
    <property name="Blocked" type="bool" value="true"/>
    <property name="Type" value="collision"/>
   </properties>
  </object>
  <object id="194" name="collision" x="116.917" y="1184.33" width="59.25" height="15.4167">
   <properties>
    <property name="Blocked" type="bool" value="true"/>
    <property name="Type" value="collision"/>
   </properties>
  </object>
  <object id="180" name="collision" x="674.917" y="1023.83" width="50.25" height="15.4167">
   <properties>
    <property name="Blocked" type="bool" value="true"/>
    <property name="Type" value="collision"/>
   </properties>
  </object>
  <object id="175" name="collision" x="785.917" y="703.833" width="61.25" height="15.4167">
   <properties>
    <property name="Blocked" type="bool" value="true"/>
    <property name="Type" value="collision"/>
   </properties>
  </object>
  <object id="207" name="collision" x="1054.92" y="561.333" width="61.25" height="15.4167">
   <properties>
    <property name="Blocked" type="bool" value="true"/>
    <property name="Type" value="collision"/>
   </properties>
  </object>
  <object id="208" name="collision" x="903.917" y="655.333" width="70.75" height="15.4167">
   <properties>
    <property name="Blocked" type="bool" value="true"/>
    <property name="Type" value="collision"/>
   </properties>
  </object>
  <object id="209" name="collision" x="1115.92" y="721.333" width="66.75" height="15.4167">
   <properties>
    <property name="Blocked" type="bool" value="true"/>
    <property name="Type" value="collision"/>
   </properties>
  </object>
  <object id="176" name="collision" x="767.917" y="893.333" width="138.25" height="15.4167">
   <properties>
    <property name="Blocked" type="bool" value="true"/>
    <property name="Type" value="collision"/>
   </properties>
  </object>
  <object id="177" name="collision" x="415.917" y="945.833" width="91.75" height="15.4167">
   <properties>
    <property name="Blocked" type="bool" value="true"/>
    <property name="Type" value="collision"/>
   </properties>
  </object>
  <object id="192" name="collision" x="87.917" y="828.333" width="75.25" height="15.4167">
   <properties>
    <property name="Blocked" type="bool" value="true"/>
    <property name="Type" value="collision"/>
   </properties>
  </object>
  <object id="171" name="collision" x="1138.92" y="1169.33" width="58.75" height="15.4167">
   <properties>
    <property name="Blocked" type="bool" value="true"/>
    <property name="Type" value="collision"/>
   </properties>
  </object>
  <object id="172" name="collision" x="822.917" y="1151.33" width="57.25" height="15.4167">
   <properties>
    <property name="Blocked" type="bool" value="true"/>
    <property name="Type" value="collision"/>
   </properties>
  </object>
  <object id="173" name="collision" x="1088.92" y="1025.33" width="66.25" height="11.4167">
   <properties>
    <property name="Blocked" type="bool" value="true"/>
    <property name="Type" value="collision"/>
   </properties>
  </object>
  <object id="174" name="collision" x="730.417" y="1089.33" width="165.75" height="15.4167">
   <properties>
    <property name="Blocked" type="bool" value="true"/>
    <property name="Type" value="collision"/>
   </properties>
  </object>
  <object id="122" name="collision" x="656.667" y="704.583" width="48" height="15.4167">
   <properties>
    <property name="Blocked" type="bool" value="true"/>
    <property name="Type" value="collision"/>
   </properties>
  </object>
  <object id="123" name="collision" x="688.417" y="608.083" width="15.75" height="96.1667">
   <properties>
    <property name="Blocked" type="bool" value="true"/>
    <property name="Type" value="collision"/>
   </properties>
  </object>
  <object id="115" name="collision" x="80.167" y="608.333" width="132.5" height="15.6667">
   <properties>
    <property name="Blocked" type="bool" value="true"/>
    <property name="Type" value="collision"/>
   </properties>
  </object>
  <object id="195" name="collision" x="141.167" y="511.333" width="157.5" height="15.6667">
   <properties>
    <property name="Blocked" type="bool" value="true"/>
    <property name="Type" value="collision"/>
   </properties>
  </object>
  <object id="83" name="collision" x="224.333" y="623" width="97.0833" height="16.9167">
   <properties>
    <property name="Blocked" type="bool" value="true"/>
    <property name="Type" value="collision"/>
   </properties>
  </object>
  <object id="84" name="collision" x="352.5" y="672.667" width="15.0833" height="46.5">
   <properties>
    <property name="Blocked" type="bool" value="true"/>
    <property name="Type" value="collision"/>
   </properties>
  </object>
  <object id="189" name="collision" x="784.5" y="548.667" width="15.0833" height="157.5">
   <properties>
    <property name="Blocked" type="bool" value="true"/>
    <property name="Type" value="collision"/>
   </properties>
  </object>
  <object id="190" name="collision" x="144.5" y="706.167" width="15.0833" height="136">
   <properties>
    <property name="Blocked" type="bool" value="true"/>
    <property name="Type" value="collision"/>
   </properties>
  </object>
  <object id="85" name="collision" x="527.667" y="448.833" width="16.6667" height="47.3333">
   <properties>
    <property name="Blocked" type="bool" value="true"/>
    <property name="Type" value="collision"/>
   </properties>
  </object>
  <object id="127" name="collision" x="591.417" y="496.083" width="16.6667" height="47.3333">
   <properties>
    <property name="Blocked" type="bool" value="true"/>
    <property name="Type" value="collision"/>
   </properties>
  </object>
  <object id="87" name="collision" x="383.75" y="160" width="16.25" height="63.5">
   <properties>
    <property name="Blocked" type="bool" value="true"/>
    <property name="Type" value="collision"/>
   </properties>
  </object>
  <object id="199" name="collision" x="1009.75" y="80.5" width="16.25" height="79">
   <properties>
    <property name="Blocked" type="bool" value="true"/>
    <property name="Type" value="collision"/>
   </properties>
  </object>
  <object id="200" name="collision" x="1040.75" y="222" width="16.25" height="79.5">
   <properties>
    <property name="Blocked" type="bool" value="true"/>
    <property name="Type" value="collision"/>
   </properties>
  </object>
  <object id="202" name="collision" x="960.25" y="311.5" width="16.25" height="71.5">
   <properties>
    <property name="Blocked" type="bool" value="true"/>
    <property name="Type" value="collision"/>
   </properties>
  </object>
  <object id="201" name="collision" x="783.75" y="150" width="16.25" height="152.5">
   <properties>
    <property name="Blocked" type="bool" value="true"/>
    <property name="Type" value="collision"/>
   </properties>
  </object>
  <object id="197" name="collision" x="752.75" y="28" width="16.25" height="117.5">
   <properties>
    <property name="Blocked" type="bool" value="true"/>
    <property name="Type" value="collision"/>
   </properties>
  </object>
  <object id="198" name="collision" x="384.25" y="18" width="16.25" height="79.5">
   <properties>
    <property name="Blocked" type="bool" value="true"/>
    <property name="Type" value="collision"/>
   </properties>
  </object>
  <object id="88" name="collision" x="463.583" y="33.833" width="15.75" height="254.167">
   <properties>
    <property name="Blocked" type="bool" value="true"/>
    <property name="Type" value="collision"/>
   </properties>
  </object>
  <object id="89" name="collision" x="478.333" y="224.333" width="129" height="15.3333">
   <properties>
    <property name="Blocked" type="bool" value="true"/>
    <property name="Type" value="collision"/>
   </properties>
  </object>
  <object id="128" name="collision" x="590.5" y="712.417" width="16.5" height="69.9583">
   <properties>
    <property name="Blocked" type="bool" value="true"/>
    <property name="Type" value="collision"/>
   </properties>
  </object>
  <object id="163" name="collision" x="562.5" y="1107.92" width="16.5" height="138.958">
   <properties>
    <property name="Blocked" type="bool" value="true"/>
    <property name="Type" value="collision"/>
   </properties>
  </object>
  <object id="164" name="collision" x="1135.5" y="1023.92" width="16.5" height="156.958">
   <properties>
    <property name="Blocked" type="bool" value="true"/>
    <property name="Type" value="collision"/>
   </properties>
  </object>
  <object id="165" name="collision" x="736.5" y="1183.42" width="16.5" height="64.9583">
   <properties>
    <property name="Blocked" type="bool" value="true"/>
    <property name="Type" value="collision"/>
   </properties>
  </object>
  <object id="181" name="collision" x="622.5" y="1151.92" width="16.5" height="64.9583">
   <properties>
    <property name="Blocked" type="bool" value="true"/>
    <property name="Type" value="collision"/>
   </properties>
  </object>
  <object id="166" name="collision" x="721.5" y="1023.42" width="16.5" height="79.4583">
   <properties>
    <property name="Blocked" type="bool" value="true"/>
    <property name="Type" value="collision"/>
   </properties>
  </object>
  <object id="167" name="collision" x="1135.5" y="785.917" width="16.5" height="108.958">
   <properties>
    <property name="Blocked" type="bool" value="true"/>
    <property name="Type" value="collision"/>
   </properties>
  </object>
  <object id="168" name="collision" x="992.5" y="1086.92" width="16.5" height="64.9583">
   <properties>
    <property name="Blocked" type="bool" value="true"/>
    <property name="Type" value="collision"/>
   </properties>
  </object>
  <object id="185" name="collision" x="766.5" y="892.917" width="16.5" height="64.9583">
   <properties>
    <property name="Blocked" type="bool" value="true"/>
    <property name="Type" value="collision"/>
   </properties>
  </object>
  <object id="91" name="collision" x="351.708" y="208.167" width="39.625" height="15.9167">
   <properties>
    <property name="Blocked" type="bool" value="true"/>
    <property name="Type" value="collision"/>
   </properties>
  </object>
  <object id="111" name="finish" x="50.25" y="1202.25" width="27" height="28"/>
  <object id="144" name="destructible_wall" x="829.061" y="368.812" width="137.545" height="15.7102">
   <properties>
    <property name="Blocked" type="bool" value="true"/>
    <property name="Type" value="destructible_wall"/>
   </properties>
  </object>
 </objectgroup>
 <objectgroup id="18" name="collectibles">
  <object id="136" name="collectible" x="62.0387" y="251.127" width="32" height="32">
   <properties>
    <property name="element_type" value="coin"/>
    <property name="score_value" type="int" value="10"/>
   </properties>
  </object>
  <object id="145" name="collectible" x="188.974" y="482.12" width="32" height="32">
   <properties>
    <property name="element_type" value="coin"/>
    <property name="score_value" type="int" value="10"/>
   </properties>
  </object>
  <object id="100" name="collectible" x="246.421" y="235.952" width="32" height="32">
   <properties>
    <property name="element_type" value="coin"/>
    <property name="score_value" type="int" value="10"/>
   </properties>
  </object>
  <object id="132" name="collectible" x="419.421" y="179.952" width="32" height="32">
   <properties>
    <property name="element_type" value="coin"/>
    <property name="score_value" type="int" value="10"/>
   </properties>
  </object>
  <object id="146" name="collectible" x="59.421" y="63.952" width="32" height="32">
   <properties>
    <property name="element_type" value="coin"/>
    <property name="score_value" type="int" value="10"/>
   </properties>
  </object>
  <object id="133" name="collectible" x="305.421" y="88.952" width="32" height="32">
   <properties>
    <property name="element_type" value="coin"/>
    <property name="score_value" type="int" value="10"/>
   </properties>
  </object>
  <object id="134" name="collectible" x="69.421" y="455.952" width="32" height="32">
   <properties>
    <property name="element_type" value="coin"/>
    <property name="score_value" type="int" value="10"/>
   </properties>
  </object>
  <object id="135" name="collectible" x="337.421" y="731.952" width="32" height="32">
   <properties>
    <property name="element_type" value="coin"/>
    <property name="score_value" type="int" value="10"/>
   </properties>
  </object>
  <object id="103" name="collectible" x="502.421" y="274.952" width="32" height="32">
   <properties>
    <property name="element_type" value="coin"/>
    <property name="score_value" type="int" value="10"/>
   </properties>
  </object>
  <object id="143" name="collectible" x="713.571" y="231.328" width="32" height="32">
   <properties>
    <property name="element_type" value="coin"/>
    <property name="score_value" type="int" value="10"/>
   </properties>
  </object>
  <object id="106" name="collectible" x="351.571" y="394.828" width="32" height="32">
   <properties>
    <property name="element_type" value="coin"/>
    <property name="score_value" type="int" value="10"/>
   </properties>
  </object>
  <object id="218" name="collectible" x="724.571" y="581.828" width="32" height="32">
   <properties>
    <property name="element_type" value="coin"/>
    <property name="score_value" type="int" value="10"/>
   </properties>
  </object>
  <object id="219" name="collectible" x="1183.57" y="510.828" width="32" height="32">
   <properties>
    <property name="element_type" value="coin"/>
    <property name="score_value" type="int" value="10"/>
   </properties>
  </object>
  <object id="220" name="collectible" x="944.571" y="702.828" width="32" height="32">
   <properties>
    <property name="element_type" value="coin"/>
    <property name="score_value" type="int" value="10"/>
   </properties>
  </object>
  <object id="221" name="collectible" x="1202.57" y="820.828" width="32" height="32">
   <properties>
    <property name="element_type" value="coin"/>
    <property name="score_value" type="int" value="10"/>
   </properties>
  </object>
  <object id="245" name="collectible" x="232.571" y="1072.83" width="32" height="32">
   <properties>
    <property name="element_type" value="coin"/>
    <property name="score_value" type="int" value="10"/>
   </properties>
  </object>
  <object id="246" name="collectible" x="56.571" y="888.828" width="32" height="32">
   <properties>
    <property name="element_type" value="coin"/>
    <property name="score_value" type="int" value="10"/>
   </properties>
  </object>
  <object id="247" name="collectible" x="172.571" y="712.828" width="32" height="32">
   <properties>
    <property name="element_type" value="coin"/>
    <property name="score_value" type="int" value="10"/>
   </properties>
  </object>
  <object id="248" name="collectible" x="660.571" y="1066.83" width="32" height="32">
   <properties>
    <property name="element_type" value="coin"/>
    <property name="score_value" type="int" value="10"/>
   </properties>
  </object>
  <object id="250" name="collectible" x="704.571" y="770.828" width="32" height="32">
   <properties>
    <property name="element_type" value="coin"/>
    <property name="score_value" type="int" value="10"/>
   </properties>
  </object>
  <object id="230" name="collectible" x="1059.57" y="1136.83" width="32" height="32">
   <properties>
    <property name="element_type" value="coin"/>
    <property name="score_value" type="int" value="10"/>
   </properties>
  </object>
  <object id="231" name="collectible" x="387.571" y="1079.83" width="32" height="32">
   <properties>
    <property name="element_type" value="coin"/>
    <property name="score_value" type="int" value="10"/>
   </properties>
  </object>
  <object id="232" name="collectible" x="553.571" y="889.828" width="32" height="32">
   <properties>
    <property name="element_type" value="coin"/>
    <property name="score_value" type="int" value="10"/>
   </properties>
  </object>
  <object id="233" name="collectible" x="420.571" y="895.828" width="32" height="32">
   <properties>
    <property name="element_type" value="coin"/>
    <property name="score_value" type="int" value="10"/>
   </properties>
  </object>
  <object id="234" name="collectible" x="363.571" y="1190.83" width="32" height="32">
   <properties>
    <property name="element_type" value="coin"/>
    <property name="score_value" type="int" value="10"/>
   </properties>
  </object>
  <object id="236" name="collectible" x="679.571" y="1194.83" width="32" height="32">
   <properties>
    <property name="element_type" value="coin"/>
    <property name="score_value" type="int" value="10"/>
   </properties>
  </object>
  <object id="237" name="collectible" x="847.571" y="1109.83" width="32" height="32">
   <properties>
    <property name="element_type" value="coin"/>
    <property name="score_value" type="int" value="10"/>
   </properties>
  </object>
  <object id="238" name="collectible" x="1061.57" y="928.828" width="32" height="32">
   <properties>
    <property name="element_type" value="coin"/>
    <property name="score_value" type="int" value="10"/>
   </properties>
  </object>
  <object id="239" name="collectible" x="939.571" y="845.828" width="32" height="32">
   <properties>
    <property name="element_type" value="coin"/>
    <property name="score_value" type="int" value="10"/>
   </properties>
  </object>
  <object id="223" name="collectible" x="1038.57" y="370.828" width="32" height="32">
   <properties>
    <property name="element_type" value="coin"/>
    <property name="score_value" type="int" value="10"/>
   </properties>
  </object>
  <object id="224" name="collectible" x="1172.57" y="306.828" width="32" height="32">
   <properties>
    <property name="element_type" value="coin"/>
    <property name="score_value" type="int" value="10"/>
   </properties>
  </object>
  <object id="225" name="collectible" x="1075.57" y="593.828" width="32" height="32">
   <properties>
    <property name="element_type" value="coin"/>
    <property name="score_value" type="int" value="10"/>
   </properties>
  </object>
  <object id="226" name="collectible" x="954.571" y="522.828" width="32" height="32">
   <properties>
    <property name="element_type" value="coin"/>
    <property name="score_value" type="int" value="10"/>
   </properties>
  </object>
  <object id="210" name="collectible" x="743.571" y="414.828" width="32" height="32">
   <properties>
    <property name="element_type" value="coin"/>
    <property name="score_value" type="int" value="10"/>
   </properties>
  </object>
  <object id="211" name="collectible" x="1069.57" y="93.828" width="32" height="32">
   <properties>
    <property name="element_type" value="coin"/>
    <property name="score_value" type="int" value="10"/>
   </properties>
  </object>
  <object id="213" name="collectible" x="848.571" y="178.828" width="32" height="32">
   <properties>
    <property name="element_type" value="coin"/>
    <property name="score_value" type="int" value="10"/>
   </properties>
  </object>
  <object id="214" name="collectible" x="984.571" y="259.828" width="32" height="32">
   <properties>
    <property name="element_type" value="coin"/>
    <property name="score_value" type="int" value="10"/>
   </properties>
  </object>
  <object id="215" name="collectible" x="693.571" y="84.828" width="32" height="32">
   <properties>
    <property name="element_type" value="coin"/>
    <property name="score_value" type="int" value="10"/>
   </properties>
  </object>
  <object id="109" name="collectible" x="442.727" y="612.605" width="32" height="32">
   <properties>
    <property name="element_type" value="coin"/>
    <property name="score_value" type="int" value="10"/>
   </properties>
  </object>
 </objectgroup>
</map>
