<?xml version="1.0" encoding="UTF-8"?>
<map version="1.10" tiledversion="1.11.2" orientation="orthogonal" renderorder="right-down" width="50" height="50" tilewidth="16" tileheight="16" infinite="0" nextlayerid="21" nextobjectid="150">
 <tileset firstgid="1" source="Nature.tsx"/>
 <tileset firstgid="721" source="deuxieme niveau.tsx"/>
 <layer id="3" name="background" width="50" height="50" locked="1">
  <data encoding="csv">
292,293,294,295,292,293,292,293,294,295,294,295,292,293,294,295,292,293,294,295,292,293,294,295,292,293,294,295,292,293,294,295,292,293,294,295,292,293,294,295,292,293,294,295,292,293,294,295,292,293,
332,333,334,335,332,333,332,333,334,335,334,335,332,333,334,335,332,333,334,335,332,333,334,335,332,333,334,335,332,333,334,335,332,333,334,335,332,333,334,335,332,333,334,335,332,333,334,335,332,333,
372,373,374,375,372,373,372,373,374,375,374,375,372,373,374,375,372,373,374,375,372,373,374,375,372,373,374,375,372,373,374,375,372,373,374,375,372,373,374,375,372,373,374,375,372,373,374,375,372,373,
412,413,414,415,412,413,292,293,294,295,414,415,412,413,414,415,412,413,414,415,412,413,414,415,412,413,414,415,412,413,414,415,412,413,414,415,412,413,414,415,412,413,414,415,412,413,414,415,412,413,
292,293,294,295,334,335,332,333,334,335,294,295,292,293,294,295,292,293,294,295,292,293,294,295,292,293,294,295,292,293,294,295,292,293,294,295,292,293,294,295,292,293,294,295,292,293,294,295,292,293,
332,333,334,335,374,375,372,373,374,375,334,335,332,333,334,335,332,333,334,335,332,333,334,335,332,333,334,335,332,333,334,335,332,333,334,335,332,333,334,335,332,333,334,335,332,333,334,335,332,333,
372,373,374,375,295,415,292,293,294,295,374,375,372,373,374,375,372,373,374,375,372,373,374,375,372,373,374,375,372,373,374,375,372,373,374,375,372,373,374,375,372,373,374,375,372,373,374,375,372,373,
412,413,414,415,335,294,295,333,334,335,414,415,412,413,414,415,412,413,414,415,412,413,414,415,412,413,414,415,412,413,414,415,412,413,414,415,412,413,414,415,412,413,414,415,412,413,414,415,412,413,
292,372,373,374,375,334,335,373,374,375,294,295,292,293,294,295,292,293,294,295,292,293,294,295,292,293,294,295,292,293,294,295,292,293,294,295,292,293,294,295,292,293,294,295,292,293,294,295,292,293,
332,412,413,414,415,374,375,413,294,295,292,293,294,293,294,335,332,333,334,335,332,333,334,335,332,333,334,335,332,333,334,335,332,333,334,335,332,333,334,335,332,333,334,335,332,333,334,335,332,333,
372,373,374,412,413,414,415,375,334,335,332,333,334,333,334,375,372,373,374,375,372,373,374,375,372,373,374,375,372,373,374,375,372,373,374,375,372,373,374,375,372,373,374,375,372,373,374,375,372,373,
412,413,414,415,412,413,414,415,374,375,372,373,374,373,374,415,412,413,414,415,412,413,414,415,412,413,414,415,412,413,414,415,412,413,414,415,412,413,414,415,412,413,414,415,412,413,414,415,412,413,
292,293,294,295,292,293,294,295,414,415,412,413,414,413,414,295,292,293,294,295,292,293,294,295,292,293,294,295,292,293,294,295,292,293,294,295,292,293,294,295,292,293,294,295,292,293,294,295,292,293,
332,333,334,335,332,333,334,335,332,333,334,335,332,333,334,335,332,333,334,335,332,333,334,335,332,333,334,335,332,333,334,335,332,333,334,335,332,333,334,335,332,333,334,335,332,333,334,335,332,333,
372,373,374,375,372,373,374,375,372,373,374,375,372,373,374,375,372,373,374,375,372,373,374,375,372,373,374,375,372,373,374,375,372,373,374,375,372,373,374,375,372,373,374,375,372,373,374,375,372,373,
412,413,414,415,412,413,414,415,412,413,414,415,412,413,414,415,412,413,414,415,412,413,414,415,412,413,414,415,412,413,414,415,412,413,414,415,412,413,414,415,412,413,414,415,412,413,414,415,412,413,
292,293,294,295,292,293,294,295,292,293,294,295,292,293,294,295,292,293,294,295,292,293,294,295,292,293,294,295,292,293,294,295,292,293,294,295,292,293,294,295,292,293,294,295,292,293,294,295,292,293,
332,333,334,335,332,333,334,335,332,333,334,335,332,333,334,335,332,333,334,335,332,333,334,335,332,333,334,335,332,333,334,335,332,333,334,335,332,333,334,335,332,333,334,335,332,333,334,335,332,333,
372,373,374,375,372,373,374,375,372,373,374,375,372,373,374,375,372,373,374,375,372,373,374,375,372,373,374,375,372,373,374,375,372,373,374,375,372,373,374,375,372,373,374,375,372,373,374,375,372,373,
412,413,414,415,412,413,414,415,412,413,414,415,412,413,414,415,412,413,414,415,412,413,414,415,412,413,414,415,412,413,414,415,412,413,414,415,412,413,414,415,412,413,414,415,412,413,414,415,412,413,
292,293,294,295,292,293,294,295,292,293,294,295,292,293,294,295,292,293,294,295,292,293,294,295,292,293,294,295,292,293,294,295,292,293,294,295,292,293,294,295,292,293,294,295,292,293,294,295,292,293,
332,333,334,335,332,333,334,335,332,333,334,335,332,333,334,335,332,333,334,335,332,333,334,335,332,333,334,335,332,333,334,335,332,333,334,335,332,333,334,335,332,333,334,335,332,333,334,335,332,333,
372,373,374,375,372,373,374,375,372,373,374,375,372,373,374,375,372,373,374,375,372,373,374,375,372,373,374,375,372,373,374,375,372,373,374,375,372,373,374,375,372,373,374,375,372,373,374,375,372,373,
412,413,414,415,412,413,414,415,412,413,414,415,412,413,414,415,412,413,414,415,412,413,414,415,412,413,414,415,412,413,414,415,412,413,414,415,412,413,414,415,412,413,414,415,412,413,414,415,412,413,
292,293,294,295,292,293,294,295,292,293,294,295,292,293,294,295,292,293,294,295,292,293,294,295,292,293,294,295,292,293,294,295,292,293,294,295,292,293,294,295,292,293,294,295,292,293,294,295,292,293,
332,333,334,335,332,333,334,335,332,333,334,335,332,333,334,335,332,333,334,335,332,333,334,335,332,333,334,335,332,333,334,335,332,333,334,335,332,333,334,335,332,333,334,335,332,333,334,335,332,333,
372,373,374,375,372,373,374,375,372,373,374,375,372,373,374,375,372,373,374,375,372,373,374,375,372,373,374,375,372,373,374,375,372,373,374,375,372,373,374,375,372,373,374,375,372,373,374,375,372,373,
412,413,414,415,412,413,414,415,412,413,414,415,412,413,414,415,412,413,414,415,412,413,414,415,412,413,414,415,412,413,414,415,412,413,414,415,412,413,414,415,412,413,414,415,412,413,414,415,412,413,
292,293,294,295,292,293,294,295,292,293,294,295,292,293,294,295,292,293,294,295,292,293,294,295,292,293,294,295,292,293,294,295,292,293,294,295,292,293,294,295,292,293,294,295,292,293,294,295,292,293,
332,333,334,335,332,333,334,335,332,333,334,335,332,333,334,335,332,333,334,335,332,333,334,335,332,333,334,335,332,333,334,335,332,333,334,335,332,333,334,335,332,333,334,335,332,333,334,335,332,333,
372,373,374,375,372,373,374,375,372,373,374,375,372,373,374,375,372,373,374,375,372,373,374,375,372,373,374,375,372,373,374,375,372,373,374,375,372,373,374,375,372,373,374,375,372,373,374,375,372,373,
412,413,414,415,412,413,414,415,412,413,414,415,412,413,414,415,412,413,414,415,412,413,414,415,412,413,414,415,412,413,414,415,412,413,414,415,412,413,414,415,412,413,414,415,412,413,414,415,412,413,
292,293,294,295,292,293,294,295,292,293,294,295,292,293,294,295,292,293,294,295,292,293,294,295,292,293,294,295,292,293,294,295,292,293,294,295,292,293,294,295,292,293,294,295,292,293,294,295,292,293,
332,333,334,335,332,333,334,335,332,333,334,335,332,333,334,335,332,333,334,335,332,333,334,335,332,333,334,335,332,333,334,335,332,333,334,335,332,333,334,335,332,333,334,335,332,333,334,335,332,333,
372,373,374,375,372,373,374,375,372,373,374,375,372,373,374,375,372,373,374,375,372,373,374,375,372,373,374,375,372,373,374,375,372,373,374,375,372,373,374,375,372,373,374,375,372,373,374,375,372,373,
412,413,414,415,412,413,414,415,412,413,414,415,412,413,414,415,412,413,414,415,412,413,414,415,412,413,414,415,412,413,414,415,412,413,414,415,412,413,414,415,412,413,414,415,412,413,414,415,412,413,
292,293,294,295,292,293,294,295,292,293,294,295,292,293,294,295,292,293,294,295,292,293,294,295,292,293,294,295,292,293,294,295,292,293,294,295,292,293,294,295,292,293,294,295,292,293,294,295,292,293,
332,333,334,335,332,333,334,335,332,333,334,335,332,333,334,335,332,333,334,335,332,333,334,335,332,333,334,335,332,333,334,335,332,333,334,335,332,333,334,335,332,333,334,335,332,333,334,335,332,333,
372,373,374,375,372,373,374,375,372,373,374,375,372,373,374,375,372,373,374,375,372,373,374,375,372,373,374,375,372,373,374,375,372,373,374,375,372,373,374,375,372,373,374,375,372,373,374,375,372,373,
412,413,414,415,412,413,414,415,412,413,414,415,412,413,414,415,412,413,414,415,412,413,414,415,412,413,414,415,412,413,414,415,412,413,414,415,412,413,414,415,412,413,414,415,412,413,414,415,412,413,
292,293,294,295,292,293,294,295,292,293,294,295,292,293,294,295,292,293,294,295,292,293,294,295,292,293,294,295,292,293,294,295,292,293,294,295,292,293,294,295,292,293,294,295,292,293,294,295,292,293,
332,333,334,335,332,333,334,335,332,333,334,335,332,333,334,335,332,333,334,335,332,333,334,335,332,333,334,335,332,333,334,335,332,333,334,335,332,333,334,335,332,333,334,335,332,333,334,335,332,333,
372,373,374,375,372,373,374,375,372,373,374,375,372,373,374,375,372,373,374,375,372,373,374,375,372,373,374,375,372,373,374,375,372,373,374,375,372,373,374,375,372,373,374,375,372,373,374,375,372,373,
412,413,414,415,412,413,414,415,412,413,414,415,412,413,414,415,412,413,414,415,412,413,414,415,412,413,414,415,412,413,414,415,412,413,414,415,412,413,414,415,412,413,414,415,412,413,414,415,412,413,
292,293,294,295,292,293,294,295,292,293,294,295,292,293,294,295,292,293,294,295,292,293,294,295,292,293,294,295,292,293,294,295,292,293,294,295,292,293,294,295,292,293,294,295,292,293,294,295,292,293,
332,333,334,335,332,333,334,335,332,333,334,335,332,333,334,335,332,333,334,335,332,333,334,335,332,333,334,335,332,333,334,335,332,333,334,335,332,333,334,335,332,333,334,335,332,333,334,335,332,333,
372,373,374,375,372,373,374,375,372,373,374,375,372,373,374,375,372,373,374,375,372,373,374,375,372,373,374,375,372,373,374,375,372,373,374,375,372,373,374,375,372,373,374,375,372,373,374,375,372,373,
412,413,414,415,412,413,414,415,412,413,414,415,412,413,414,415,412,413,414,415,412,413,414,415,412,413,414,415,412,413,414,415,412,413,414,415,412,413,414,415,412,413,414,415,412,413,414,415,412,413,
292,293,294,295,292,293,294,295,292,293,294,295,292,293,294,295,292,293,294,295,292,293,294,295,292,293,294,295,292,293,294,295,292,293,294,295,292,293,294,295,292,293,294,295,292,293,294,295,292,293,
332,333,334,335,332,333,334,335,332,333,334,335,332,333,334,335,332,333,334,335,332,333,334,335,332,333,334,335,332,333,334,335,332,333,334,335,332,333,334,335,332,333,334,335,332,333,334,335,332,333
</data>
 </layer>
 <layer id="6" name="walls" width="50" height="50" locked="1">
  <data encoding="csv">
167,167,167,168,168,168,168,168,168,168,168,168,168,168,168,168,168,168,168,168,168,168,168,168,168,168,168,168,168,168,168,168,168,168,168,168,168,168,168,168,168,168,168,168,168,168,168,168,168,168,
167,207,167,168,168,168,168,168,168,168,168,168,168,168,168,168,168,168,168,168,168,168,168,168,168,168,168,168,168,168,168,168,168,168,168,168,168,168,168,168,168,168,168,168,168,168,168,168,168,168,
167,207,0,0,0,0,0,0,0,0,0,0,0,0,0,0,0,0,0,0,0,0,0,0,0,0,0,0,0,0,0,0,0,0,0,0,0,0,0,0,0,0,0,0,0,0,0,0,168,168,
167,207,0,0,0,0,0,0,0,0,0,0,0,0,0,0,0,0,0,0,0,0,0,0,0,0,0,0,0,0,0,0,0,0,0,0,0,0,0,0,0,0,0,0,0,0,0,0,168,168,
167,207,0,0,0,0,0,0,0,0,0,0,0,0,0,0,0,0,0,0,0,0,0,0,0,0,0,0,0,0,0,0,0,0,0,0,0,0,0,0,0,0,0,0,0,0,0,0,168,168,
167,207,0,0,0,0,0,0,0,0,0,0,0,0,0,0,0,0,0,0,0,0,0,0,0,0,0,0,0,0,0,0,0,0,0,0,0,0,0,0,0,0,0,0,0,0,0,0,168,168,
167,207,0,0,0,0,0,0,0,0,0,0,0,0,0,0,0,0,0,0,0,0,0,0,0,0,0,0,0,0,0,0,0,0,0,0,0,0,0,0,0,0,0,0,0,0,0,0,168,168,
167,207,0,0,0,0,0,0,0,0,0,0,0,0,0,0,0,0,0,0,0,0,0,0,0,0,0,0,0,0,0,0,0,0,0,0,0,0,0,0,0,0,0,0,0,0,0,0,168,168,
167,207,0,0,0,0,0,0,0,0,0,0,0,0,0,0,0,0,0,0,0,0,0,0,0,0,0,0,0,0,0,0,0,0,0,0,0,0,0,0,0,0,0,0,0,0,0,0,168,168,
167,207,0,0,0,0,0,0,0,0,0,0,0,0,0,0,0,0,0,0,0,0,0,0,0,0,0,0,0,0,0,0,0,0,0,0,0,0,0,0,0,0,0,0,0,0,0,0,168,168,
167,207,0,0,0,0,0,0,0,0,0,0,0,0,0,0,0,0,0,0,0,0,0,0,0,0,0,0,0,0,0,0,0,0,0,0,0,0,0,0,0,0,0,0,0,0,0,0,168,168,
168,207,0,0,0,0,0,0,0,0,0,0,0,0,0,0,0,0,0,0,0,0,0,0,0,0,0,0,0,0,0,0,0,0,0,0,0,0,0,0,0,0,0,0,0,0,0,0,168,168,
168,207,0,0,0,0,0,0,0,0,0,0,0,0,0,0,0,0,0,0,0,0,0,0,0,0,0,0,0,0,0,0,0,0,0,0,0,0,0,0,0,0,0,0,0,0,0,0,168,168,
168,207,0,0,0,0,0,0,0,0,0,0,0,0,0,0,0,0,0,0,0,0,0,0,0,0,0,0,0,0,0,0,0,0,0,0,0,0,0,0,0,0,0,0,0,0,0,0,168,168,
168,207,0,0,0,0,0,0,0,0,0,0,0,0,0,0,0,0,0,0,0,0,0,0,0,0,0,0,0,0,0,0,0,0,0,0,0,0,0,0,0,0,0,0,0,0,0,0,168,168,
168,207,0,0,0,0,0,0,0,0,0,0,0,0,0,0,0,0,0,0,0,0,0,0,0,0,0,0,0,0,0,0,0,0,0,0,0,0,0,0,0,0,0,0,0,0,0,0,168,168,
168,207,0,0,0,0,0,0,0,0,0,0,0,0,0,0,0,0,0,0,0,0,0,0,0,0,0,0,0,0,0,0,0,0,0,0,0,0,0,0,0,0,0,0,0,0,0,0,168,168,
168,207,0,0,0,0,0,0,0,0,0,0,0,0,0,0,0,0,0,0,0,0,0,0,0,0,0,0,0,0,0,0,0,0,0,0,0,0,0,0,0,0,0,0,0,0,0,0,168,168,
168,207,0,0,0,0,0,0,0,0,0,0,0,0,0,0,0,0,0,0,0,0,0,0,0,0,0,0,0,0,0,0,0,0,0,0,0,0,0,0,0,0,0,0,0,0,0,0,168,168,
168,207,0,0,0,0,0,0,0,0,0,0,0,0,0,0,0,0,0,0,0,0,0,0,0,0,0,0,0,0,0,0,0,0,0,0,0,0,0,0,0,0,0,0,0,0,0,0,168,168,
168,207,0,0,0,0,0,0,0,0,0,0,0,0,0,0,0,0,0,0,0,0,0,0,0,0,0,0,0,0,0,0,0,0,0,0,0,0,0,0,0,0,0,0,0,0,0,0,168,168,
168,207,0,0,0,0,0,0,0,0,0,0,0,0,0,0,0,0,0,0,0,0,0,0,0,0,0,0,0,0,0,0,0,0,0,0,0,0,0,0,0,0,0,0,0,0,0,0,168,168,
168,207,0,0,0,0,0,0,0,0,0,0,0,0,0,0,0,0,0,0,0,0,0,0,0,0,0,0,0,0,0,0,0,0,0,0,0,0,0,0,0,0,0,0,0,0,0,0,168,168,
168,207,0,0,0,0,0,0,0,0,0,0,0,0,0,0,0,0,0,0,0,0,0,0,0,0,0,0,0,0,0,0,0,0,0,0,0,0,0,0,0,0,0,0,0,0,0,0,168,168,
168,207,0,0,0,0,0,0,0,0,0,0,0,0,0,0,0,0,0,0,0,0,0,0,0,0,0,0,0,0,0,0,0,0,0,0,0,0,0,0,0,0,0,0,0,0,0,0,168,168,
168,207,0,0,0,0,0,0,0,0,0,0,0,0,0,0,0,0,0,0,0,0,0,0,0,0,0,0,0,0,0,0,0,0,0,0,0,0,0,0,0,0,0,0,0,0,0,0,168,168,
167,207,0,0,0,0,0,0,0,0,0,0,0,0,0,0,0,0,0,0,0,0,0,0,0,0,0,0,0,0,0,0,0,0,0,0,0,0,0,0,0,0,0,0,0,0,0,0,168,168,
167,207,0,0,0,0,0,0,0,0,0,0,0,0,0,0,0,0,0,0,0,0,0,0,0,0,0,0,0,0,0,0,0,0,0,0,0,0,0,0,0,0,0,0,0,0,0,0,168,168,
167,207,0,0,0,0,0,0,0,0,0,0,0,0,0,0,0,0,0,0,0,0,0,0,0,0,0,0,0,0,0,0,0,0,0,0,0,0,0,0,0,0,0,0,0,0,0,0,168,168,
168,207,0,0,0,0,0,0,0,0,0,0,0,0,0,0,0,0,0,0,0,0,0,0,0,0,0,0,0,0,0,0,0,0,0,0,0,0,0,0,0,0,0,0,0,0,0,0,168,168,
168,207,0,0,0,0,0,0,0,0,0,0,0,0,0,0,0,0,0,0,0,0,0,0,0,0,0,0,0,0,0,0,0,0,0,0,0,0,0,0,0,0,0,0,0,0,0,0,168,168,
168,207,0,0,0,0,0,0,0,0,0,0,0,0,0,0,0,0,0,0,0,0,0,0,0,0,0,0,0,0,0,0,0,0,0,0,0,0,0,0,0,0,0,0,0,0,0,0,168,168,
168,207,0,0,0,0,0,0,0,0,0,0,0,0,0,0,0,0,0,0,0,0,0,0,0,0,0,0,0,0,0,0,0,0,0,0,0,0,0,0,0,0,0,0,0,0,0,0,168,168,
168,207,0,0,0,0,0,0,0,0,0,0,0,0,0,0,0,0,0,0,0,0,0,0,0,0,0,0,0,0,0,0,0,0,0,0,0,0,0,0,0,0,0,0,0,0,0,0,168,168,
168,207,0,0,0,0,0,0,0,0,0,0,0,0,0,0,0,0,0,0,0,0,0,0,0,0,0,0,0,0,0,0,0,0,0,0,0,0,0,0,0,0,0,0,0,0,0,0,168,168,
168,207,0,0,0,0,0,0,0,0,0,0,0,0,0,0,0,0,0,0,0,0,0,0,0,0,0,0,0,0,0,0,0,0,0,0,0,0,0,0,0,0,0,0,0,0,0,0,168,168,
168,207,0,0,0,0,0,0,0,0,0,0,0,0,0,0,0,0,0,0,0,0,0,0,0,0,0,0,0,0,0,0,0,0,0,0,0,0,0,0,0,0,0,0,0,0,0,0,168,168,
167,168,0,0,0,0,0,0,0,0,0,0,0,0,0,0,0,0,0,0,0,0,0,0,0,0,0,0,0,0,0,0,0,0,0,0,0,0,0,0,0,0,0,0,0,0,0,0,168,168,
167,168,0,0,0,0,0,0,0,0,0,0,0,0,0,0,0,0,0,0,0,0,0,0,0,0,0,0,0,0,0,0,0,0,0,0,0,0,0,0,0,0,0,0,0,0,0,0,168,168,
167,168,0,0,0,0,0,0,0,0,0,0,0,0,0,0,0,0,0,0,0,0,0,0,0,0,0,0,0,0,0,0,0,0,0,0,0,0,0,0,0,0,0,0,0,0,0,0,168,168,
167,168,0,0,0,0,0,0,0,0,0,0,0,0,0,0,0,0,0,0,0,0,0,0,0,0,0,0,0,0,0,0,0,0,0,0,0,0,0,0,0,0,0,0,0,0,0,0,168,168,
167,168,0,0,0,0,0,0,0,0,0,0,0,0,0,0,0,0,0,0,0,0,0,0,0,0,0,0,0,0,0,0,0,0,0,0,0,0,0,0,0,0,0,0,0,0,0,0,168,168,
167,168,0,0,0,0,0,0,0,0,0,0,0,0,0,0,0,0,0,0,0,0,0,0,0,0,0,0,0,0,0,0,0,0,0,0,0,0,0,0,0,0,0,0,0,0,0,0,168,168,
167,168,0,0,0,0,0,0,0,0,0,0,0,0,0,0,0,0,0,0,0,0,0,0,0,0,0,0,0,0,0,0,0,0,0,0,0,0,0,0,0,0,0,0,0,0,0,0,168,168,
207,208,0,0,0,0,0,0,0,0,0,0,0,0,0,0,0,0,0,0,0,0,0,0,0,0,0,0,0,0,0,0,0,0,0,0,0,0,0,0,0,0,0,0,0,0,0,0,168,168,
167,168,0,0,0,0,0,0,0,0,0,0,0,0,0,0,0,0,0,0,0,0,0,0,0,0,0,0,0,0,0,0,0,0,0,0,0,0,0,0,0,0,0,0,0,0,0,0,168,168,
167,168,0,0,0,0,0,0,0,0,0,0,0,0,0,0,0,0,0,0,0,0,0,0,0,0,0,0,0,0,0,0,0,0,0,0,0,0,0,0,0,0,0,0,0,0,0,0,167,168,
167,168,0,0,0,0,0,0,0,0,0,0,0,0,0,0,0,0,0,0,0,0,0,0,0,0,0,0,0,0,0,0,0,0,0,0,0,0,0,0,0,0,0,0,0,0,0,0,207,208,
167,167,207,208,167,167,207,207,167,167,167,167,167,167,167,167,167,167,167,167,167,167,168,208,168,168,168,168,168,168,168,168,168,168,168,168,207,207,207,207,207,207,207,207,207,167,168,168,168,168,
207,207,207,208,207,207,207,208,207,207,207,207,207,207,207,207,207,207,207,207,207,207,208,208,208,208,208,208,208,208,208,208,208,208,208,208,168,168,168,168,168,168,168,168,168,168,168,208,208,208
</data>
 </layer>
 <layer id="16" name="mur" width="50" height="50" locked="1">
  <data encoding="csv">
0,0,0,0,0,0,0,0,0,0,0,0,0,0,0,0,0,0,0,0,0,0,0,0,0,0,0,0,0,0,0,0,0,0,0,0,0,0,0,0,0,0,0,0,0,0,0,0,0,0,
0,0,0,0,0,0,0,0,0,0,0,0,0,0,0,0,0,0,0,0,0,0,0,0,0,0,0,0,0,0,0,0,0,0,0,0,0,0,0,0,0,0,0,0,0,0,0,0,0,0,
0,0,0,0,0,0,0,0,0,0,0,0,0,0,0,0,0,0,0,0,0,0,0,0,2684354831,0,0,0,0,0,0,0,0,0,0,0,0,0,0,0,0,0,0,0,0,0,0,0,0,0,
0,0,0,0,0,0,0,0,0,0,0,0,0,0,0,0,0,0,0,0,0,0,0,0,2684354831,0,0,0,0,0,0,0,0,0,0,0,0,0,0,0,0,0,0,0,0,0,0,0,0,0,
0,0,0,0,0,0,0,0,0,0,0,0,0,0,0,0,0,0,0,0,0,0,0,0,2684354831,0,0,0,0,0,0,0,0,0,0,0,0,0,0,0,0,0,0,0,0,0,0,0,0,0,
0,0,0,0,0,0,0,0,0,0,0,0,0,0,0,0,2684354831,0,0,0,0,0,0,0,2684354831,0,0,0,0,2684354831,0,0,0,0,0,0,0,0,0,0,0,0,0,0,0,0,0,0,0,0,
0,0,0,0,0,0,0,0,0,0,0,0,0,0,0,0,2684354831,0,0,0,0,0,0,0,0,0,0,0,0,2684354831,0,0,0,0,0,0,0,0,2684354831,0,0,0,0,0,0,0,0,0,0,0,
0,0,0,0,0,0,0,0,271,0,0,0,0,0,0,0,2684354831,0,0,0,0,0,0,0,0,0,0,0,0,2684354831,0,0,0,0,0,0,0,0,2684354831,0,0,0,0,0,0,0,0,0,0,0,
0,0,0,0,0,0,0,0,311,0,0,0,0,0,0,0,271,0,0,0,0,0,0,0,0,0,0,0,0,191,0,0,0,0,0,0,0,0,2684354831,0,0,0,0,0,0,0,0,0,0,0,
0,0,0,0,0,0,0,0,351,0,0,0,191,191,191,191,191,191,191,191,191,0,0,0,231,0,0,0,0,231,0,0,0,0,0,0,0,0,191,191,191,191,191,191,271,271,271,271,0,0,
0,0,0,0,0,0,0,0,391,0,0,0,0,0,0,0,0,0,191,0,0,0,0,0,271,0,0,0,0,271,0,0,0,0,0,0,0,0,231,0,0,0,0,0,0,0,0,0,0,0,
0,0,0,0,0,0,0,0,431,0,0,0,0,0,0,0,0,0,191,0,0,0,0,0,311,0,0,0,0,311,0,0,0,0,0,0,0,0,271,0,0,0,0,0,0,0,0,0,0,0,
0,0,0,0,0,0,0,0,471,0,0,0,0,0,0,0,0,0,231,0,0,0,0,0,351,0,0,0,0,351,0,0,0,0,0,0,0,0,311,0,0,0,0,0,0,0,0,0,0,0,
0,0,0,0,0,0,0,191,191,191,0,0,0,231,191,0,0,0,271,0,0,0,191,191,191,0,0,0,0,391,0,0,0,0,0,0,0,0,351,0,0,0,191,0,0,0,0,0,0,0,
0,0,0,0,0,0,0,0,0,0,0,0,0,0,231,0,0,0,311,0,0,0,0,0,0,0,0,0,0,191,191,191,191,191,191,191,191,191,391,0,0,0,231,0,0,0,0,0,0,0,
0,0,0,0,0,0,0,0,0,0,0,0,0,0,271,0,0,0,351,0,0,0,0,0,0,0,0,0,0,231,0,0,0,0,0,0,0,0,431,0,0,0,271,0,0,0,0,0,0,0,
0,0,0,0,0,0,0,0,0,0,191,191,191,191,191,0,0,0,391,0,0,0,0,0,0,0,0,0,0,271,0,0,0,0,0,0,0,0,0,0,0,0,311,0,0,0,0,0,0,0,
0,0,0,0,0,0,0,0,0,0,0,0,0,0,351,0,0,0,431,0,0,0,191,191,191,191,0,0,0,311,0,0,0,0,0,0,0,0,0,0,0,0,351,0,0,0,0,0,0,0,
0,0,0,0,0,0,0,0,0,0,0,0,0,0,391,0,0,0,0,0,0,0,0,0,0,191,0,0,0,0,0,0,0,0,0,0,0,0,0,0,0,0,391,0,0,0,0,0,0,0,
0,0,0,0,0,0,0,0,0,0,0,0,0,0,431,191,191,191,0,0,0,0,0,0,0,231,0,0,0,0,0,0,0,0,0,0,0,191,191,191,191,191,431,0,0,0,0,0,0,0,
0,0,0,0,0,0,0,0,0,0,0,0,0,0,471,0,0,0,0,0,0,0,0,0,0,271,0,0,0,0,0,0,0,0,0,0,0,0,0,0,0,0,471,0,0,0,0,0,0,0,
0,0,271,271,271,271,191,191,191,191,191,0,0,0,191,0,0,0,0,0,191,191,191,191,191,191,0,0,0,0,0,0,0,0,0,0,0,0,0,0,0,0,191,0,0,0,0,0,0,0,
0,0,0,0,0,0,0,0,0,0,0,0,0,0,231,0,0,0,0,0,231,0,0,191,0,0,0,0,0,191,0,0,0,0,0,0,0,0,0,0,0,0,231,0,0,0,0,0,0,0,
0,0,0,0,0,0,0,0,0,0,0,0,0,0,271,0,0,0,191,191,271,0,0,231,0,0,0,0,0,231,191,191,191,191,191,191,191,191,191,191,191,191,271,0,0,0,0,0,0,0,
0,0,0,0,0,0,0,0,0,0,0,0,0,0,311,0,0,0,231,0,0,0,0,0,0,0,0,0,0,271,0,0,0,0,0,0,0,0,0,0,0,0,0,0,0,0,0,0,0,0,
0,0,0,0,0,0,0,0,191,0,0,0,0,0,351,0,0,0,271,0,0,0,0,0,0,0,0,0,0,311,0,0,0,0,0,0,0,0,0,0,0,0,0,0,0,0,0,0,0,0,
0,0,0,0,0,0,0,0,231,0,0,0,0,0,391,0,0,0,0,0,0,0,0,0,0,0,191,191,191,191,0,0,0,0,0,0,0,0,0,0,0,0,0,0,0,0,0,0,0,0,
0,0,0,0,0,0,0,0,191,191,191,0,0,0,431,0,0,0,0,0,0,0,0,0,0,0,231,0,0,0,0,0,0,3221225903,191,191,1610612967,1610613007,1610613047,1610613087,1610613127,1610613167,0,0,0,0,0,0,0,0,
0,0,0,0,0,0,0,0,311,0,0,0,0,0,0,0,0,0,0,0,0,0,0,0,0,0,271,0,0,0,0,0,0,3221225863,0,0,0,0,0,0,0,271,0,0,0,0,0,0,0,0,
0,0,0,0,0,0,0,0,351,0,0,0,0,0,0,0,0,0,191,191,191,191,191,0,0,0,311,0,0,0,0,0,0,3221225823,0,0,0,0,0,0,0,311,0,0,0,0,0,0,0,0,
0,0,0,0,0,0,0,0,391,0,0,0,0,0,0,0,0,0,471,0,0,0,0,0,0,0,351,0,0,0,0,2684355031,2684354991,2684354951,0,0,0,0,0,0,0,351,0,0,0,0,0,0,0,0,
0,0,0,0,0,0,0,0,431,0,0,0,0,0,0,0,0,0,191,0,0,0,0,0,0,0,0,0,0,0,0,391,0,0,0,0,0,3221225783,0,0,0,391,0,0,0,0,0,0,0,0,
0,0,0,0,0,0,0,0,471,191,191,191,191,191,191,191,191,191,231,0,0,0,0,0,0,0,0,0,0,0,0,431,0,0,0,0,0,3221225743,0,0,0,431,0,0,0,0,0,0,0,0,
0,0,0,0,0,0,0,0,0,0,0,0,0,0,0,0,0,0,271,0,0,0,0,0,0,0,0,0,0,0,0,471,0,0,0,0,0,3221225703,0,0,0,431,0,0,0,0,0,0,0,0,
0,0,0,0,0,0,0,0,0,0,0,0,0,0,0,0,0,0,191,191,0,0,0,191,271,271,271,271,271,271,191,271,0,0,0,191,191,271,0,0,0,271,271,271,271,271,271,271,0,0,
0,0,0,0,0,0,0,0,0,0,0,0,0,0,0,0,0,0,351,0,0,0,0,0,0,0,0,0,0,0,231,0,0,0,0,231,0,0,0,0,0,0,0,0,0,0,0,0,0,0,
0,0,0,0,0,0,0,0,0,0,0,0,0,351,0,0,0,0,0,0,0,0,0,0,0,0,0,0,0,0,271,0,0,0,0,271,0,0,0,0,0,0,0,0,0,0,0,0,0,0,
0,0,0,0,0,0,0,0,0,0,0,0,0,391,0,0,0,0,0,0,0,0,0,0,0,0,0,0,0,0,311,0,0,0,0,311,0,0,0,0,0,0,0,0,0,0,0,0,0,0,
0,0,0,0,0,1610613007,3221225743,3221225743,3221225743,3221225743,191,191,191,191,0,0,0,0,0,0,0,0,0,0,0,0,0,0,0,0,0,0,0,0,0,351,0,0,0,0,0,0,0,1610613007,0,0,0,0,0,0,
0,0,0,0,0,1610613007,0,0,0,0,0,0,0,231,191,191,191,2684355031,2684354991,2684354951,3221225943,0,0,0,0,0,0,0,0,0,0,0,0,0,0,391,0,0,0,0,0,0,0,1610613007,0,0,0,0,0,0,
0,0,0,0,0,1610613007,0,0,0,0,0,0,0,271,0,0,0,0,0,0,3221225903,0,0,0,0,0,0,0,0,0,0,0,0,0,0,431,0,0,0,0,0,0,0,1610613007,0,0,0,0,0,0,
0,0,0,0,0,1610613007,0,0,0,0,0,0,0,311,0,0,0,0,0,0,3221225863,191,1610613007,191,0,0,0,191,191,191,191,191,191,191,191,191,0,0,0,0,0,0,0,1610613007,0,0,0,0,0,0,
0,0,0,0,0,1610613007,0,0,0,0,0,0,0,351,0,0,0,0,0,0,0,0,1610613007,0,0,0,0,0,0,0,0,0,0,0,0,2684354831,0,0,0,0,0,0,0,1610613007,0,0,0,0,0,0,
0,0,0,0,0,1610613007,0,0,0,0,0,0,0,391,0,0,0,0,0,0,0,0,1610613007,0,0,0,0,0,0,0,0,0,0,0,0,2684354831,0,0,0,0,0,0,0,1610613007,0,0,0,0,0,0,
0,0,0,0,0,1610613007,0,0,0,1610613007,0,0,0,0,0,0,0,2684354831,0,0,0,0,1610613007,0,0,0,0,0,0,0,0,0,0,0,0,2684354831,271,271,0,0,0,271,271,271,0,0,0,0,0,0,
0,0,0,0,0,0,0,0,0,1610613007,0,0,0,0,0,0,0,2684354831,0,0,0,0,0,0,0,0,0,0,0,2684354831,0,0,0,0,0,0,0,0,0,0,0,0,0,0,0,0,0,0,0,0,
0,0,0,0,0,0,0,0,0,1610613007,0,0,0,0,0,0,0,2684354831,0,0,0,0,0,0,0,0,0,0,0,2684354831,0,0,0,0,0,0,0,0,0,0,0,0,0,0,0,0,0,0,0,0,
0,0,0,0,0,0,0,0,0,1610613007,0,0,0,0,0,0,0,2684354831,0,0,0,0,0,0,0,0,0,0,0,2684354831,0,0,0,0,0,0,0,0,0,0,0,0,0,0,0,0,0,0,0,0,
0,0,0,0,0,0,0,0,0,0,0,0,0,0,0,0,0,0,0,0,0,0,0,0,0,0,0,0,0,0,0,0,0,0,0,0,0,0,0,0,0,0,0,0,0,0,0,0,0,0,
0,0,0,0,0,0,0,0,0,0,0,0,0,0,0,0,0,0,0,0,0,0,0,0,0,0,0,0,0,0,0,0,0,0,0,0,0,0,0,0,0,0,0,0,0,0,0,0,0,0
</data>
 </layer>
 <layer id="20" name="finish" width="50" height="50" locked="1">
  <data encoding="csv">
0,0,0,0,0,0,0,0,0,0,0,0,0,0,0,0,0,0,0,0,0,0,0,0,0,0,0,0,0,0,0,0,0,0,0,0,0,0,0,0,0,0,0,0,0,0,0,0,0,0,
0,0,0,0,0,0,0,0,0,0,0,0,0,0,0,0,0,0,0,0,0,0,0,0,0,0,0,0,0,0,0,0,0,0,0,0,0,0,0,0,0,0,0,0,0,0,0,0,0,0,
0,0,0,0,0,0,0,0,0,0,0,0,0,0,0,0,0,0,0,0,0,0,0,0,0,0,0,0,0,0,0,0,0,0,0,0,0,0,0,0,0,0,0,0,0,0,0,0,0,0,
0,0,0,0,0,0,0,0,0,0,0,0,0,0,0,0,0,0,0,0,0,0,0,0,0,0,0,0,0,0,0,0,0,0,0,0,0,0,0,0,0,0,0,0,0,0,0,0,0,0,
0,0,0,0,0,0,0,0,0,0,0,0,0,0,0,0,0,0,0,0,0,0,0,0,0,0,0,0,0,0,0,0,0,0,0,0,0,0,0,0,0,0,0,0,0,0,0,0,0,0,
0,0,0,0,0,0,0,0,0,0,0,0,0,0,0,0,0,0,0,0,0,0,0,0,0,0,0,0,0,0,0,0,0,0,0,0,0,0,0,0,0,0,0,0,0,0,0,0,0,0,
0,0,0,0,0,0,0,0,0,0,0,0,0,0,0,0,0,0,0,0,0,0,0,0,0,0,0,0,0,0,0,0,0,0,0,0,0,0,0,0,0,0,0,0,0,0,0,0,0,0,
0,0,0,0,0,0,0,0,0,0,0,0,0,0,0,0,0,0,0,0,0,0,0,0,0,0,0,0,0,0,0,0,0,0,0,0,0,0,0,0,0,0,0,0,0,0,0,0,0,0,
0,0,0,0,0,0,0,0,0,0,0,0,0,0,0,0,0,0,0,0,0,0,0,0,0,0,0,0,0,0,0,0,0,0,0,0,0,0,0,0,0,0,0,0,0,0,0,0,0,0,
0,0,0,0,0,0,0,0,0,0,0,0,0,0,0,0,0,0,0,0,0,0,0,0,0,0,0,0,0,0,0,0,0,0,0,0,0,0,0,0,0,0,0,0,0,0,0,0,0,0,
0,0,0,0,0,0,0,0,0,0,0,0,0,0,0,0,0,0,0,0,0,0,0,0,0,0,0,0,0,0,0,0,0,0,0,0,0,0,0,0,0,0,0,0,0,0,0,0,0,0,
0,0,0,0,0,0,0,0,0,0,0,0,0,0,0,0,0,0,0,0,0,0,0,0,0,0,0,0,0,0,0,0,0,0,0,0,0,0,0,0,0,0,0,0,0,0,0,0,0,0,
0,0,0,0,0,0,0,0,0,0,0,0,0,0,0,0,0,0,0,0,0,0,0,0,0,0,0,0,0,0,0,0,0,0,0,0,0,0,0,0,0,0,0,0,0,0,0,0,0,0,
0,0,0,0,0,0,0,0,0,0,0,0,0,0,0,0,0,0,0,0,0,0,0,0,0,0,0,0,0,0,0,0,0,0,0,0,0,0,0,0,0,0,0,0,0,0,0,0,0,0,
0,0,0,0,0,0,0,0,0,0,0,0,0,0,0,0,0,0,0,0,0,0,0,0,0,0,0,0,0,0,0,0,0,0,0,0,0,0,0,0,0,0,0,0,0,0,0,0,0,0,
0,0,0,0,0,0,0,0,0,0,0,0,0,0,0,0,0,0,0,0,0,0,0,0,0,0,0,0,0,0,0,0,0,0,0,0,0,0,0,0,0,0,0,0,0,0,0,0,0,0,
0,0,0,0,0,0,0,0,0,0,0,0,0,0,0,0,0,0,0,0,0,0,0,0,0,0,0,0,0,0,0,0,0,0,0,0,0,0,0,0,0,0,0,0,0,0,0,0,0,0,
0,0,0,0,0,0,0,0,0,0,0,0,0,0,0,0,0,0,0,0,0,0,0,0,0,0,0,0,0,0,0,0,0,0,0,0,0,0,0,0,0,0,0,0,0,0,0,0,0,0,
0,0,0,0,0,0,0,0,0,0,0,0,0,0,0,0,0,0,0,0,0,0,0,0,0,0,0,0,0,0,0,0,0,0,0,0,0,0,0,0,0,0,0,0,0,0,0,0,0,0,
0,0,0,0,0,0,0,0,0,0,0,0,0,0,0,0,0,0,0,0,0,0,0,0,0,0,0,0,0,0,0,0,0,0,0,0,0,0,0,0,0,0,0,0,0,0,0,0,0,0,
0,0,0,0,0,0,0,0,0,0,0,0,0,0,0,0,0,0,0,0,0,0,0,0,0,0,0,0,0,0,0,0,0,0,0,0,0,0,0,0,0,0,0,0,0,0,0,0,0,0,
0,0,0,0,0,0,0,0,0,0,0,0,0,0,0,0,0,0,0,0,0,0,0,0,0,0,0,0,0,0,0,0,0,0,0,0,0,0,0,0,0,0,0,0,0,0,0,0,0,0,
0,0,0,0,0,0,0,0,0,0,0,0,0,0,0,0,0,0,0,0,0,0,0,0,0,0,0,0,0,0,0,0,0,0,0,0,0,0,0,0,0,0,0,0,0,0,0,0,0,0,
0,0,0,0,0,0,0,0,0,0,0,0,0,0,0,0,0,0,0,0,0,0,0,0,0,0,0,0,0,0,0,0,0,0,0,0,0,0,0,0,0,0,0,0,0,0,0,0,0,0,
0,0,0,0,0,0,0,0,0,0,0,0,0,0,0,0,0,0,0,0,0,0,0,0,0,0,0,0,0,0,0,0,0,0,0,0,0,0,0,0,0,0,0,0,0,0,0,0,0,0,
0,0,0,0,0,0,0,0,0,0,0,0,0,0,0,0,0,0,0,0,0,0,0,0,0,0,0,0,0,0,0,0,0,0,0,0,0,0,0,0,0,0,0,0,0,0,0,0,0,0,
0,0,0,0,0,0,0,0,0,0,0,0,0,0,0,0,0,0,0,0,0,0,0,0,0,0,0,0,0,0,0,0,0,0,0,0,0,0,0,0,0,0,0,0,0,0,0,0,0,0,
0,0,0,0,0,0,0,0,0,0,0,0,0,0,0,0,0,0,0,0,0,0,0,0,0,0,0,0,0,0,0,0,0,0,0,0,0,0,0,0,0,0,0,0,0,0,0,0,0,0,
0,0,0,0,0,0,0,0,0,0,0,0,0,0,0,0,0,0,0,0,0,0,0,0,0,0,0,0,0,0,0,0,0,0,0,0,0,0,0,0,0,0,0,0,0,0,0,0,0,0,
0,0,0,0,0,0,0,0,0,0,0,0,0,0,0,0,0,0,0,0,0,0,0,0,0,0,0,0,0,0,0,0,0,0,0,0,0,0,0,0,0,0,0,0,0,0,0,0,0,0,
0,0,0,0,0,0,0,0,0,0,0,0,0,0,0,0,0,0,0,0,0,0,0,0,0,0,0,0,0,0,0,0,0,0,0,0,0,0,0,0,0,0,0,0,0,0,0,0,0,0,
0,0,0,0,0,0,0,0,0,0,0,0,0,0,0,0,0,0,0,0,0,0,0,0,0,0,0,0,0,0,0,0,0,0,0,0,0,0,0,0,0,0,0,0,0,0,0,0,0,0,
0,0,0,0,0,0,0,0,0,0,0,0,0,0,0,0,0,0,0,0,0,0,0,0,0,0,0,0,0,0,0,0,0,0,0,0,0,0,0,0,0,0,0,0,0,0,0,0,0,0,
0,0,0,0,0,0,0,0,0,0,0,0,0,0,0,0,0,0,0,0,0,0,0,0,0,0,0,0,0,0,0,0,0,0,0,0,0,0,0,0,0,0,0,0,0,0,0,0,0,0,
0,0,0,0,0,0,0,0,0,0,0,0,0,0,0,0,0,0,0,0,0,0,0,0,0,0,0,0,0,0,0,0,0,0,0,0,0,0,0,0,0,0,0,0,0,0,0,0,0,0,
0,0,0,0,0,0,0,0,0,0,0,0,0,0,0,0,0,0,0,0,0,0,0,0,0,0,0,0,0,0,0,0,0,0,0,0,0,0,0,0,0,0,0,0,0,0,0,0,0,0,
0,0,0,0,0,0,0,0,0,0,0,0,0,0,0,0,0,0,0,0,0,0,0,0,0,0,0,0,0,0,0,0,0,0,0,0,0,0,0,0,0,0,0,0,0,0,0,0,0,0,
0,0,0,0,0,0,0,0,0,0,0,0,0,0,0,0,0,0,0,0,0,0,0,0,0,0,0,0,0,0,0,0,0,0,0,0,0,0,0,0,0,0,0,0,0,0,0,0,0,0,
0,0,0,0,0,0,0,0,0,0,0,0,0,0,0,0,0,0,0,0,0,0,0,0,0,0,0,0,0,0,0,0,0,0,0,0,0,0,0,0,0,0,0,0,0,0,0,0,0,0,
0,0,0,0,0,0,0,0,0,0,0,0,0,0,0,0,0,0,0,0,0,0,0,0,0,0,0,0,0,0,0,0,0,0,0,0,0,0,5,6,0,0,0,0,0,0,0,0,0,0,
0,0,0,0,0,0,0,0,0,0,0,0,0,0,0,0,0,0,0,0,0,0,0,0,0,0,0,0,0,0,0,0,0,0,0,0,0,0,45,46,0,0,0,0,0,0,0,0,0,0,
0,0,0,0,0,0,0,0,0,0,0,0,0,0,0,0,0,0,0,0,0,0,0,0,0,0,0,0,0,0,0,0,0,0,0,0,0,0,0,0,0,0,0,0,0,0,0,0,0,0,
0,0,0,0,0,0,0,0,0,0,0,0,0,0,0,0,0,0,0,0,0,0,0,0,0,0,0,0,0,0,0,0,0,0,0,0,0,0,0,0,0,0,0,0,0,0,0,0,0,0,
0,0,0,0,0,0,0,0,0,0,0,0,0,0,0,0,0,0,0,0,0,0,0,0,0,0,0,0,0,0,0,0,0,0,0,0,0,0,0,0,0,0,0,0,0,0,0,0,0,0,
0,0,0,0,0,0,0,0,0,0,0,0,0,0,0,0,0,0,0,0,0,0,0,0,0,0,0,0,0,0,0,0,0,0,0,0,0,0,0,0,0,0,0,0,0,0,0,0,0,0,
0,0,0,0,0,0,0,0,0,0,0,0,0,0,0,0,0,0,0,0,0,0,0,0,0,0,0,0,0,0,0,0,0,0,0,0,0,0,0,0,0,0,0,0,0,0,0,0,0,0,
0,0,0,0,0,0,0,0,0,0,0,0,0,0,0,0,0,0,0,0,0,0,0,0,0,0,0,0,0,0,0,0,0,0,0,0,0,0,0,0,0,0,0,0,0,0,0,0,0,0,
0,0,0,0,0,0,0,0,0,0,0,0,0,0,0,0,0,0,0,0,0,0,0,0,0,0,0,0,0,0,0,0,0,0,0,0,0,0,0,0,0,0,0,0,0,0,0,0,0,0,
0,0,0,0,0,0,0,0,0,0,0,0,0,0,0,0,0,0,0,0,0,0,0,0,0,0,0,0,0,0,0,0,0,0,0,0,0,0,0,0,0,0,0,0,0,0,0,0,0,0,
0,0,0,0,0,0,0,0,0,0,0,0,0,0,0,0,0,0,0,0,0,0,0,0,0,0,0,0,0,0,0,0,0,0,0,0,0,0,0,0,0,0,0,0,0,0,0,0,0,0
</data>
 </layer>
 <objectgroup id="9" name="object">
  <object id="1" name="player" x="742.073" y="102.708">
   <point/>
  </object>
  <object id="36" name="collision" x="0" y="-0.125" width="32" height="784.125">
   <properties>
    <property name="Blocked" type="bool" value="true"/>
    <property name="Type" value="collision"/>
   </properties>
  </object>
  <object id="37" name="collision" x="767.875" y="1" width="31.875" height="782.875">
   <properties>
    <property name="Blocked" type="bool" value="true"/>
    <property name="Type" value="collision"/>
   </properties>
  </object>
  <object id="38" name="collision" x="0" y="768.125" width="799.875" height="31.875">
   <properties>
    <property name="Blocked" type="bool" value="true"/>
    <property name="Type" value="collision"/>
   </properties>
  </object>
  <object id="39" name="collision" x="16.125" y="1" width="782.875" height="30.75">
   <properties>
    <property name="Blocked" type="bool" value="true"/>
    <property name="Type" value="collision"/>
   </properties>
  </object>
  <object id="40" name="collision" x="128" y="112.625" width="16" height="110.375">
   <properties>
    <property name="Blocked" type="bool" value="true"/>
    <property name="Type" value="collision"/>
   </properties>
  </object>
  <object id="41" name="collision" x="111.375" y="208" width="48.625" height="15.375">
   <properties>
    <property name="Blocked" type="bool" value="true"/>
    <property name="Type" value="collision"/>
   </properties>
  </object>
  <object id="42" name="collision" x="191.875" y="143.875" width="144.875" height="16.75">
   <properties>
    <property name="Blocked" type="bool" value="true"/>
    <property name="Type" value="collision"/>
   </properties>
  </object>
  <object id="43" name="collision" x="287.5" y="158" width="16" height="130.125">
   <properties>
    <property name="Blocked" type="bool" value="true"/>
    <property name="Type" value="collision"/>
   </properties>
  </object>
  <object id="44" name="collision" x="255.25" y="79.563" width="16" height="64.1875">
   <properties>
    <property name="Blocked" type="bool" value="true"/>
    <property name="Type" value="collision"/>
   </properties>
  </object>
  <object id="112" name="destructible_wall" x="255.75" y="32.813" width="16" height="47.1875">
   <properties>
    <property name="Blocked" type="bool" value="true"/>
    <property name="Type" value="destructible_wall"/>
   </properties>
  </object>
  <object id="113" name="destructible_wall" x="559.25" y="384.813" width="16" height="47.4375">
   <properties>
    <property name="Blocked" type="bool" value="true"/>
    <property name="Type" value="destructible_wall"/>
   </properties>
  </object>
  <object id="126" name="destructible_wall" x="608" y="544.161" width="48.5" height="15.6114">
   <properties>
    <property name="Blocked" type="bool" value="true"/>
    <property name="Type" value="destructible_wall"/>
   </properties>
  </object>
  <object id="114" name="destructible_wall" x="287.75" y="416.563" width="16" height="47.4375">
   <properties>
    <property name="Blocked" type="bool" value="true"/>
    <property name="Type" value="destructible_wall"/>
   </properties>
  </object>
  <object id="129" name="destructible_wall" x="320.75" y="544.199" width="47.8182" height="15.7102">
   <properties>
    <property name="Blocked" type="bool" value="true"/>
    <property name="Type" value="destructible_wall"/>
   </properties>
  </object>
  <object id="131" name="destructible_wall" x="303.75" y="271.988" width="48.5455" height="15.8518">
   <properties>
    <property name="Blocked" type="bool" value="true"/>
    <property name="Type" value="destructible_wall"/>
   </properties>
  </object>
  <object id="130" name="destructible_wall" x="31.75" y="702.563" width="48.5455" height="16.983">
   <properties>
    <property name="Blocked" type="bool" value="true"/>
    <property name="Type" value="destructible_wall"/>
   </properties>
  </object>
  <object id="120" name="destructible_wall" x="208" y="528.563" width="16" height="47.4375">
   <properties>
    <property name="Blocked" type="bool" value="true"/>
    <property name="Type" value="destructible_wall"/>
   </properties>
  </object>
  <object id="124" name="destructible_wall" x="608.159" y="703.063" width="48.3409" height="17.4375">
   <properties>
    <property name="Blocked" type="bool" value="true"/>
    <property name="Type" value="destructible_wall"/>
   </properties>
  </object>
  <object id="46" name="collision" x="207.5" y="207.875" width="31.75" height="17">
   <properties>
    <property name="Blocked" type="bool" value="true"/>
    <property name="Type" value="collision"/>
   </properties>
  </object>
  <object id="47" name="collision" x="224.5" y="224.25" width="15.375" height="224.375">
   <properties>
    <property name="Blocked" type="bool" value="true"/>
    <property name="Type" value="collision"/>
   </properties>
  </object>
  <object id="48" name="collision" x="239.5" y="305" width="47.5" height="14.6667">
   <properties>
    <property name="Blocked" type="bool" value="true"/>
    <property name="Type" value="collision"/>
   </properties>
  </object>
  <object id="49" name="collision" x="159.875" y="255.125" width="64.875" height="16.625">
   <properties>
    <property name="Blocked" type="bool" value="true"/>
    <property name="Type" value="collision"/>
   </properties>
  </object>
  <object id="50" name="collision" x="32.5" y="336" width="143.5" height="16">
   <properties>
    <property name="Blocked" type="bool" value="true"/>
    <property name="Type" value="collision"/>
   </properties>
  </object>
  <object id="51" name="collision" x="127.25" y="400.25" width="16.625" height="127.75">
   <properties>
    <property name="Blocked" type="bool" value="true"/>
    <property name="Type" value="collision"/>
   </properties>
  </object>
  <object id="52" name="collision" x="138" y="432.125" width="37.375" height="15">
   <properties>
    <property name="Blocked" type="bool" value="true"/>
    <property name="Type" value="collision"/>
   </properties>
  </object>
  <object id="53" name="collision" x="141" y="512" width="162.375" height="16">
   <properties>
    <property name="Blocked" type="bool" value="true"/>
    <property name="Type" value="collision"/>
   </properties>
  </object>
  <object id="54" name="collision" x="368.909" y="544.375" width="143.091" height="15.625">
   <properties>
    <property name="Blocked" type="bool" value="true"/>
    <property name="Type" value="collision"/>
   </properties>
  </object>
  <object id="137" name="collision" x="304" y="544.193" width="16.5455" height="15.625">
   <properties>
    <property name="Blocked" type="bool" value="true"/>
    <property name="Type" value="collision"/>
   </properties>
  </object>
  <object id="55" name="collision" x="618.25" y="144.25" width="149.5" height="15.5">
   <properties>
    <property name="Blocked" type="bool" value="true"/>
    <property name="Type" value="collision"/>
   </properties>
  </object>
  <object id="57" name="collision" x="607.375" y="96.625" width="15.75" height="159.25">
   <properties>
    <property name="Blocked" type="bool" value="true"/>
    <property name="Type" value="collision"/>
   </properties>
  </object>
  <object id="58" name="collision" x="671" y="208.25" width="17" height="176">
   <properties>
    <property name="Blocked" type="bool" value="true"/>
    <property name="Type" value="collision"/>
   </properties>
  </object>
  <object id="59" name="collision" x="591" y="304.5" width="86" height="16.625">
   <properties>
    <property name="Blocked" type="bool" value="true"/>
    <property name="Type" value="collision"/>
   </properties>
  </object>
  <object id="60" name="collision" x="479.25" y="368.875" width="195" height="15.5">
   <properties>
    <property name="Blocked" type="bool" value="true"/>
    <property name="Type" value="collision"/>
   </properties>
  </object>
  <object id="61" name="collision" x="463.75" y="352" width="16.25" height="79.75">
   <properties>
    <property name="Blocked" type="bool" value="true"/>
    <property name="Type" value="collision"/>
   </properties>
  </object>
  <object id="64" name="collision" x="655.978" y="543.859" width="112.022" height="16.2826">
   <properties>
    <property name="Blocked" type="bool" value="true"/>
    <property name="Type" value="collision"/>
   </properties>
  </object>
  <object id="125" name="collision" x="559.25" y="544" width="48.25" height="15.5">
   <properties>
    <property name="Blocked" type="bool" value="true"/>
    <property name="Type" value="collision"/>
   </properties>
  </object>
  <object id="65" name="collision" x="559.5" y="558" width="15.5" height="162">
   <properties>
    <property name="Blocked" type="bool" value="true"/>
    <property name="Type" value="collision"/>
   </properties>
  </object>
  <object id="66" name="collision" x="431.75" y="656" width="128.25" height="16">
   <properties>
    <property name="Blocked" type="bool" value="true"/>
    <property name="Type" value="collision"/>
   </properties>
  </object>
  <object id="138" name="collision" x="320.25" y="656" width="63.75" height="16">
   <properties>
    <property name="Blocked" type="bool" value="true"/>
    <property name="Type" value="collision"/>
   </properties>
  </object>
  <object id="139" name="collision" x="320.25" y="624.5" width="15.25" height="29.5">
   <properties>
    <property name="Blocked" type="bool" value="true"/>
    <property name="Type" value="collision"/>
   </properties>
  </object>
  <object id="67" name="collision" x="528" y="432.667" width="144" height="16.1667">
   <properties>
    <property name="Blocked" type="bool" value="true"/>
    <property name="Type" value="collision"/>
   </properties>
  </object>
  <object id="68" name="collision" x="656" y="436.083" width="16.058" height="108">
   <properties>
    <property name="Blocked" type="bool" value="true"/>
    <property name="Type" value="collision"/>
   </properties>
  </object>
  <object id="69" name="collision" x="480" y="560.333" width="15.9167" height="48.3333">
   <properties>
    <property name="Blocked" type="bool" value="true"/>
    <property name="Type" value="collision"/>
   </properties>
  </object>
  <object id="70" name="collision" x="416.292" y="416.458" width="15.6667" height="80.583">
   <properties>
    <property name="Blocked" type="bool" value="true"/>
    <property name="Type" value="collision"/>
   </properties>
  </object>
  <object id="140" name="collision" x="495.792" y="479.458" width="15.6667" height="80.583">
   <properties>
    <property name="Blocked" type="bool" value="true"/>
    <property name="Type" value="collision"/>
   </properties>
  </object>
  <object id="141" name="collision" x="512.292" y="479.458" width="15.6667" height="16.583">
   <properties>
    <property name="Blocked" type="bool" value="true"/>
    <property name="Type" value="collision"/>
   </properties>
  </object>
  <object id="71" name="collision" x="426.667" y="416.458" width="38" height="15.125">
   <properties>
    <property name="Blocked" type="bool" value="true"/>
    <property name="Type" value="collision"/>
   </properties>
  </object>
  <object id="72" name="collision" x="287.167" y="464.333" width="16.1667" height="111">
   <properties>
    <property name="Blocked" type="bool" value="true"/>
    <property name="Type" value="collision"/>
   </properties>
  </object>
  <object id="73" name="collision" x="302.583" y="464.81" width="65.0833" height="16.5227">
   <properties>
    <property name="Blocked" type="bool" value="true"/>
    <property name="Type" value="collision"/>
   </properties>
  </object>
  <object id="75" name="collision" x="303.333" y="368.667" width="17" height="16.3031">
   <properties>
    <property name="Blocked" type="bool" value="true"/>
    <property name="Type" value="collision"/>
   </properties>
  </object>
  <object id="76" name="collision" x="320.182" y="337" width="15.9091" height="48.1212">
   <properties>
    <property name="Blocked" type="bool" value="true"/>
    <property name="Type" value="collision"/>
   </properties>
  </object>
  <object id="77" name="collision" x="333.818" y="336" width="66.5151" height="15.75">
   <properties>
    <property name="Blocked" type="bool" value="true"/>
    <property name="Type" value="collision"/>
   </properties>
  </object>
  <object id="80" name="collision" x="208.417" y="576.333" width="15.5833" height="128.5">
   <properties>
    <property name="Blocked" type="bool" value="true"/>
    <property name="Type" value="collision"/>
   </properties>
  </object>
  <object id="82" name="collision" x="144.167" y="703.833" width="16" height="64.6667">
   <properties>
    <property name="Blocked" type="bool" value="true"/>
    <property name="Type" value="collision"/>
   </properties>
  </object>
  <object id="117" name="collision" x="80.667" y="614.833" width="16" height="105.667">
   <properties>
    <property name="Blocked" type="bool" value="true"/>
    <property name="Type" value="collision"/>
   </properties>
  </object>
  <object id="118" name="collision" x="272.167" y="703.833" width="17" height="64.4167">
   <properties>
    <property name="Blocked" type="bool" value="true"/>
    <property name="Type" value="collision"/>
   </properties>
  </object>
  <object id="119" name="collision" x="464.167" y="720.333" width="15.5" height="47.1667">
   <properties>
    <property name="Blocked" type="bool" value="true"/>
    <property name="Type" value="collision"/>
   </properties>
  </object>
  <object id="121" name="collision" x="574.917" y="704.333" width="33.25" height="15.4167">
   <properties>
    <property name="Blocked" type="bool" value="true"/>
    <property name="Type" value="collision"/>
   </properties>
  </object>
  <object id="122" name="collision" x="656.667" y="704.583" width="48" height="15.4167">
   <properties>
    <property name="Blocked" type="bool" value="true"/>
    <property name="Type" value="collision"/>
   </properties>
  </object>
  <object id="123" name="collision" x="688.417" y="608.083" width="15.75" height="96.1667">
   <properties>
    <property name="Blocked" type="bool" value="true"/>
    <property name="Type" value="collision"/>
   </properties>
  </object>
  <object id="115" name="collision" x="80.167" y="608.333" width="132.5" height="15.6667">
   <properties>
    <property name="Blocked" type="bool" value="true"/>
    <property name="Type" value="collision"/>
   </properties>
  </object>
  <object id="83" name="collision" x="224.333" y="623" width="97.0833" height="16.9167">
   <properties>
    <property name="Blocked" type="bool" value="true"/>
    <property name="Type" value="collision"/>
   </properties>
  </object>
  <object id="84" name="collision" x="352.5" y="672.667" width="15.0833" height="46.5">
   <properties>
    <property name="Blocked" type="bool" value="true"/>
    <property name="Type" value="collision"/>
   </properties>
  </object>
  <object id="85" name="collision" x="527.667" y="448.833" width="16.6667" height="47.3333">
   <properties>
    <property name="Blocked" type="bool" value="true"/>
    <property name="Type" value="collision"/>
   </properties>
  </object>
  <object id="127" name="collision" x="591.417" y="496.083" width="16.6667" height="47.3333">
   <properties>
    <property name="Blocked" type="bool" value="true"/>
    <property name="Type" value="collision"/>
   </properties>
  </object>
  <object id="87" name="collision" x="383.75" y="144" width="16.25" height="79.5">
   <properties>
    <property name="Blocked" type="bool" value="true"/>
    <property name="Type" value="collision"/>
   </properties>
  </object>
  <object id="88" name="collision" x="463.583" y="79.833" width="15.75" height="208.167">
   <properties>
    <property name="Blocked" type="bool" value="true"/>
    <property name="Type" value="collision"/>
   </properties>
  </object>
  <object id="89" name="collision" x="478.333" y="224.333" width="129" height="15.3333">
   <properties>
    <property name="Blocked" type="bool" value="true"/>
    <property name="Type" value="collision"/>
   </properties>
  </object>
  <object id="128" name="collision" x="383.5" y="30.917" width="16.5" height="64.9583">
   <properties>
    <property name="Blocked" type="bool" value="true"/>
    <property name="Type" value="collision"/>
   </properties>
  </object>
  <object id="91" name="collision" x="351.708" y="208.167" width="39.625" height="15.9167">
   <properties>
    <property name="Blocked" type="bool" value="true"/>
    <property name="Type" value="collision"/>
   </properties>
  </object>
  <object id="92" name="collision" x="351.917" y="272" width="63.4163" height="16">
   <properties>
    <property name="Blocked" type="bool" value="true"/>
    <property name="Type" value="collision"/>
   </properties>
  </object>
  <object id="94" name="collision" x="398.667" y="284.667" width="16.6667" height="67.8333">
   <properties>
    <property name="Blocked" type="bool" value="true"/>
    <property name="Type" value="collision"/>
   </properties>
  </object>
  <object id="95" name="collision" x="286.94" y="368.849" width="16.0606" height="48.0417">
   <properties>
    <property name="Blocked" type="bool" value="true"/>
    <property name="Type" value="collision"/>
   </properties>
  </object>
  <object id="96" name="collision" x="368.333" y="348.667" width="15.3333" height="36.6667">
   <properties>
    <property name="Blocked" type="bool" value="true"/>
    <property name="Type" value="collision"/>
   </properties>
  </object>
  <object id="111" name="finish" x="610.25" y="624.25" width="27" height="28"/>
  <object id="144" name="destructible_wall" x="415.061" y="271.812" width="48.5455" height="15.7102">
   <properties>
    <property name="Blocked" type="bool" value="true"/>
    <property name="Type" value="destructible_wall"/>
   </properties>
  </object>
 </objectgroup>
 <objectgroup id="18" name="collectibles" visible="0" locked="1">
  <object id="98" name="collectible" x="179.372" y="99.1267" width="32" height="32">
   <properties>
    <property name="element_type" value="coin"/>
    <property name="score_value" type="int" value="10"/>
   </properties>
  </object>
  <object id="136" name="collectible" x="62.0387" y="251.127" width="32" height="32">
   <properties>
    <property name="element_type" value="coin"/>
    <property name="score_value" type="int" value="10"/>
   </properties>
  </object>
  <object id="147" name="collectible" x="53.0387" y="79.127" width="32" height="32">
   <properties>
    <property name="element_type" value="coin"/>
    <property name="score_value" type="int" value="10"/>
   </properties>
  </object>
  <object id="99" name="collectible" x="556.974" y="86.1199" width="32" height="32">
   <properties>
    <property name="element_type" value="coin"/>
    <property name="score_value" type="int" value="10"/>
   </properties>
  </object>
  <object id="145" name="collectible" x="554.974" y="168.12" width="32" height="32">
   <properties>
    <property name="element_type" value="coin"/>
    <property name="score_value" type="int" value="10"/>
   </properties>
  </object>
  <object id="100" name="collectible" x="246.421" y="235.952" width="32" height="32">
   <properties>
    <property name="element_type" value="coin"/>
    <property name="score_value" type="int" value="10"/>
   </properties>
  </object>
  <object id="101" name="collectible" x="255.421" y="335.952" width="32" height="32">
   <properties>
    <property name="element_type" value="coin"/>
    <property name="score_value" type="int" value="10"/>
   </properties>
  </object>
  <object id="132" name="collectible" x="419.421" y="179.952" width="32" height="32">
   <properties>
    <property name="element_type" value="coin"/>
    <property name="score_value" type="int" value="10"/>
   </properties>
  </object>
  <object id="146" name="collectible" x="309.421" y="195.952" width="32" height="32">
   <properties>
    <property name="element_type" value="coin"/>
    <property name="score_value" type="int" value="10"/>
   </properties>
  </object>
  <object id="133" name="collectible" x="305.421" y="88.952" width="32" height="32">
   <properties>
    <property name="element_type" value="coin"/>
    <property name="score_value" type="int" value="10"/>
   </properties>
  </object>
  <object id="134" name="collectible" x="69.421" y="455.952" width="32" height="32">
   <properties>
    <property name="element_type" value="coin"/>
    <property name="score_value" type="int" value="10"/>
   </properties>
  </object>
  <object id="135" name="collectible" x="337.421" y="731.952" width="32" height="32">
   <properties>
    <property name="element_type" value="coin"/>
    <property name="score_value" type="int" value="10"/>
   </properties>
  </object>
  <object id="142" name="collectible" x="124.921" y="648.452" width="32" height="32">
   <properties>
    <property name="element_type" value="coin"/>
    <property name="score_value" type="int" value="10"/>
   </properties>
  </object>
  <object id="102" name="collectible" x="179.421" y="364.952" width="32" height="32">
   <properties>
    <property name="element_type" value="coin"/>
    <property name="score_value" type="int" value="10"/>
   </properties>
  </object>
  <object id="103" name="collectible" x="502.421" y="274.952" width="32" height="32">
   <properties>
    <property name="element_type" value="coin"/>
    <property name="score_value" type="int" value="10"/>
   </properties>
  </object>
  <object id="104" name="collectible" x="497.571" y="402.828" width="32" height="32">
   <properties>
    <property name="element_type" value="coin"/>
    <property name="score_value" type="int" value="10"/>
   </properties>
  </object>
  <object id="105" name="collectible" x="702.071" y="507.828" width="32" height="32">
   <properties>
    <property name="element_type" value="coin"/>
    <property name="score_value" type="int" value="10"/>
   </properties>
  </object>
  <object id="143" name="collectible" x="713.571" y="231.328" width="32" height="32">
   <properties>
    <property name="element_type" value="coin"/>
    <property name="score_value" type="int" value="10"/>
   </properties>
  </object>
  <object id="106" name="collectible" x="368.571" y="406.828" width="32" height="32">
   <properties>
    <property name="element_type" value="coin"/>
    <property name="score_value" type="int" value="10"/>
   </properties>
  </object>
  <object id="109" name="collectible" x="442.727" y="612.605" width="32" height="32">
   <properties>
    <property name="element_type" value="coin"/>
    <property name="score_value" type="int" value="10"/>
   </properties>
  </object>
  <object id="110" name="collectible" x="153.227" y="551.605" width="32" height="32">
   <properties>
    <property name="element_type" value="coin"/>
    <property name="score_value" type="int" value="10"/>
   </properties>
  </object>
  <object id="148" name="collectible" x="173" y="218" width="32" height="32">
   <properties>
    <property name="element_type" value="coin"/>
    <property name="score_value" type="int" value="10"/>
   </properties>
  </object>
  <object id="149" name="collectible" x="409" y="503" width="32" height="32">
   <properties>
    <property name="element_type" value="coin"/>
    <property name="score_value" type="int" value="10"/>
   </properties>
  </object>
 </objectgroup>
</map>
