<?xml version="1.0" encoding="UTF-8"?>
<map version="1.10" tiledversion="1.11.2" orientation="orthogonal" renderorder="right-down" width="50" height="50" tilewidth="16" tileheight="16" infinite="0" nextlayerid="12" nextobjectid="17">
 <tileset firstgid="1" source="Nature.tsx"/>
 <layer id="3" name="background" width="50" height="50" locked="1">
  <data encoding="csv">
292,293,294,295,292,293,292,293,294,295,294,295,292,293,294,295,292,293,294,295,292,293,294,295,292,293,294,295,292,293,294,295,292,293,294,295,292,293,294,295,292,293,294,295,292,293,294,295,292,293,
332,333,334,335,332,333,332,333,334,335,334,335,332,333,334,335,332,333,334,335,332,333,334,335,332,333,334,335,332,333,334,335,332,333,334,335,332,333,334,335,332,333,334,335,332,333,334,335,332,333,
372,373,374,375,372,373,372,373,374,375,374,375,372,373,374,375,372,373,374,375,372,373,374,375,372,373,374,375,372,373,374,375,372,373,374,375,372,373,374,375,372,373,374,375,372,373,374,375,372,373,
412,413,414,415,412,413,292,293,294,295,414,415,412,413,414,415,412,413,414,415,412,413,414,415,412,413,414,415,412,413,414,415,412,413,414,415,412,413,414,415,412,413,414,415,412,413,414,415,412,413,
292,293,294,295,334,335,332,333,334,335,294,295,292,293,294,295,292,293,294,295,292,293,294,295,292,293,294,295,292,293,294,295,292,293,294,295,292,293,294,295,292,293,294,295,292,293,294,295,292,293,
332,333,334,335,374,375,372,373,374,375,334,335,332,333,334,335,332,333,334,335,332,333,334,335,332,333,334,335,332,333,334,335,332,333,334,335,332,333,334,335,332,333,334,335,332,333,334,335,332,333,
372,373,374,375,295,415,292,293,294,295,374,375,372,373,374,375,372,373,374,375,372,373,374,375,372,373,374,375,372,373,374,375,372,373,374,375,372,373,374,375,372,373,374,375,372,373,374,375,372,373,
412,413,414,415,335,294,295,333,334,335,414,415,412,413,414,415,412,413,414,415,412,413,414,415,412,413,414,415,412,413,414,415,412,413,414,415,412,413,414,415,412,413,414,415,412,413,414,415,412,413,
292,372,373,374,375,334,335,373,374,375,294,295,292,293,294,295,292,293,294,295,292,293,294,295,292,293,294,295,292,293,294,295,292,293,294,295,292,293,294,295,292,293,294,295,292,293,294,295,292,293,
332,412,413,414,415,374,375,413,414,415,334,335,332,333,334,335,332,333,334,335,332,333,334,335,332,333,334,335,332,333,334,335,332,333,334,335,332,333,334,335,332,333,334,335,332,333,334,335,332,333,
372,373,374,412,413,414,415,375,372,373,374,375,372,373,374,375,372,373,374,375,372,373,374,375,372,373,374,375,372,373,374,375,372,373,374,375,372,373,374,375,372,373,374,375,372,373,374,375,372,373,
412,413,414,415,412,413,414,415,412,413,414,415,412,413,414,415,412,413,414,415,412,413,414,415,412,413,414,415,412,413,414,415,412,413,414,415,412,413,414,415,412,413,414,415,412,413,414,415,412,413,
292,293,294,295,292,293,294,295,292,293,294,295,292,293,294,295,292,293,294,295,292,293,294,295,292,293,294,295,292,293,294,295,292,293,294,295,292,293,294,295,292,293,294,295,292,293,294,295,292,293,
332,333,334,335,332,333,334,335,332,333,334,335,332,333,334,335,332,333,334,335,332,333,334,335,332,333,334,335,332,333,334,335,332,333,334,335,332,333,334,335,332,333,334,335,332,333,334,335,332,333,
372,373,374,375,372,373,374,375,372,373,374,375,372,373,374,375,372,373,374,375,372,373,374,375,372,373,374,375,372,373,374,375,372,373,374,375,372,373,374,375,372,373,374,375,372,373,374,375,372,373,
412,413,414,415,412,413,414,415,412,413,414,415,412,413,414,415,412,413,414,415,412,413,414,415,412,413,414,415,412,413,414,415,412,413,414,415,412,413,414,415,412,413,414,415,412,413,414,415,412,413,
292,293,294,295,292,293,294,295,292,293,294,295,292,293,294,295,292,293,294,295,292,293,294,295,292,293,294,295,292,293,294,295,292,293,294,295,292,293,294,295,292,293,294,295,292,293,294,295,292,293,
332,333,334,335,332,333,334,335,332,333,334,335,332,333,334,335,332,333,334,335,332,333,334,335,332,333,334,335,332,333,334,335,332,333,334,335,332,333,334,335,332,333,334,335,332,333,334,335,332,333,
372,373,374,375,372,373,374,375,372,373,374,375,372,373,374,375,372,373,374,375,372,373,374,375,372,373,374,375,372,373,374,375,372,373,374,375,372,373,374,375,372,373,374,375,372,373,374,375,372,373,
412,413,414,415,412,413,414,415,412,413,414,415,412,413,414,415,412,413,414,415,412,413,414,415,412,413,414,415,412,413,414,415,412,413,414,415,412,413,414,415,412,413,414,415,412,413,414,415,412,413,
292,293,294,295,292,293,294,295,292,293,294,295,292,293,294,295,292,293,294,295,292,293,294,295,292,293,294,295,292,293,294,295,292,293,294,295,292,293,294,295,292,293,294,295,292,293,294,295,292,293,
332,333,334,335,332,333,334,335,332,333,334,335,332,333,334,335,332,333,334,335,332,333,334,335,332,333,334,335,332,333,334,335,332,333,334,335,332,333,334,335,332,333,334,335,332,333,334,335,332,333,
372,373,374,375,372,373,374,375,372,373,374,375,372,373,374,375,372,373,374,375,372,373,374,375,372,373,374,375,372,373,374,375,372,373,374,375,372,373,374,375,372,373,374,375,372,373,374,375,372,373,
412,413,414,415,412,413,414,415,412,413,414,415,412,413,414,415,412,413,414,415,412,413,414,415,412,413,414,415,412,413,414,415,412,413,414,415,412,413,414,415,412,413,414,415,412,413,414,415,412,413,
292,293,294,295,292,293,294,295,292,293,294,295,292,293,294,295,292,293,294,295,292,293,294,295,292,293,294,295,292,293,294,295,292,293,294,295,292,293,294,295,292,293,294,295,292,293,294,295,292,293,
332,333,334,335,332,333,334,335,332,333,334,335,332,333,334,335,332,333,334,335,332,333,334,335,332,333,334,335,332,333,334,335,332,333,334,335,332,333,334,335,332,333,334,335,332,333,334,335,332,333,
372,373,374,375,372,373,374,375,372,373,374,375,372,373,374,375,372,373,374,375,372,373,374,375,372,373,374,375,372,373,374,375,372,373,374,375,372,373,374,375,372,373,374,375,372,373,374,375,372,373,
412,413,414,415,412,413,414,415,412,413,414,415,412,413,414,415,412,413,414,415,412,413,414,415,412,413,414,415,412,413,414,415,412,413,414,415,412,413,414,415,412,413,414,415,412,413,414,415,412,413,
292,293,294,295,292,293,294,295,292,293,294,295,292,293,294,295,292,293,294,295,292,293,294,295,292,293,294,295,292,293,294,295,292,293,294,295,292,293,294,295,292,293,294,295,292,293,294,295,292,293,
332,333,334,335,332,333,334,335,332,333,334,335,332,333,334,335,332,333,334,335,332,333,334,335,332,333,334,335,332,333,334,335,332,333,334,335,332,333,334,335,332,333,334,335,332,333,334,335,332,333,
372,373,374,375,372,373,374,375,372,373,374,375,372,373,374,375,372,373,374,375,372,373,374,375,372,373,374,375,372,373,374,375,372,373,374,375,372,373,374,375,372,373,374,375,372,373,374,375,372,373,
412,413,414,415,412,413,414,415,412,413,414,415,412,413,414,415,412,413,414,415,412,413,414,415,412,413,414,415,412,413,414,415,412,413,414,415,412,413,414,415,412,413,414,415,412,413,414,415,412,413,
292,293,294,295,292,293,294,295,292,293,294,295,292,293,294,295,292,293,294,295,292,293,294,295,292,293,294,295,292,293,294,295,292,293,294,295,292,293,294,295,292,293,294,295,292,293,294,295,292,293,
332,333,334,335,332,333,334,335,332,333,334,335,332,333,334,335,332,333,334,335,332,333,334,335,332,333,334,335,332,333,334,335,332,333,334,335,332,333,334,335,332,333,334,335,332,333,334,335,332,333,
372,373,374,375,372,373,374,375,372,373,374,375,372,373,374,375,372,373,374,375,372,373,374,375,372,373,374,375,372,373,374,375,372,373,374,375,372,373,374,375,372,373,374,375,372,373,374,375,372,373,
412,413,414,415,412,413,414,415,412,413,414,415,412,413,414,415,412,413,414,415,412,413,414,415,412,413,414,415,412,413,414,415,412,413,414,415,412,413,414,415,412,413,414,415,412,413,414,415,412,413,
292,293,294,295,292,293,294,295,292,293,294,295,292,293,294,295,292,293,294,295,292,293,294,295,292,293,294,295,292,293,294,295,292,293,294,295,292,293,294,295,292,293,294,295,292,293,294,295,292,293,
332,333,334,335,332,333,334,335,332,333,334,335,332,333,334,335,332,333,334,335,332,333,334,335,332,333,334,335,332,333,334,335,332,333,334,335,332,333,334,335,332,333,334,335,332,333,334,335,332,333,
372,373,374,375,372,373,374,375,372,373,374,375,372,373,374,375,372,373,374,375,372,373,374,375,372,373,374,375,372,373,374,375,372,373,374,375,372,373,374,375,372,373,374,375,372,373,374,375,372,373,
412,413,414,415,412,413,414,415,412,413,414,415,412,413,414,415,412,413,414,415,412,413,414,415,412,413,414,415,412,413,414,415,412,413,414,415,412,413,414,415,412,413,414,415,412,413,414,415,412,413,
292,293,294,295,292,293,294,295,292,293,294,295,292,293,294,295,292,293,294,295,292,293,294,295,292,293,294,295,292,293,294,295,292,293,294,295,292,293,294,295,292,293,294,295,292,293,294,295,292,293,
332,333,334,335,332,333,334,335,332,333,334,335,332,333,334,335,332,333,334,335,332,333,334,335,332,333,334,335,332,333,334,335,332,333,334,335,332,333,334,335,332,333,334,335,332,333,334,335,332,333,
372,373,374,375,372,373,374,375,372,373,374,375,372,373,374,375,372,373,374,375,372,373,374,375,372,373,374,375,372,373,374,375,372,373,374,375,372,373,374,375,372,373,374,375,372,373,374,375,372,373,
412,413,414,415,412,413,414,415,412,413,414,415,412,413,414,415,412,413,414,415,412,413,414,415,412,413,414,415,412,413,414,415,412,413,414,415,412,413,414,415,412,413,414,415,412,413,414,415,412,413,
292,293,294,295,292,293,294,295,292,293,294,295,292,293,294,295,292,293,294,295,292,293,294,295,292,293,294,295,292,293,294,295,292,293,294,295,292,293,294,295,292,293,294,295,292,293,294,295,292,293,
332,333,334,335,332,333,334,335,332,333,334,335,332,333,334,335,332,333,334,335,332,333,334,335,332,333,334,335,332,333,334,335,332,333,334,335,332,333,334,335,332,333,334,335,332,333,334,335,332,333,
372,373,374,375,372,373,374,375,372,373,374,375,372,373,374,375,372,373,374,375,372,373,374,375,372,373,374,375,372,373,374,375,372,373,374,375,372,373,374,375,372,373,374,375,372,373,374,375,372,373,
412,413,414,415,412,413,414,415,412,413,414,415,412,413,414,415,412,413,414,415,412,413,414,415,412,413,414,415,412,413,414,415,412,413,414,415,412,413,414,415,412,413,414,415,412,413,414,415,412,413,
292,293,294,295,292,293,294,295,292,293,294,295,292,293,294,295,292,293,294,295,292,293,294,295,292,293,294,295,292,293,294,295,292,293,294,295,292,293,294,295,292,293,294,295,292,293,294,295,292,293,
332,333,334,335,332,333,334,335,332,333,334,335,332,333,334,335,332,333,334,335,332,333,334,335,332,333,334,335,332,333,334,335,332,333,334,335,332,333,334,335,332,333,334,335,332,333,334,335,332,333
</data>
 </layer>
 <layer id="6" name="walls" width="50" height="50" locked="1">
  <data encoding="csv">
167,167,167,168,168,168,168,168,168,168,168,168,168,168,168,168,168,168,168,168,168,168,168,168,168,168,168,168,168,168,168,168,168,168,168,168,168,168,168,168,168,168,168,168,168,168,168,168,168,168,
167,207,167,168,168,168,168,168,168,168,168,168,168,168,168,168,168,168,168,168,168,168,168,168,168,168,168,168,168,168,168,168,168,168,168,168,168,168,168,168,168,168,168,168,168,168,168,168,168,168,
167,207,0,0,0,0,0,0,0,0,0,0,0,0,0,0,0,0,0,0,0,0,0,0,0,0,0,0,0,0,0,0,0,0,0,0,0,0,0,0,0,0,0,0,0,0,0,0,168,168,
167,207,0,0,0,0,0,0,0,0,0,0,0,0,0,0,0,0,0,0,0,0,0,0,0,0,0,0,0,0,0,0,0,0,0,0,0,0,0,0,0,0,0,0,0,0,0,0,168,168,
167,207,0,0,0,0,0,0,0,0,0,0,0,0,0,0,0,0,0,0,0,0,0,0,0,0,0,0,0,0,0,0,0,0,0,0,0,0,0,0,0,0,0,0,0,0,0,0,168,168,
167,207,0,0,0,0,0,0,0,0,0,0,0,0,0,0,0,0,0,0,0,0,0,0,0,0,0,0,0,0,0,0,0,0,0,0,0,0,0,0,0,0,0,0,0,0,0,0,168,168,
167,207,0,0,0,0,0,0,0,0,0,0,0,0,0,0,0,0,0,0,0,0,0,0,0,0,0,0,0,0,0,0,0,0,0,0,0,0,0,0,0,0,0,0,0,0,0,0,168,168,
167,207,0,0,0,0,0,0,0,0,0,0,0,0,0,0,0,0,0,0,0,0,0,0,0,0,0,0,0,0,0,0,0,0,0,0,0,0,0,0,0,0,0,0,0,0,0,0,168,168,
167,207,0,0,0,0,0,0,0,0,0,0,0,0,0,0,0,0,0,0,0,0,0,0,0,0,0,0,0,0,0,0,0,0,0,0,0,0,0,0,0,0,0,0,0,0,0,0,168,168,
167,207,0,0,0,0,0,0,0,0,0,0,0,0,0,0,0,0,0,0,0,0,0,0,0,0,0,0,0,0,0,0,0,0,0,0,0,0,0,0,0,0,0,0,0,0,0,0,168,168,
167,207,0,0,0,0,0,0,0,0,0,0,0,0,0,0,0,0,0,0,0,0,0,0,0,0,0,0,0,0,0,0,0,0,0,0,0,0,0,0,0,0,0,0,0,0,0,0,168,168,
168,207,0,0,0,0,0,0,0,0,0,0,0,0,0,0,0,0,0,0,0,0,0,0,0,0,0,0,0,0,0,0,0,0,0,0,0,0,0,0,0,0,0,0,0,0,0,0,168,168,
168,207,0,0,0,0,0,0,0,0,0,0,0,0,0,0,0,0,0,0,0,0,0,0,0,0,0,0,0,0,0,0,0,0,0,0,0,0,0,0,0,0,0,0,0,0,0,0,168,168,
168,207,0,0,0,0,0,0,0,0,0,0,0,0,0,0,0,0,0,0,0,0,0,0,0,0,0,0,0,0,0,0,0,0,0,0,0,0,0,0,0,0,0,0,0,0,0,0,168,168,
168,207,0,0,0,0,0,0,0,0,0,0,0,0,0,0,0,0,0,0,0,0,0,0,0,0,0,0,0,0,0,0,0,0,0,0,0,0,0,0,0,0,0,0,0,0,0,0,168,168,
168,207,0,0,0,0,0,0,0,0,0,0,0,0,0,0,0,0,0,0,0,0,0,0,0,0,0,0,0,0,0,0,0,0,0,0,0,0,0,0,0,0,0,0,0,0,0,0,168,168,
168,207,0,0,0,0,0,0,0,0,0,0,0,0,0,0,0,0,0,0,0,0,0,0,0,0,0,0,0,0,0,0,0,0,0,0,0,0,0,0,0,0,0,0,0,0,0,0,168,168,
168,207,0,0,0,0,0,0,0,0,0,0,0,0,0,0,0,0,0,0,0,0,0,0,0,0,0,0,0,0,0,0,0,0,0,0,0,0,0,0,0,0,0,0,0,0,0,0,168,168,
168,207,0,0,0,0,0,0,0,0,0,0,0,0,0,0,0,0,0,0,0,0,0,0,0,0,0,0,0,0,0,0,0,0,0,0,0,0,0,0,0,0,0,0,0,0,0,0,168,168,
168,207,0,0,0,0,0,0,0,0,0,0,0,0,0,0,0,0,0,0,0,0,0,0,0,0,0,0,0,0,0,0,0,0,0,0,0,0,0,0,0,0,0,0,0,0,0,0,168,168,
168,207,0,0,0,0,0,0,0,0,0,0,0,0,0,0,0,0,0,0,0,0,0,0,0,0,0,0,0,0,0,0,0,0,0,0,0,0,0,0,0,0,0,0,0,0,0,0,168,168,
168,207,0,0,0,0,0,0,0,0,0,0,0,0,0,0,0,0,0,0,0,0,0,0,0,0,0,0,0,0,0,0,0,0,0,0,0,0,0,0,0,0,0,0,0,0,0,0,168,168,
168,207,0,0,0,0,0,0,0,0,0,0,0,0,0,0,0,0,0,0,0,0,0,0,0,0,0,0,0,0,0,0,0,0,0,0,0,0,0,0,0,0,0,0,0,0,0,0,168,168,
168,207,0,0,0,0,0,0,0,0,0,0,0,0,0,0,0,0,0,0,0,0,0,0,0,0,0,0,0,0,0,0,0,0,0,0,0,0,0,0,0,0,0,0,0,0,0,0,168,168,
168,207,0,0,0,0,0,0,0,0,0,0,0,0,0,0,0,0,0,0,0,0,0,0,0,0,0,0,0,0,0,0,0,0,0,0,0,0,0,0,0,0,0,0,0,0,0,0,168,168,
168,207,0,0,0,0,0,0,0,0,0,0,0,0,0,0,0,0,0,0,0,0,0,0,0,0,0,0,0,0,0,0,0,0,0,0,0,0,0,0,0,0,0,0,0,0,0,0,168,168,
167,207,0,0,0,0,0,0,0,0,0,0,0,0,0,0,0,0,0,0,0,0,0,0,0,0,0,0,0,0,0,0,0,0,0,0,0,0,0,0,0,0,0,0,0,0,0,0,168,168,
167,207,0,0,0,0,0,0,0,0,0,0,0,0,0,0,0,0,0,0,0,0,0,0,0,0,0,0,0,0,0,0,0,0,0,0,0,0,0,0,0,0,0,0,0,0,0,0,168,168,
167,207,0,0,0,0,0,0,0,0,0,0,0,0,0,0,0,0,0,0,0,0,0,0,0,0,0,0,0,0,0,0,0,0,0,0,0,0,0,0,0,0,0,0,0,0,0,0,168,168,
168,207,0,0,0,0,0,0,0,0,0,0,0,0,0,0,0,0,0,0,0,0,0,0,0,0,0,0,0,0,0,0,0,0,0,0,0,0,0,0,0,0,0,0,0,0,0,0,168,168,
168,207,0,0,0,0,0,0,0,0,0,0,0,0,0,0,0,0,0,0,0,0,0,0,0,0,0,0,0,0,0,0,0,0,0,0,0,0,0,0,0,0,0,0,0,0,0,0,168,168,
168,207,0,0,0,0,0,0,0,0,0,0,0,0,0,0,0,0,0,0,0,0,0,0,0,0,0,0,0,0,0,0,0,0,0,0,0,0,0,0,0,0,0,0,0,0,0,0,168,168,
168,207,0,0,0,0,0,0,0,0,0,0,0,0,0,0,0,0,0,0,0,0,0,0,0,0,0,0,0,0,0,0,0,0,0,0,0,0,0,0,0,0,0,0,0,0,0,0,168,168,
168,207,0,0,0,0,0,0,0,0,0,0,0,0,0,0,0,0,0,0,0,0,0,0,0,0,0,0,0,0,0,0,0,0,0,0,0,0,0,0,0,0,0,0,0,0,0,0,168,168,
168,207,0,0,0,0,0,0,0,0,0,0,0,0,0,0,0,0,0,0,0,0,0,0,0,0,0,0,0,0,0,0,0,0,0,0,0,0,0,0,0,0,0,0,0,0,0,0,168,168,
168,207,0,0,0,0,0,0,0,0,0,0,0,0,0,0,0,0,0,0,0,0,0,0,0,0,0,0,0,0,0,0,0,0,0,0,0,0,0,0,0,0,0,0,0,0,0,0,168,168,
168,207,0,0,0,0,0,0,0,0,0,0,0,0,0,0,0,0,0,0,0,0,0,0,0,0,0,0,0,0,0,0,0,0,0,0,0,0,0,0,0,0,0,0,0,0,0,0,168,168,
167,168,0,0,0,0,0,0,0,0,0,0,0,0,0,0,0,0,0,0,0,0,0,0,0,0,0,0,0,0,0,0,0,0,0,0,0,0,0,0,0,0,0,0,0,0,0,0,168,168,
167,168,0,0,0,0,0,0,0,0,0,0,0,0,0,0,0,0,0,0,0,0,0,0,0,0,0,0,0,0,0,0,0,0,0,0,0,0,0,0,0,0,0,0,0,0,0,0,168,168,
167,168,0,0,0,0,0,0,0,0,0,0,0,0,0,0,0,0,0,0,0,0,0,0,0,0,0,0,0,0,0,0,0,0,0,0,0,0,0,0,0,0,0,0,0,0,0,0,168,168,
167,168,0,0,0,0,0,0,0,0,0,0,0,0,0,0,0,0,0,0,0,0,0,0,0,0,0,0,0,0,0,0,0,0,0,0,0,0,0,0,0,0,0,0,0,0,0,0,168,168,
167,168,0,0,0,0,0,0,0,0,0,0,0,0,0,0,0,0,0,0,0,0,0,0,0,0,0,0,0,0,0,0,0,0,0,0,0,0,0,0,0,0,0,0,0,0,0,0,168,168,
167,168,0,0,0,0,0,0,0,0,0,0,0,0,0,0,0,0,0,0,0,0,0,0,0,0,0,0,0,0,0,0,0,0,0,0,0,0,0,0,0,0,0,0,0,0,0,0,168,168,
167,168,0,0,0,0,0,0,0,0,0,0,0,0,0,0,0,0,0,0,0,0,0,0,0,0,0,0,0,0,0,0,0,0,0,0,0,0,0,0,0,0,0,0,0,0,0,0,168,168,
207,208,0,0,0,0,0,0,0,0,0,0,0,0,0,0,0,0,0,0,0,0,0,0,0,0,0,0,0,0,0,0,0,0,0,0,0,0,0,0,0,0,0,0,0,0,0,0,168,168,
167,168,0,0,0,0,0,0,0,0,0,0,0,0,0,0,0,0,0,0,0,0,0,0,0,0,0,0,0,0,0,0,0,0,0,0,0,0,0,0,0,0,0,0,0,0,0,0,168,168,
167,168,0,0,0,0,0,0,0,0,0,0,0,0,0,0,0,0,0,0,0,0,0,0,0,0,0,0,0,0,0,0,0,0,0,0,0,0,0,0,0,0,0,0,0,0,0,0,167,168,
167,168,0,0,0,0,0,0,0,0,0,0,0,0,0,0,0,0,0,0,0,0,0,0,0,0,0,0,0,0,0,0,0,0,0,0,0,0,0,0,0,0,0,0,0,0,0,0,207,208,
167,167,207,208,167,167,207,207,167,167,167,167,167,167,167,167,167,167,167,167,167,167,168,208,168,168,168,168,168,168,168,168,168,168,168,168,207,207,207,207,207,207,207,207,207,167,168,168,168,168,
207,207,207,208,207,207,207,208,207,207,207,207,207,207,207,207,207,207,207,207,207,207,208,208,208,208,208,208,208,208,208,208,208,208,208,208,168,168,168,168,168,168,168,168,168,168,168,208,208,208
</data>
 </layer>
 <objectgroup id="9" name="object" visible="0" locked="1">
  <object id="1" name="player" x="511.868" y="187.822">
   <point/>
  </object>
  <object id="2" name="collision" x="-0.74407" y="0.269353" width="33.3303" height="799.493">
   <properties>
    <property name="Blocked" type="bool" value="true"/>
    <property name="Type" value="collision"/>
   </properties>
  </object>
  <object id="3" name="collision" x="767.573" y="-0.87203" width="33.2528" height="800.839"/>
  <object id="4" name="collision" x="15.5862" y="768.303" width="768.59" height="32.0609"/>
  <object id="5" name="collision" x="15.9329" y="0.06398" width="767.91" height="32.7276"/>
  <object id="12" name="monster" x="672" y="701.333">
   <point/>
  </object>
 </objectgroup>
 <objectgroup id="10" name="collectibles" visible="0" locked="1">
  <object id="6" name="collectible" x="110.667" y="112" width="32" height="32">
   <properties>
    <property name="element_type" value="coin"/>
    <property name="score_value" type="int" value="10"/>
   </properties>
  </object>
  <object id="7" name="collectible" x="104" y="673.333" width="32" height="32">
   <properties>
    <property name="element_type" value="coin"/>
    <property name="score_value" type="int" value="10"/>
   </properties>
  </object>
  <object id="15" name="collectible" x="348" y="102.666" width="32" height="32">
   <properties>
    <property name="element_type" value="coin"/>
    <property name="score_value" type="int" value="10"/>
   </properties>
  </object>
  <object id="16" name="collectible" x="632" y="294.666" width="32" height="32">
   <properties>
    <property name="element_type" value="coin"/>
    <property name="score_value" type="int" value="10"/>
   </properties>
  </object>
  <object id="8" name="collectible" x="649.334" y="118.667" width="32" height="32">
   <properties>
    <property name="element_type" value="coin"/>
    <property name="score_value" type="int" value="10"/>
   </properties>
  </object>
  <object id="9" name="collectible" x="553.333" y="682.667" width="32" height="32">
   <properties>
    <property name="element_type" value="coin"/>
    <property name="score_value" type="int" value="10"/>
   </properties>
  </object>
  <object id="10" name="collectible" x="378.666" y="285.333" width="32" height="32">
   <properties>
    <property name="element_type" value="coin"/>
    <property name="score_value" type="int" value="10"/>
   </properties>
  </object>
  <object id="13" name="collectible" x="166.666" y="372" width="32" height="32">
   <properties>
    <property name="element_type" value="coin"/>
    <property name="score_value" type="int" value="10"/>
   </properties>
  </object>
  <object id="14" name="collectible" x="661.333" y="496" width="32" height="32">
   <properties>
    <property name="element_type" value="coin"/>
    <property name="score_value" type="int" value="10"/>
   </properties>
  </object>
  <object id="11" name="collectible" x="342.667" y="538.667" width="32" height="32">
   <properties>
    <property name="element_type" value="coin"/>
    <property name="score_value" type="int" value="10"/>
   </properties>
  </object>
 </objectgroup>
</map>
