<?xml version="1.0" encoding="UTF-8"?>
<map version="1.10" tiledversion="1.11.2" orientation="orthogonal" renderorder="right-down" width="150" height="200" tilewidth="16" tileheight="16" infinite="0" nextlayerid="22" nextobjectid="155">
 <tileset firstgid="1" source="Nature.tsx"/>
 <tileset firstgid="721" source="labyrinthe.tsx"/>
 <tileset firstgid="5210" source="deuxieme niveau.tsx"/>
 <tileset firstgid="5390" source="maison.tsx"/>
 <layer id="12" name="background" width="150" height="200">
  <data encoding="csv">
793,794,795,796,797,798,793,794,795,796,797,798,793,794,795,796,797,798,793,794,795,796,797,798,793,794,795,796,797,798,793,794,795,796,797,798,793,794,795,796,797,798,793,794,795,796,797,798,793,794,795,796,797,798,793,794,795,796,797,798,793,794,795,796,797,798,793,794,795,796,797,798,793,794,795,796,797,798,793,794,795,796,797,798,793,794,795,796,797,798,793,794,795,796,797,798,793,794,795,796,797,798,793,794,795,796,797,798,793,794,795,796,797,798,793,794,795,796,797,798,793,794,795,796,797,798,793,794,795,796,797,798,793,794,795,796,797,798,793,794,795,796,797,798,793,794,795,796,797,798,
860,861,862,863,864,865,860,861,862,863,864,865,860,861,862,863,864,865,860,861,862,863,864,865,860,861,862,863,864,865,860,861,862,863,864,865,860,861,862,863,864,865,860,861,862,863,864,865,860,861,862,863,864,865,860,861,862,863,864,865,860,861,862,863,864,865,860,861,862,863,864,865,860,861,862,863,864,865,860,861,862,863,864,865,860,861,862,863,864,865,860,861,862,863,864,865,860,861,862,863,864,865,860,861,862,863,864,865,860,861,862,863,864,865,860,861,862,863,864,865,860,861,862,863,864,865,860,861,862,863,864,865,860,861,862,863,864,865,860,861,862,863,864,865,860,861,862,863,864,865,
927,928,929,930,931,932,927,928,929,930,931,932,927,928,929,930,931,932,927,928,929,930,931,932,927,928,929,930,931,932,927,928,929,930,931,932,927,928,929,930,931,932,927,928,929,930,931,932,927,928,929,930,931,932,927,928,929,930,931,932,927,928,929,930,931,932,927,928,929,930,931,932,927,928,929,930,931,932,927,928,929,930,931,932,927,928,929,930,931,932,927,928,929,930,931,932,927,928,929,930,931,932,927,928,929,930,931,932,927,928,929,930,931,932,927,928,929,930,931,932,927,928,929,930,931,932,927,928,929,930,931,932,927,928,929,930,931,932,927,928,929,930,931,932,927,928,929,930,931,932,
793,794,795,796,797,798,793,794,795,796,797,798,793,794,795,796,797,798,793,794,795,796,797,798,793,794,795,796,797,798,793,794,795,796,797,798,793,794,795,796,797,798,793,794,795,796,797,798,793,794,795,796,797,798,793,794,795,796,797,798,793,794,795,796,797,798,793,794,795,796,797,798,793,794,795,796,797,798,793,794,795,796,797,798,793,794,795,796,797,798,793,794,795,796,797,798,793,794,795,796,797,798,793,794,795,796,797,798,793,794,795,796,797,798,793,794,795,796,797,798,793,794,795,796,797,798,793,794,795,796,797,798,793,794,795,796,797,798,793,794,795,796,797,798,793,794,795,796,797,798,
860,861,862,863,864,865,860,861,862,863,864,865,860,861,862,863,864,865,860,861,862,863,864,865,860,861,862,863,864,865,860,861,862,863,864,865,860,861,862,863,864,865,860,861,862,863,864,865,860,861,862,863,864,865,860,861,862,863,864,865,860,861,862,863,864,865,860,861,862,863,864,865,860,861,862,863,864,865,860,861,862,863,864,865,860,861,862,863,864,865,860,861,862,863,864,865,860,861,862,863,864,865,860,861,862,863,864,865,860,861,862,863,864,865,860,861,862,863,864,865,860,861,862,863,864,865,860,861,862,863,864,865,860,861,862,863,864,865,860,861,862,863,864,865,860,861,862,863,864,865,
927,928,929,930,931,932,927,928,929,930,931,932,927,928,929,930,931,932,927,928,929,930,931,932,927,928,929,930,931,932,927,928,929,930,931,932,927,928,929,930,931,932,927,928,929,930,931,932,927,928,929,930,931,932,927,928,929,930,931,932,927,928,929,930,931,932,927,928,929,930,931,932,927,928,929,930,931,932,927,928,929,930,931,932,927,928,929,930,931,932,927,928,929,930,931,932,927,928,929,930,931,932,927,928,929,930,931,932,927,928,929,930,931,932,927,928,929,930,931,932,927,928,929,930,931,932,927,928,929,930,931,932,927,928,929,930,931,932,927,928,929,930,931,932,927,928,929,930,931,932,
793,794,795,796,797,798,793,794,795,796,797,798,793,794,795,796,797,798,793,794,795,796,797,798,793,794,795,796,797,798,793,794,795,796,797,798,793,794,795,796,797,798,793,794,795,796,797,798,793,794,795,796,797,798,793,794,795,796,797,798,793,794,795,796,797,798,793,794,795,796,797,798,793,794,795,796,797,798,793,794,795,796,797,798,793,794,795,796,797,798,793,794,795,796,797,798,793,794,795,796,797,798,793,794,795,796,797,798,793,794,795,796,797,798,793,794,795,796,797,798,793,794,795,796,797,798,793,794,795,796,797,798,793,794,795,796,797,798,793,794,795,796,797,798,793,794,795,796,797,798,
860,861,862,863,864,865,860,861,862,863,864,865,860,861,862,863,864,865,860,861,862,863,864,865,860,861,862,863,864,865,860,861,862,863,864,865,860,861,862,863,864,865,860,861,862,863,864,865,860,861,862,863,864,865,860,861,862,863,864,865,860,861,862,863,864,865,860,861,862,863,864,865,860,861,862,863,864,865,860,861,862,863,864,865,860,861,862,863,864,865,860,861,862,863,864,865,860,861,862,863,864,865,860,861,862,863,864,865,860,861,862,863,864,865,860,861,862,863,864,865,860,861,862,863,864,865,860,861,862,863,864,865,860,861,862,863,864,865,860,861,862,863,864,865,860,861,862,863,864,865,
927,928,929,930,931,932,927,928,929,930,931,932,927,928,929,930,931,932,927,928,929,930,931,932,927,928,929,930,931,932,927,928,929,930,931,932,927,928,929,930,931,932,927,928,929,930,931,932,927,928,929,930,931,932,927,928,929,930,931,932,927,928,929,930,931,932,927,928,929,930,931,932,927,928,929,930,931,932,927,928,929,930,931,932,927,928,929,930,931,932,927,928,929,930,931,932,927,928,929,930,931,932,927,928,929,930,931,932,927,928,929,930,931,932,927,928,929,930,931,932,927,928,929,930,931,932,927,928,929,930,931,932,927,928,929,930,931,932,927,928,929,930,931,932,927,928,929,930,931,932,
793,794,795,796,797,798,793,794,795,796,797,798,793,794,795,796,797,798,793,794,795,796,797,798,793,794,795,796,797,798,793,794,795,796,797,798,793,794,795,796,797,798,793,794,795,796,797,798,793,794,795,796,797,798,793,794,795,796,797,798,793,794,795,796,797,798,793,794,795,796,797,798,793,794,795,796,797,798,793,794,795,796,797,798,793,794,795,796,797,798,793,794,795,796,797,798,793,794,795,796,797,798,793,794,795,796,797,798,793,794,795,796,797,798,793,794,795,796,797,798,793,794,795,796,797,798,793,794,795,796,797,798,793,794,795,796,797,798,793,794,795,796,797,798,793,794,795,796,797,798,
860,861,862,863,864,865,860,861,862,863,864,865,860,861,862,863,864,865,860,861,862,863,864,865,860,861,862,863,864,865,860,861,862,863,864,865,860,861,862,863,864,865,860,861,862,863,864,865,860,861,862,863,864,865,860,861,862,863,864,865,860,861,862,863,864,865,860,861,862,863,864,865,860,861,862,863,864,865,860,861,862,863,864,865,860,861,862,863,864,865,860,861,862,863,864,865,860,861,862,863,864,865,860,861,862,863,864,865,860,861,862,863,864,865,860,861,862,863,864,865,860,861,862,863,864,865,860,861,862,863,864,865,860,861,862,863,864,865,860,861,862,863,864,865,860,861,862,863,864,865,
927,928,929,930,931,932,927,928,929,930,931,932,927,928,929,930,931,932,927,928,929,930,931,932,927,928,929,930,931,932,927,928,929,930,931,932,927,928,929,930,931,932,927,928,929,930,931,932,927,928,929,930,931,932,927,928,929,930,931,932,927,928,929,930,931,932,927,928,929,930,931,932,927,928,929,930,931,932,927,928,929,930,931,932,927,928,929,930,931,932,927,928,929,930,931,932,927,928,929,930,931,932,927,928,929,930,931,932,927,928,929,930,931,932,927,928,929,930,931,932,927,928,929,930,931,932,927,928,929,930,931,932,927,928,929,930,931,932,927,928,929,930,931,932,927,928,929,930,931,932,
793,794,795,796,797,798,793,794,795,796,797,798,793,794,795,796,797,798,793,794,795,796,797,798,793,794,795,796,797,798,793,794,795,796,797,798,793,794,795,796,797,798,793,794,795,796,797,798,793,794,795,796,797,798,793,794,795,796,797,798,793,794,795,796,797,798,793,794,795,796,797,798,793,794,795,796,797,798,793,794,795,796,797,798,793,794,795,796,797,798,793,794,795,796,797,798,793,794,795,796,797,798,793,794,795,796,797,798,793,794,795,796,797,798,793,794,795,796,797,798,793,794,795,796,797,798,793,794,795,796,797,798,793,794,795,796,797,798,793,794,795,796,797,798,793,794,795,796,797,798,
860,861,862,863,864,865,860,861,862,863,864,865,860,861,862,863,864,865,860,861,862,863,864,865,860,861,862,863,864,865,860,861,862,863,864,865,860,861,862,863,864,865,860,861,862,863,864,865,860,861,862,863,864,865,860,861,862,863,864,865,860,861,862,863,864,865,860,861,862,863,864,865,860,861,862,863,864,865,860,861,862,863,864,865,860,861,862,863,864,865,860,861,862,863,864,865,860,861,862,863,864,865,860,861,862,863,864,865,860,861,862,863,864,865,860,861,862,863,864,865,860,861,862,863,864,865,860,861,862,863,864,865,860,861,862,863,864,865,860,861,862,863,864,865,860,861,862,863,864,865,
927,928,929,930,931,932,927,928,929,930,931,932,927,928,929,930,931,932,927,928,929,930,931,932,927,928,929,930,931,932,927,928,929,930,931,932,927,928,929,930,931,932,927,928,929,930,931,932,927,928,929,930,931,932,927,928,929,930,931,932,927,928,929,930,931,932,927,928,929,930,931,932,927,928,929,930,931,932,927,928,929,930,931,932,927,928,929,930,931,932,927,928,929,930,931,932,927,928,929,930,931,932,927,928,929,930,931,932,927,928,929,930,931,932,927,928,929,930,931,932,927,928,929,930,931,932,927,928,929,930,931,932,927,928,929,930,931,932,927,928,929,930,931,932,927,928,929,930,931,932,
793,794,795,796,797,798,793,794,795,796,797,798,793,794,795,796,797,798,793,794,795,796,797,798,793,794,795,796,797,798,793,794,795,796,797,798,793,794,795,796,797,798,793,794,795,796,797,798,793,794,795,796,797,798,793,794,795,796,797,798,793,794,795,796,797,798,793,794,795,796,797,798,793,794,795,796,797,798,793,794,795,796,797,798,793,794,795,796,797,798,793,794,795,796,797,798,793,794,795,796,797,798,793,794,795,796,797,798,793,794,795,796,797,798,793,794,795,796,797,798,793,794,795,796,797,798,793,794,795,796,797,798,793,794,795,796,797,798,793,794,795,796,797,798,793,794,795,796,797,798,
860,861,862,863,864,865,860,861,862,863,864,865,860,861,862,863,864,865,860,861,862,863,864,865,860,861,862,863,864,865,860,861,862,863,864,865,860,861,862,863,864,865,860,861,862,863,864,865,860,861,862,863,864,865,860,861,862,863,864,865,860,861,862,863,864,865,860,861,862,863,864,865,860,861,862,863,864,865,860,861,862,863,864,865,860,861,862,863,864,865,860,861,862,863,864,865,860,861,862,863,864,865,860,861,862,863,864,865,860,861,862,863,864,865,860,861,862,863,864,865,860,861,862,863,864,865,860,861,862,863,864,865,860,861,862,863,864,865,860,861,862,863,864,865,860,861,862,863,864,865,
927,928,929,930,931,932,927,928,929,930,931,932,927,928,929,930,931,932,927,928,929,930,931,932,927,928,929,930,931,932,927,928,929,930,931,932,927,928,929,930,931,932,927,928,929,930,931,932,927,928,929,930,931,932,927,928,929,930,931,932,927,928,929,930,931,932,927,928,929,930,931,932,927,928,929,930,931,932,927,928,929,930,931,932,927,928,929,930,931,932,927,928,929,930,931,932,927,928,929,930,931,932,927,928,929,930,931,932,927,928,929,930,931,932,927,928,929,930,931,932,927,928,929,930,931,932,927,928,929,930,931,932,927,928,929,930,931,932,927,928,929,930,931,932,927,928,929,930,931,932,
793,794,795,796,797,798,793,794,795,796,797,798,793,794,795,796,797,798,793,794,795,796,797,798,793,794,795,796,797,798,793,794,795,796,797,798,793,794,795,796,797,798,793,794,795,796,797,798,793,794,795,796,797,798,793,794,795,796,797,798,793,794,795,796,797,798,793,794,795,796,797,798,793,794,795,796,797,798,793,794,795,796,797,798,793,794,795,796,797,798,793,794,795,796,797,798,793,794,795,796,797,798,793,794,795,796,797,798,793,794,795,796,797,798,793,794,795,796,797,798,793,794,795,796,797,798,793,794,795,796,797,798,793,794,795,796,797,798,793,794,795,796,797,798,793,794,795,796,797,798,
860,861,862,863,864,865,860,861,862,863,864,865,860,861,862,863,864,865,860,861,862,863,864,865,860,861,862,863,864,865,860,861,862,863,864,865,860,861,862,863,864,865,860,861,862,863,864,865,860,861,862,863,864,865,860,861,862,863,864,865,860,861,862,863,864,865,860,861,862,863,864,865,860,861,862,863,864,865,860,861,862,863,864,865,860,861,862,863,864,865,860,861,862,863,864,865,860,861,862,863,864,865,860,861,862,863,864,865,860,861,862,863,864,865,860,861,862,863,864,865,860,861,862,863,864,865,860,861,862,863,864,865,860,861,862,863,864,865,860,861,862,863,864,865,860,861,862,863,864,865,
927,928,929,930,931,932,927,928,929,930,931,932,927,928,929,930,931,932,927,928,929,930,931,932,927,928,929,930,931,932,927,928,929,930,931,932,927,928,929,930,931,932,927,928,929,930,931,932,927,928,929,930,931,932,927,928,929,930,931,932,927,928,929,930,931,932,927,928,929,930,931,932,927,928,929,930,931,932,927,928,929,930,931,932,927,928,929,930,931,932,927,928,929,930,931,932,927,928,929,930,931,932,927,928,929,930,931,932,927,928,929,930,931,932,927,928,929,930,931,932,927,928,929,930,931,932,927,928,929,930,931,932,927,928,929,930,931,932,927,928,929,930,931,932,927,928,929,930,931,932,
793,794,795,796,797,798,793,794,795,796,797,798,793,794,795,796,797,798,793,794,795,796,797,798,793,794,795,796,797,798,793,794,795,796,797,798,793,794,795,796,797,798,793,794,795,796,797,798,793,794,795,796,797,798,793,794,795,796,797,798,793,794,795,796,797,798,793,794,795,796,797,798,793,794,795,796,797,798,793,794,795,796,797,798,793,794,795,796,797,798,793,794,795,796,797,798,793,794,795,796,797,798,793,794,795,796,797,798,793,794,795,796,797,798,793,794,795,796,797,798,793,794,795,796,797,798,793,794,795,796,797,798,793,794,795,796,797,798,793,794,795,796,797,798,793,794,795,796,797,798,
860,861,862,863,864,865,860,861,862,863,864,865,860,861,862,863,864,865,860,861,862,863,864,865,860,861,862,863,864,865,860,861,862,863,864,865,860,861,862,863,864,865,860,861,862,863,864,865,860,861,862,863,864,865,860,861,862,863,864,865,860,861,862,863,864,865,860,861,862,863,864,865,860,861,862,863,864,865,860,861,862,863,864,865,860,861,862,863,864,865,860,861,862,863,864,865,860,861,862,863,864,865,860,861,862,863,864,865,860,861,862,863,864,865,860,861,862,863,864,865,860,861,862,863,864,865,860,861,862,863,864,865,860,861,862,863,864,865,860,861,862,863,864,865,860,861,862,863,864,865,
927,928,929,930,931,932,927,928,929,930,931,932,927,928,929,930,931,932,927,928,929,930,931,932,927,928,929,930,931,932,927,928,929,930,931,932,927,928,929,930,931,932,927,928,929,930,931,932,927,928,929,930,931,932,927,928,929,930,931,932,927,928,929,930,931,932,927,928,929,930,931,932,927,928,929,930,931,932,927,928,929,930,931,932,927,928,929,930,931,932,927,928,929,930,931,932,927,928,929,930,931,932,927,928,929,930,931,932,927,928,929,930,931,932,927,928,929,930,931,932,927,928,929,930,931,932,927,928,929,930,931,932,927,928,929,930,931,932,927,928,929,930,931,932,927,928,929,930,931,932,
793,794,795,796,797,798,793,794,795,796,797,798,793,794,795,796,797,798,793,794,795,796,797,798,793,794,795,796,797,798,793,794,795,796,797,798,793,794,795,796,797,798,793,794,795,796,797,798,793,794,795,796,797,798,793,794,795,796,797,798,793,794,795,796,797,798,793,794,795,796,797,798,793,794,795,796,797,798,793,794,795,796,797,798,793,794,795,796,797,798,793,794,795,796,797,798,793,794,795,796,797,798,793,794,795,796,797,798,793,794,795,796,797,798,793,794,795,796,797,798,793,794,795,796,797,798,793,794,795,796,797,798,793,794,795,796,797,798,793,794,795,796,797,798,793,794,795,796,797,798,
860,861,862,863,864,865,860,861,862,863,864,865,860,861,862,863,864,865,860,861,862,863,864,865,860,861,862,863,864,865,860,861,862,863,864,865,860,861,862,863,864,865,860,861,862,863,864,865,860,861,862,863,864,865,860,861,862,863,864,865,860,861,862,863,864,865,860,861,862,863,864,865,860,861,862,863,864,865,860,861,862,863,864,865,860,861,862,863,864,865,860,861,862,863,864,865,860,861,862,863,864,865,860,861,862,863,864,865,860,861,862,863,864,865,860,861,862,863,864,865,860,861,862,863,864,865,860,861,862,863,864,865,860,861,862,863,864,865,860,861,862,863,864,865,860,861,862,863,864,865,
927,928,929,930,931,932,927,928,929,930,931,932,927,928,929,930,931,932,927,928,929,930,931,932,927,928,929,930,931,932,927,928,929,930,931,932,927,928,929,930,931,932,927,928,929,930,931,932,927,928,929,930,931,932,927,928,929,930,931,932,927,928,929,930,931,932,927,928,929,930,931,932,927,928,929,930,931,932,927,928,929,930,931,932,927,928,929,930,931,932,927,928,929,930,931,932,927,928,929,930,931,932,927,928,929,930,931,932,927,928,929,930,931,932,927,928,929,930,931,932,927,928,929,930,931,932,927,928,929,930,931,932,927,928,929,930,931,932,927,928,929,930,931,932,927,928,929,930,931,932,
793,794,795,796,797,798,793,794,795,796,797,798,793,794,795,796,797,798,793,794,795,796,797,798,793,794,795,796,797,798,793,794,795,796,797,798,793,794,795,796,797,798,793,794,795,796,797,798,793,794,795,796,797,798,793,794,795,796,797,798,793,794,795,796,797,798,793,794,795,796,797,798,793,794,795,796,797,798,793,794,795,796,797,798,793,794,795,796,797,798,793,794,795,796,797,798,793,794,795,796,797,798,793,794,795,796,797,798,793,794,795,796,797,798,793,794,795,796,797,798,793,794,795,796,797,798,793,794,795,796,797,798,793,794,795,796,797,798,793,794,795,796,797,798,793,794,795,796,797,798,
860,861,862,863,864,865,860,861,862,863,864,865,860,861,862,863,864,865,860,861,862,863,864,865,860,861,862,863,864,865,860,861,862,863,864,865,860,861,862,863,864,865,860,861,862,863,864,865,860,861,862,863,864,865,860,861,862,863,864,865,860,861,862,863,864,865,860,861,862,863,864,865,860,861,862,863,864,865,860,861,862,863,864,865,860,861,862,863,864,865,860,861,862,863,864,865,860,861,862,863,864,865,860,861,862,863,864,865,860,861,862,863,864,865,860,861,862,863,864,865,860,861,862,863,864,865,860,861,862,863,864,865,860,861,862,863,864,865,860,861,862,863,864,865,860,861,862,863,864,865,
927,928,929,930,931,932,927,928,929,930,931,932,927,928,929,930,931,932,927,928,929,930,931,932,927,928,929,930,931,932,927,928,929,930,931,932,927,928,929,930,931,932,927,928,929,930,931,932,927,928,929,930,931,932,927,928,929,930,931,932,927,928,929,930,931,932,927,928,929,930,931,932,927,928,929,930,931,932,927,928,929,930,931,932,927,928,929,930,931,932,927,928,929,930,931,932,927,928,929,930,931,932,927,928,929,930,931,932,927,928,929,930,931,932,927,928,929,930,931,932,927,928,929,930,931,932,927,928,929,930,931,932,927,928,929,930,931,932,927,928,929,930,931,932,927,928,929,930,931,932,
793,794,795,796,797,798,793,794,795,796,797,798,793,794,795,796,797,798,793,794,795,796,797,798,793,794,795,796,797,798,793,794,795,796,797,798,793,794,795,796,797,798,793,794,795,796,797,798,793,794,795,796,797,798,793,794,795,796,797,798,793,794,795,796,797,798,793,794,795,796,797,798,793,794,795,796,797,798,793,794,795,796,797,798,793,794,795,796,797,798,793,794,795,796,797,798,793,794,795,796,797,798,793,794,795,796,797,798,793,794,795,796,797,798,793,794,795,796,797,798,793,794,795,796,797,798,793,794,795,796,797,798,793,794,795,796,797,798,793,794,795,796,797,798,793,794,795,796,797,798,
860,861,862,863,864,865,860,861,862,863,864,865,860,861,862,863,864,865,860,861,862,863,864,865,860,861,862,863,864,865,860,861,862,863,864,865,860,861,862,863,864,865,860,861,862,863,864,865,860,861,862,863,864,865,860,861,862,863,864,865,860,861,862,863,864,865,860,861,862,863,864,865,860,861,862,863,864,865,860,861,862,863,864,865,860,861,862,863,864,865,860,861,862,863,864,865,860,861,862,863,864,865,860,861,862,863,864,865,860,861,862,863,864,865,860,861,862,863,864,865,860,861,862,863,864,865,860,861,862,863,864,865,860,861,862,863,864,865,860,861,862,863,864,865,860,861,862,863,864,865,
927,928,929,930,931,932,927,928,929,930,931,932,927,928,929,930,931,932,927,928,929,930,931,932,927,928,929,930,931,932,927,928,929,930,931,932,927,928,929,930,931,932,927,928,929,930,931,932,927,928,929,930,931,932,927,928,929,930,931,932,927,928,929,930,931,932,927,928,929,930,931,932,927,928,929,930,931,932,927,928,929,930,931,932,927,928,929,930,931,932,927,928,929,930,931,932,927,928,929,930,931,932,927,928,929,930,931,932,927,928,929,930,931,932,927,928,929,930,931,932,927,928,929,930,931,932,927,928,929,930,931,932,927,928,929,930,931,932,927,928,929,930,931,932,927,928,929,930,931,932,
793,794,795,796,797,798,793,794,795,796,797,798,793,794,795,796,797,798,793,794,795,796,797,798,793,794,795,796,797,798,793,794,795,796,797,798,793,794,795,796,797,798,793,794,795,796,797,798,793,794,795,796,797,798,793,794,795,796,797,798,793,794,795,796,797,798,793,794,795,796,797,798,793,794,795,796,797,798,793,794,795,796,797,798,793,794,795,796,797,798,793,794,795,796,797,798,793,794,795,796,797,798,793,794,795,796,797,798,793,794,795,796,797,798,793,794,795,796,797,798,793,794,795,796,797,798,793,794,795,796,797,798,793,794,795,796,797,798,793,794,795,796,797,798,793,794,795,796,797,798,
860,861,862,863,864,865,860,861,862,863,864,865,860,861,862,863,864,865,860,861,862,863,864,865,860,861,862,863,864,865,860,861,862,863,864,865,860,861,862,863,864,865,860,861,862,863,864,865,860,861,862,863,864,865,860,861,862,863,864,865,860,861,862,863,864,865,860,861,862,863,864,865,860,861,862,863,864,865,860,861,862,863,864,865,860,861,862,863,864,865,860,861,862,863,864,865,860,861,862,863,864,865,860,861,862,863,864,865,860,861,862,863,864,865,860,861,862,863,864,865,860,861,862,863,864,865,860,861,862,863,864,865,860,861,862,863,864,865,860,861,862,863,864,865,860,861,862,863,864,865,
927,928,929,930,931,932,927,928,929,930,931,932,927,928,929,930,931,932,927,928,929,930,931,932,927,928,929,930,931,932,927,928,929,930,931,932,927,928,929,930,931,932,927,928,929,930,931,932,927,928,929,930,931,932,927,928,929,930,931,932,927,928,929,930,931,932,927,928,929,930,931,932,927,928,929,930,931,932,927,928,929,930,931,932,927,928,929,930,931,932,927,928,929,930,931,932,927,928,929,930,931,932,927,928,929,930,931,932,927,928,929,930,931,932,927,928,929,930,931,932,927,928,929,930,931,932,927,928,929,930,931,932,927,928,929,930,931,932,927,928,929,930,931,932,927,928,929,930,931,932,
793,794,795,796,797,798,793,794,795,796,797,798,793,794,795,796,797,798,793,794,795,796,797,798,793,794,795,796,797,798,793,794,795,796,797,798,793,794,795,796,797,798,793,794,795,796,797,798,793,794,795,796,797,798,793,794,795,796,797,798,793,794,795,796,797,798,793,794,795,796,797,798,793,794,795,796,797,798,793,794,795,796,797,798,793,794,795,796,797,798,793,794,795,796,797,798,793,794,795,796,797,798,793,794,795,796,797,798,793,794,795,796,797,798,793,794,795,796,797,798,793,794,795,796,797,798,793,794,795,796,797,798,793,794,795,796,797,798,793,794,795,796,797,798,793,794,795,796,797,798,
860,861,862,863,864,865,860,861,862,863,864,865,860,861,862,863,864,865,860,861,862,863,864,865,860,861,862,863,864,865,860,861,862,863,864,865,860,861,862,863,864,865,860,861,862,863,864,865,860,861,862,863,864,865,860,861,862,863,864,865,860,861,862,863,864,865,860,861,862,863,864,865,860,861,862,863,864,865,860,861,862,863,864,865,860,861,862,863,864,865,860,861,862,863,864,865,860,861,862,863,864,865,860,861,862,863,864,865,860,861,862,863,864,865,860,861,862,863,864,865,860,861,862,863,864,865,860,861,862,863,864,865,860,861,862,863,864,865,860,861,862,863,864,865,860,861,862,863,864,865,
927,928,929,930,931,932,927,928,929,930,931,932,927,928,929,930,931,932,927,928,929,930,931,932,927,928,929,930,931,932,927,928,929,930,931,932,927,928,929,930,931,932,927,928,929,930,931,932,927,928,929,930,931,932,927,928,929,930,931,932,927,928,929,930,931,932,927,928,929,930,931,932,927,928,929,930,931,932,927,928,929,930,931,932,927,928,929,930,931,932,927,928,929,930,931,932,927,928,929,930,931,932,927,928,929,930,931,932,927,928,929,930,931,932,927,928,929,930,931,932,927,928,929,930,931,932,927,928,929,930,931,932,927,928,929,930,931,932,927,928,929,930,931,932,927,928,929,930,931,932,
793,794,795,796,797,798,793,794,795,796,797,798,793,794,795,796,797,798,793,794,795,796,797,798,793,794,795,796,797,798,793,794,795,796,797,798,793,794,795,796,797,798,793,794,795,796,797,798,793,794,795,796,797,798,793,794,795,796,797,798,793,794,795,796,797,798,793,794,795,796,797,798,793,794,795,796,797,798,793,794,795,796,797,798,793,794,795,796,797,798,793,794,795,796,797,798,793,794,795,796,797,798,793,794,795,796,797,798,793,794,795,796,797,798,793,794,795,796,797,798,793,794,795,796,797,798,793,794,795,796,797,798,793,794,795,796,797,798,793,794,795,796,797,798,793,794,795,796,797,798,
860,861,862,863,864,865,860,861,862,863,864,865,860,861,862,863,864,865,860,861,862,863,864,865,860,861,862,863,864,865,860,861,862,863,864,865,860,861,862,863,864,865,860,861,862,863,864,865,860,861,862,863,864,865,860,861,862,863,864,865,860,861,862,863,864,865,860,861,862,863,864,865,860,861,862,863,864,865,860,861,862,863,864,865,860,861,862,863,864,865,860,861,862,863,864,865,860,861,862,863,864,865,860,861,862,863,864,865,860,861,862,863,864,865,860,861,862,863,864,865,860,861,862,863,864,865,860,861,862,863,864,865,860,861,862,863,864,865,860,861,862,863,864,865,860,861,862,863,864,865,
927,928,929,930,931,932,927,928,929,930,931,932,927,928,929,930,931,932,927,928,929,930,931,932,927,928,929,930,931,932,927,928,929,930,931,932,927,928,929,930,931,932,927,928,929,930,931,932,927,928,929,930,931,932,927,928,929,930,931,932,927,928,929,930,931,932,927,928,929,930,931,932,927,928,929,930,931,932,927,928,929,930,931,932,927,928,929,930,931,932,927,928,929,930,931,932,927,928,929,930,931,932,927,928,929,930,931,932,927,928,929,930,931,932,927,928,929,930,931,932,927,928,929,930,931,932,927,928,929,930,931,932,927,928,929,930,931,932,927,928,929,930,931,932,927,928,929,930,931,932,
793,794,795,796,797,798,793,794,795,796,797,798,793,794,795,796,797,798,793,794,795,796,797,798,793,794,795,796,797,798,793,794,795,796,797,798,793,794,795,796,797,798,793,794,795,796,797,798,793,794,795,796,797,798,793,794,795,796,797,798,793,794,795,796,797,798,793,794,795,796,797,798,793,794,795,796,797,798,793,794,795,796,797,798,793,794,795,796,797,798,793,794,795,796,797,798,793,794,795,796,797,798,793,794,795,796,797,798,793,794,795,796,797,798,793,794,795,796,797,798,793,794,795,796,797,798,793,794,795,796,797,798,793,794,795,796,797,798,793,794,795,796,797,798,793,794,795,796,797,798,
860,861,862,863,864,865,860,861,862,863,864,865,860,861,862,863,864,865,860,861,862,863,864,865,860,861,862,863,864,865,860,861,862,863,864,865,860,861,862,863,864,865,860,861,862,863,864,865,860,861,862,863,864,865,860,861,862,863,864,865,860,861,862,863,864,865,860,861,862,863,864,865,860,861,862,863,864,865,860,861,862,863,864,865,860,861,862,863,864,865,860,861,862,863,864,865,860,861,862,863,864,865,860,861,862,863,864,865,860,861,862,863,864,865,860,861,862,863,864,865,860,861,862,863,864,865,860,861,862,863,864,865,860,861,862,863,864,865,860,861,862,863,864,865,860,861,862,863,864,865,
927,928,929,930,931,932,927,928,929,930,931,932,927,928,929,930,931,932,927,928,929,930,931,932,927,928,929,930,931,932,927,928,929,930,931,932,927,928,929,930,931,932,927,928,929,930,931,932,927,928,929,930,931,932,927,928,929,930,931,932,927,928,929,930,931,932,927,928,929,930,931,932,927,928,929,930,931,932,927,928,929,930,931,932,927,928,929,930,931,932,927,928,929,930,931,932,927,928,929,930,931,932,927,928,929,930,931,932,927,928,929,930,931,932,927,928,929,930,931,932,927,928,929,930,931,932,927,928,929,930,931,932,927,928,929,930,931,932,927,928,929,930,931,932,927,928,929,930,931,932,
793,794,795,796,797,798,793,794,795,796,797,798,793,794,795,796,797,798,793,794,795,796,797,798,793,794,795,796,797,798,793,794,795,796,797,798,793,794,795,796,797,798,793,794,795,796,797,798,793,794,795,796,797,798,793,794,795,796,797,798,793,794,795,796,797,798,793,794,795,796,797,798,793,794,795,796,797,798,793,794,795,796,797,798,793,794,795,796,797,798,793,794,795,796,797,798,793,794,795,796,797,798,793,794,795,796,797,798,793,794,795,796,797,798,793,794,795,796,797,798,793,794,795,796,797,798,793,794,795,796,797,798,793,794,795,796,797,798,793,794,795,796,797,798,793,794,795,796,797,798,
860,861,862,863,864,865,860,861,862,863,864,865,860,861,862,863,864,865,860,861,862,863,864,865,860,861,862,863,864,865,860,861,862,863,864,865,860,861,862,863,864,865,860,861,862,863,864,865,860,861,862,863,864,865,860,861,862,863,864,865,860,861,862,863,864,865,860,861,862,863,864,865,860,861,862,863,864,865,860,861,862,863,864,865,860,861,862,863,864,865,860,861,862,863,864,865,860,861,862,863,864,865,860,861,862,863,864,865,860,861,862,863,864,865,860,861,862,863,864,865,860,861,862,863,864,865,860,861,862,863,864,865,860,861,862,863,864,865,860,861,862,863,864,865,860,861,862,863,864,865,
927,928,929,930,931,932,927,928,929,930,931,932,927,928,929,930,931,932,927,928,929,930,931,932,927,928,929,930,931,932,927,928,929,930,931,932,927,928,929,930,931,932,927,928,929,930,931,932,927,928,929,930,931,932,927,928,929,930,931,932,927,928,929,930,931,932,927,928,929,930,931,932,927,928,929,930,931,932,927,928,929,930,931,932,927,928,929,930,931,932,927,928,929,930,931,932,927,928,929,930,931,932,927,928,929,930,931,932,927,928,929,930,931,932,927,928,929,930,931,932,927,928,929,930,931,932,927,928,929,930,931,932,927,928,929,930,931,932,927,928,929,930,931,932,927,928,929,930,931,932,
793,794,795,796,797,798,793,794,795,796,797,798,793,794,795,796,797,798,793,794,795,796,797,798,793,794,795,796,797,798,793,794,795,796,797,798,793,794,795,796,797,798,793,794,795,796,797,798,793,794,795,796,797,798,793,794,795,796,797,798,793,794,795,796,797,798,793,794,795,796,797,798,793,794,795,796,797,798,793,794,795,796,797,798,793,794,795,796,797,798,793,794,795,796,797,798,793,794,795,796,797,798,793,794,795,796,797,798,793,794,795,796,797,798,793,794,795,796,797,798,793,794,795,796,797,798,793,794,795,796,797,798,793,794,795,796,797,798,793,794,795,796,797,798,793,794,795,796,797,798,
860,861,862,863,864,865,860,861,862,863,864,865,860,861,862,863,864,865,860,861,862,863,864,865,860,861,862,863,864,865,860,861,862,863,864,865,860,861,862,863,864,865,860,861,862,863,864,865,860,861,862,863,864,865,860,861,862,863,864,865,860,861,862,863,864,865,860,861,862,863,864,865,860,861,862,863,864,865,860,861,862,863,864,865,860,861,862,863,864,865,860,861,862,863,864,865,860,861,862,863,864,865,860,861,862,863,864,865,860,861,862,863,864,865,860,861,862,863,864,865,860,861,862,863,864,865,860,861,862,863,864,865,860,861,862,863,864,865,860,861,862,863,864,865,860,861,862,863,864,865,
927,928,929,930,931,932,927,928,929,930,931,932,927,928,929,930,931,932,927,928,929,930,931,932,927,928,929,930,931,932,927,928,929,930,931,932,927,928,929,930,931,932,927,928,929,930,931,932,927,928,929,930,931,932,927,928,929,930,931,932,927,928,929,930,931,932,927,928,929,930,931,932,927,928,929,930,931,932,927,928,929,930,931,932,927,928,929,930,931,932,927,928,929,930,931,932,927,928,929,930,931,932,927,928,929,930,931,932,927,928,929,930,931,932,927,928,929,930,931,932,927,928,929,930,931,932,927,928,929,930,931,932,927,928,929,930,931,932,927,928,929,930,931,932,927,928,929,930,931,932,
793,794,795,796,797,798,793,794,795,796,797,798,793,794,795,796,797,798,793,794,795,796,797,798,793,794,795,796,797,798,793,794,795,796,797,798,793,794,795,796,797,798,793,794,795,796,797,798,793,794,795,796,797,798,793,794,795,796,797,798,793,794,795,796,797,798,793,794,795,796,797,798,793,794,795,796,797,798,793,794,795,796,797,798,793,794,795,796,797,798,793,794,795,796,797,798,793,794,795,796,797,798,793,794,795,796,797,798,793,794,795,796,797,798,793,794,795,796,797,798,793,794,795,796,797,798,793,794,795,796,797,798,793,794,795,796,797,798,793,794,795,796,797,798,793,794,795,796,797,798,
860,861,862,863,864,865,860,861,862,863,864,865,860,861,862,863,864,865,860,861,862,863,864,865,860,861,862,863,864,865,860,861,862,863,864,865,860,861,862,863,864,865,860,861,862,863,864,865,860,861,862,863,864,865,860,861,862,863,864,865,860,861,862,863,864,865,860,861,862,863,864,865,860,861,862,863,864,865,860,861,862,863,864,865,860,861,862,863,864,865,860,861,862,863,864,865,860,861,862,863,864,865,860,861,862,863,864,865,860,861,862,863,864,865,860,861,862,863,864,865,860,861,862,863,864,865,860,861,862,863,864,865,860,861,862,863,864,865,860,861,862,863,864,865,860,861,862,863,864,865,
927,928,929,930,931,932,927,928,929,930,931,932,927,928,929,930,931,932,927,928,929,930,931,932,927,928,929,930,931,932,927,928,929,930,931,932,927,928,929,930,931,932,927,928,929,930,931,932,927,928,929,930,931,932,927,928,929,930,931,932,927,928,929,930,931,932,927,928,929,930,931,932,927,928,929,930,931,932,927,928,929,930,931,932,927,928,929,930,931,932,927,928,929,930,931,932,927,928,929,930,931,932,927,928,929,930,931,932,927,928,929,930,931,932,927,928,929,930,931,932,927,928,929,930,931,932,927,928,929,930,931,932,927,928,929,930,931,932,927,928,929,930,931,932,927,928,929,930,931,932,
793,794,795,796,797,798,793,794,795,796,797,798,793,794,795,796,797,798,793,794,795,796,797,798,793,794,795,796,797,798,793,794,795,796,797,798,793,794,795,796,797,798,793,794,795,796,797,798,793,794,795,796,797,798,793,794,795,796,797,798,793,794,795,796,797,798,793,794,795,796,797,798,793,794,795,796,797,798,793,794,795,796,797,798,793,794,795,796,797,798,793,794,795,796,797,798,793,794,795,796,797,798,793,794,795,796,797,798,793,794,795,796,797,798,793,794,795,796,797,798,793,794,795,796,797,798,793,794,795,796,797,798,793,794,795,796,797,798,793,794,795,796,797,798,793,794,795,796,797,798,
860,861,862,863,864,865,860,861,862,863,864,865,860,861,862,863,864,865,860,861,862,863,864,865,860,861,862,863,864,865,860,861,862,863,864,865,860,861,862,863,864,865,860,861,862,863,864,865,860,861,862,863,864,865,860,861,862,863,864,865,860,861,862,863,864,865,860,861,862,863,864,865,860,861,862,863,864,865,860,861,862,863,864,865,860,861,862,863,864,865,860,861,862,863,864,865,860,861,862,863,864,865,860,861,862,863,864,865,860,861,862,863,864,865,860,861,862,863,864,865,860,861,862,863,864,865,860,861,862,863,864,865,860,861,862,863,864,865,860,861,862,863,864,865,860,861,862,863,864,865,
927,928,929,930,931,932,927,928,929,930,931,932,927,928,929,930,931,932,927,928,929,930,931,932,927,928,929,930,931,932,927,928,929,930,931,932,927,928,929,930,931,932,927,928,929,930,931,932,927,928,929,930,931,932,927,928,929,930,931,932,927,928,929,930,931,932,927,928,929,930,931,932,927,928,929,930,931,932,927,928,929,930,931,932,927,928,929,930,931,932,927,928,929,930,931,932,927,928,929,930,931,932,927,928,929,930,931,932,927,928,929,930,931,932,927,928,929,930,931,932,927,928,929,930,931,932,927,928,929,930,931,932,927,928,929,930,931,932,927,928,929,930,931,932,927,928,929,930,931,932,
793,794,795,796,797,798,793,794,795,796,797,798,793,794,795,796,797,798,793,794,795,796,797,798,793,794,795,796,797,798,793,794,795,796,797,798,793,794,795,796,797,798,793,794,795,796,797,798,793,794,795,796,797,798,793,794,795,796,797,798,793,794,795,796,797,798,793,794,795,796,797,798,793,794,795,796,797,798,793,794,795,796,797,798,793,794,795,796,797,798,793,794,795,796,797,798,793,794,795,796,797,798,793,794,795,796,797,798,793,794,795,796,797,798,793,794,795,796,797,798,793,794,795,796,797,798,793,794,795,796,797,798,793,794,795,796,797,798,793,794,795,796,797,798,793,794,795,796,797,798,
860,861,862,863,864,865,860,861,862,863,864,865,860,861,862,863,864,865,860,861,862,863,864,865,860,861,862,863,864,865,860,861,862,863,864,865,860,861,862,863,864,865,860,861,862,863,864,865,860,861,862,863,864,865,860,861,862,863,864,865,860,861,862,863,864,865,860,861,862,863,864,865,860,861,862,863,864,865,860,861,862,863,864,865,860,861,862,863,864,865,860,861,862,863,864,865,860,861,862,863,864,865,860,861,862,863,864,865,860,861,862,863,864,865,860,861,862,863,864,865,860,861,862,863,864,865,860,861,862,863,864,865,860,861,862,863,864,865,860,861,862,863,864,865,860,861,862,863,864,865,
927,928,929,930,931,932,927,928,929,930,931,932,927,928,929,930,931,932,927,928,929,930,931,932,927,928,929,930,931,932,927,928,929,930,931,932,927,928,929,930,931,932,927,928,929,930,931,932,927,928,929,930,931,932,927,928,929,930,931,932,927,928,929,930,931,932,927,928,929,930,931,932,927,928,929,930,931,932,927,928,929,930,931,932,927,928,929,930,931,932,927,928,929,930,931,932,927,928,929,930,931,932,927,928,929,930,931,932,927,928,929,930,931,932,927,928,929,930,931,932,927,928,929,930,931,932,927,928,929,930,931,932,927,928,929,930,931,932,927,928,929,930,931,932,927,928,929,930,931,932,
793,794,795,796,797,798,793,794,795,796,797,798,793,794,795,796,797,798,793,794,795,796,797,798,793,794,795,796,797,798,793,794,795,796,797,798,793,794,795,796,797,798,793,794,795,796,797,798,793,794,795,796,797,798,793,794,795,796,797,798,793,794,795,796,797,798,793,794,795,796,797,798,793,794,795,796,797,798,793,794,795,796,797,798,793,794,795,796,797,798,793,794,795,796,797,798,793,794,795,796,797,798,793,794,795,796,797,798,793,794,795,796,797,798,793,794,795,796,797,798,793,794,795,796,797,798,793,794,795,796,797,798,793,794,795,796,797,798,793,794,795,796,797,798,793,794,795,796,797,798,
860,861,862,863,864,865,860,861,862,863,864,865,860,861,862,863,864,865,860,861,862,863,864,865,860,861,862,863,864,865,860,861,862,863,864,865,860,861,862,863,864,865,860,861,862,863,864,865,860,861,862,863,864,865,860,861,862,863,864,865,860,861,862,863,864,865,860,861,862,863,864,865,860,861,862,863,864,865,860,861,862,863,864,865,860,861,862,863,864,865,860,861,862,863,864,865,860,861,862,863,864,865,860,861,862,863,864,865,860,861,862,863,864,865,860,861,862,863,864,865,860,861,862,863,864,865,860,861,862,863,864,865,860,861,862,863,864,865,860,861,862,863,864,865,860,861,862,863,864,865,
927,928,929,930,931,932,927,928,929,930,931,932,927,928,929,930,931,932,927,928,929,930,931,932,927,928,929,930,931,932,927,928,929,930,931,932,927,928,929,930,931,932,927,928,929,930,931,932,927,928,929,930,931,932,927,928,929,930,931,932,927,928,929,930,931,932,927,928,929,930,931,932,927,928,929,930,931,932,927,928,929,930,931,932,927,928,929,930,931,932,927,928,929,930,931,932,927,928,929,930,931,932,927,928,929,930,931,932,927,928,929,930,931,932,927,928,929,930,931,932,927,928,929,930,931,932,927,928,929,930,931,932,927,928,929,930,931,932,927,928,929,930,931,932,927,928,929,930,931,932,
793,794,795,796,797,798,793,794,795,796,797,798,793,794,795,796,797,798,793,794,795,796,797,798,793,794,795,796,797,798,793,794,795,796,797,798,793,794,795,796,797,798,793,794,795,796,797,798,793,794,795,796,797,798,793,794,795,796,797,798,793,794,795,796,797,798,793,794,795,796,797,798,793,794,795,796,797,798,793,794,795,796,797,798,793,794,795,796,797,798,793,794,795,796,797,798,793,794,795,796,797,798,793,794,795,796,797,798,793,794,795,796,797,798,793,794,795,796,797,798,793,794,795,796,797,798,793,794,795,796,797,798,793,794,795,796,797,798,793,794,795,796,797,798,793,794,795,796,797,798,
860,861,862,863,864,865,860,861,862,863,864,865,860,861,862,863,864,865,860,861,862,863,864,865,860,861,862,863,864,865,860,861,862,863,864,865,860,861,862,863,864,865,860,861,862,863,864,865,860,861,862,863,864,865,860,861,862,863,864,865,860,861,862,863,864,865,860,861,862,863,864,865,860,861,862,863,864,865,860,861,862,863,864,865,860,861,862,863,864,865,860,861,862,863,864,865,860,861,862,863,864,865,860,861,862,863,864,865,860,861,862,863,864,865,860,861,862,863,864,865,860,861,862,863,864,865,860,861,862,863,864,865,860,861,862,863,864,865,860,861,862,863,864,865,860,861,862,863,864,865,
927,928,929,930,931,932,927,928,929,930,931,932,927,928,929,930,931,932,927,928,929,930,931,932,927,928,929,930,931,932,927,928,929,930,931,932,927,928,929,930,931,932,927,928,929,930,931,932,927,928,929,930,931,932,927,928,929,930,931,932,927,928,929,930,931,932,927,928,929,930,931,932,927,928,929,930,931,932,927,928,929,930,931,932,927,928,929,930,931,932,927,928,929,930,931,932,927,928,929,930,931,932,927,928,929,930,931,932,927,928,929,930,931,932,927,928,929,930,931,932,927,928,929,930,931,932,927,928,929,930,931,932,927,928,929,930,931,932,927,928,929,930,931,932,927,928,929,930,931,932,
793,794,795,796,797,798,793,794,795,796,797,798,793,794,795,796,797,798,793,794,795,796,797,798,793,794,795,796,797,798,793,794,795,796,797,798,793,794,795,796,797,798,793,794,795,796,797,798,793,794,795,796,797,798,793,794,795,796,797,798,793,794,795,796,797,798,793,794,795,796,797,798,793,794,795,796,797,798,793,794,795,796,797,798,793,794,795,796,797,798,793,794,795,796,797,798,793,794,795,796,797,798,793,794,795,796,797,798,793,794,795,796,797,798,793,794,795,796,797,798,793,794,795,796,797,798,793,794,795,796,797,798,793,794,795,796,797,798,793,794,795,796,797,798,793,794,795,796,797,798,
860,861,862,863,864,865,860,861,862,863,864,865,860,861,862,863,864,865,860,861,862,863,864,865,860,861,862,863,864,865,860,861,862,863,864,865,860,861,862,863,864,865,860,861,862,863,864,865,860,861,862,863,864,865,860,861,862,863,864,865,860,861,862,863,864,865,860,861,862,863,864,865,860,861,862,863,864,865,860,861,862,863,864,865,860,861,862,863,864,865,860,861,862,863,864,865,860,861,862,863,864,865,860,861,862,863,864,865,860,861,862,863,864,865,860,861,862,863,864,865,860,861,862,863,864,865,860,861,862,863,864,865,860,861,862,863,864,865,860,861,862,863,864,865,860,861,862,863,864,865,
927,928,929,930,931,932,927,928,929,930,931,932,927,928,929,930,931,932,927,928,929,930,931,932,927,928,929,930,931,932,927,928,929,930,931,932,927,928,929,930,931,932,927,928,929,930,931,932,927,928,929,930,931,932,927,928,929,930,931,932,927,928,929,930,931,932,927,928,929,930,931,932,927,928,929,930,931,932,927,928,929,930,931,932,927,928,929,930,931,932,927,928,929,930,931,932,927,928,929,930,931,932,927,928,929,930,931,932,927,928,929,930,931,932,927,928,929,930,931,932,927,928,929,930,931,932,927,928,929,930,931,932,927,928,929,930,931,932,927,928,929,930,931,932,927,928,929,930,931,932,
793,794,795,796,797,798,793,794,795,796,797,798,793,794,795,796,797,798,793,794,795,796,797,798,793,794,795,796,797,798,793,794,795,796,797,798,793,794,795,796,797,798,793,794,795,796,797,798,793,794,795,796,797,798,793,794,795,796,797,798,793,794,795,796,797,798,793,794,795,796,797,798,793,794,795,796,797,798,793,794,795,796,797,798,793,794,795,796,797,798,793,794,795,796,797,798,793,794,795,796,797,798,793,794,795,796,797,798,793,794,795,796,797,798,793,794,795,796,797,798,793,794,795,796,797,798,793,794,795,796,797,798,793,794,795,796,797,798,793,794,795,796,797,798,793,794,795,796,797,798,
860,861,862,863,864,865,860,861,862,863,864,865,860,861,862,863,864,865,860,861,862,863,864,865,860,861,862,863,864,865,860,861,862,863,864,865,860,861,862,863,864,865,860,861,862,863,864,865,860,861,862,863,864,865,860,861,862,863,864,865,860,861,862,863,864,865,860,861,862,863,864,865,860,861,862,863,864,865,860,861,862,863,864,865,860,861,862,863,864,865,860,861,862,863,864,865,860,861,862,863,864,865,860,861,862,863,864,865,860,861,862,863,864,865,860,861,862,863,864,865,860,861,862,863,864,865,860,861,862,863,864,865,860,861,862,863,864,865,860,861,862,863,864,865,860,861,862,863,864,865,
927,928,929,930,931,932,927,928,929,930,931,932,927,928,929,930,931,932,927,928,929,930,931,932,927,928,929,930,931,932,927,928,929,930,931,932,927,928,929,930,931,932,927,928,929,930,931,932,927,928,929,930,931,932,927,928,929,930,931,932,927,928,929,930,931,932,927,928,929,930,931,932,927,928,929,930,931,932,927,928,929,930,931,932,927,928,929,930,931,932,927,928,929,930,931,932,927,928,929,930,931,932,927,928,929,930,931,932,927,928,929,930,931,932,927,928,929,930,931,932,927,928,929,930,931,932,927,928,929,930,931,932,927,928,929,930,931,932,927,928,929,930,931,932,927,928,929,930,931,932,
793,794,795,796,797,798,793,794,795,796,797,798,793,794,795,796,797,798,793,794,795,796,797,798,793,794,795,796,797,798,793,794,795,796,797,798,793,794,795,796,797,798,793,794,795,796,797,798,793,794,795,796,797,798,793,794,795,796,797,798,793,794,795,796,797,798,793,794,795,796,797,798,793,794,795,796,797,798,793,794,795,796,797,798,793,794,795,796,797,798,793,794,795,796,797,798,793,794,795,796,797,798,793,794,795,796,797,798,793,794,795,796,797,798,793,794,795,796,797,798,793,794,795,796,797,798,793,794,795,796,797,798,793,794,795,796,797,798,793,794,795,796,797,798,793,794,795,796,797,798,
860,861,862,863,864,865,860,861,862,863,864,865,860,861,862,863,864,865,860,861,862,863,864,865,860,861,862,863,864,865,860,861,862,863,864,865,860,861,862,863,864,865,860,861,862,863,864,865,860,861,862,863,864,865,860,861,862,863,864,865,860,861,862,863,864,865,860,861,862,863,864,865,860,861,862,863,864,865,860,861,862,863,864,865,860,861,862,863,864,865,860,861,862,863,864,865,860,861,862,863,864,865,860,861,862,863,864,865,860,861,862,863,864,865,860,861,862,863,864,865,860,861,862,863,864,865,860,861,862,863,864,865,860,861,862,863,864,865,860,861,862,863,864,865,860,861,862,863,864,865,
927,928,929,930,931,932,927,928,929,930,931,932,927,928,929,930,931,932,927,928,929,930,931,932,927,928,929,930,931,932,927,928,929,930,931,932,927,928,929,930,931,932,927,928,929,930,931,932,927,928,929,930,931,932,927,928,929,930,931,932,927,928,929,930,931,932,927,928,929,930,931,932,927,928,929,930,931,932,927,928,929,930,931,932,927,928,929,930,931,932,927,928,929,930,931,932,927,928,929,930,931,932,927,928,929,930,931,932,927,928,929,930,931,932,927,928,929,930,931,932,927,928,929,930,931,932,927,928,929,930,931,932,927,928,929,930,931,932,927,928,929,930,931,932,927,928,929,930,931,932,
793,794,795,796,797,798,793,794,795,796,797,798,793,794,795,796,797,798,793,794,795,796,797,798,793,794,795,796,797,798,793,794,795,796,797,798,793,794,795,796,797,798,793,794,795,796,797,798,793,794,795,796,797,798,793,794,795,796,797,798,793,794,795,796,797,798,793,794,795,796,797,798,793,794,795,796,797,798,793,794,795,796,797,798,793,794,795,796,797,798,793,794,795,796,797,798,793,794,795,796,797,798,793,794,795,796,797,798,793,794,795,796,797,798,793,794,795,796,797,798,793,794,795,796,797,798,793,794,795,796,797,798,793,794,795,796,797,798,793,794,795,796,797,798,793,794,795,796,797,798,
860,861,862,863,864,865,860,861,862,863,864,865,860,861,862,863,864,865,860,861,862,863,864,865,860,861,862,863,864,865,860,861,862,863,864,865,860,861,862,863,864,865,860,861,862,863,864,865,860,861,862,863,864,865,860,861,862,863,864,865,860,861,862,863,864,865,860,861,862,863,864,865,860,861,862,863,864,865,860,861,862,863,864,865,860,861,862,863,864,865,860,861,862,863,864,865,860,861,862,863,864,865,860,861,862,863,864,865,860,861,862,863,864,865,860,861,862,863,864,865,860,861,862,863,864,865,860,861,862,863,864,865,860,861,862,863,864,865,860,861,862,863,864,865,860,861,862,863,864,865,
927,928,929,930,931,932,927,928,929,930,931,932,927,928,929,930,931,932,927,928,929,930,931,932,927,928,929,930,931,932,927,928,929,930,931,932,927,928,929,930,931,932,927,928,929,930,931,932,927,928,929,930,931,932,927,928,929,930,931,932,927,928,929,930,931,932,927,928,929,930,931,932,927,928,929,930,931,932,927,928,929,930,931,932,927,928,929,930,931,932,927,928,929,930,931,932,927,928,929,930,931,932,927,928,929,930,931,932,927,928,929,930,931,932,927,928,929,930,931,932,927,928,929,930,931,932,927,928,929,930,931,932,927,928,929,930,931,932,927,928,929,930,931,932,927,928,929,930,931,932,
793,794,795,796,797,798,793,794,795,796,797,798,793,794,795,796,797,798,793,794,795,796,797,798,793,794,795,796,797,798,793,794,795,796,797,798,793,794,795,796,797,798,793,794,795,796,797,798,793,794,795,796,797,798,793,794,795,796,797,798,793,794,795,796,797,798,793,794,795,796,797,798,793,794,795,796,797,798,793,794,795,796,797,798,793,794,795,796,797,798,793,794,795,796,797,798,793,794,795,796,797,798,793,794,795,796,797,798,793,794,795,796,797,798,793,794,795,796,797,798,793,794,795,796,797,798,793,794,795,796,797,798,793,794,795,796,797,798,793,794,795,796,797,798,793,794,795,796,797,798,
860,861,862,863,864,865,860,861,862,863,864,865,860,861,862,863,864,865,860,861,862,863,864,865,860,861,862,863,864,865,860,861,862,863,864,865,860,861,862,863,864,865,860,861,862,863,864,865,860,861,862,863,864,865,860,861,862,863,864,865,860,861,862,863,864,865,860,861,862,863,864,865,860,861,862,863,864,865,860,861,862,863,864,865,860,861,862,863,864,865,860,861,862,863,864,865,860,861,862,863,864,865,860,861,862,863,864,865,860,861,862,863,864,865,860,861,862,863,864,865,860,861,862,863,864,865,860,861,862,863,864,865,860,861,862,863,864,865,860,861,862,863,864,865,860,861,862,863,864,865,
927,928,929,930,931,932,927,928,929,930,931,932,927,928,929,930,931,932,927,928,929,930,931,932,927,928,929,930,931,932,927,928,929,930,931,932,927,928,929,930,931,932,927,928,929,930,931,932,927,928,929,930,931,932,927,928,929,930,931,932,927,928,929,930,931,932,927,928,929,930,931,932,927,928,929,930,931,932,927,928,929,930,931,932,927,928,929,930,931,932,927,928,929,930,931,932,927,928,929,930,931,932,927,928,929,930,931,932,927,928,929,930,931,932,927,928,929,930,931,932,927,928,929,930,931,932,927,928,929,930,931,932,927,928,929,930,931,932,927,928,929,930,931,932,927,928,929,930,931,932,
793,794,795,796,797,798,793,794,795,796,797,798,793,794,795,796,797,798,793,794,795,796,797,798,793,794,795,796,797,798,793,794,795,796,797,798,793,794,795,796,797,798,793,794,795,796,797,798,793,794,795,796,797,798,793,794,795,796,797,798,793,794,795,796,797,798,793,794,795,796,797,798,793,794,795,796,797,798,793,794,795,796,797,798,793,794,795,796,797,798,793,794,795,796,797,798,793,794,795,796,797,798,793,794,795,796,797,798,793,794,795,796,797,798,793,794,795,796,797,798,793,794,795,796,797,798,793,794,795,796,797,798,793,794,795,796,797,798,793,794,795,796,797,798,793,794,795,796,797,798,
860,861,862,863,864,865,860,861,862,863,864,865,860,861,862,863,864,865,860,861,862,863,864,865,860,861,862,863,864,865,860,861,862,863,864,865,860,861,862,863,864,865,860,861,862,863,864,865,860,861,862,863,864,865,860,861,862,863,864,865,860,861,862,863,864,865,860,861,862,863,864,865,860,861,862,863,864,865,860,861,862,863,864,865,860,861,862,863,864,865,860,861,862,863,864,865,860,861,862,863,864,865,860,861,862,863,864,865,860,861,862,863,864,865,860,861,862,863,864,865,860,861,862,863,864,865,860,861,862,863,864,865,860,861,862,863,864,865,860,861,862,863,864,865,860,861,862,863,864,865,
927,928,929,930,931,932,927,928,929,930,931,932,927,928,929,930,931,932,927,928,929,930,931,932,927,928,929,930,931,932,927,928,929,930,931,932,927,928,929,930,931,932,927,928,929,930,931,932,927,928,929,930,931,932,927,928,929,930,931,932,927,928,929,930,931,932,927,928,929,930,931,932,927,928,929,930,931,932,927,928,929,930,931,932,927,928,929,930,931,932,927,928,929,930,931,932,927,928,929,930,931,932,927,928,929,930,931,932,927,928,929,930,931,932,927,928,929,930,931,932,927,928,929,930,931,932,927,928,929,930,931,932,927,928,929,930,931,932,927,928,929,930,931,932,927,928,929,930,931,932,
793,794,795,796,797,798,793,794,795,796,797,798,793,794,795,796,797,798,793,794,795,796,797,798,793,794,795,796,797,798,793,794,795,796,797,798,793,794,795,796,797,798,793,794,795,796,797,798,793,794,795,796,797,798,793,794,795,796,797,798,793,794,795,796,797,798,793,794,795,796,797,798,793,794,795,796,797,798,793,794,795,796,797,798,793,794,795,796,797,798,793,794,795,796,797,798,793,794,795,796,797,798,793,794,795,796,797,798,793,794,795,796,797,798,793,794,795,796,797,798,793,794,795,796,797,798,793,794,795,796,797,798,793,794,795,796,797,798,793,794,795,796,797,798,793,794,795,796,797,798,
860,861,862,863,864,865,860,861,862,863,864,865,860,861,862,863,864,865,860,861,862,863,864,865,860,861,862,863,864,865,860,861,862,863,864,865,860,861,862,863,864,865,860,861,862,863,864,865,860,861,862,863,864,865,860,861,862,863,864,865,860,861,862,863,864,865,860,861,862,863,864,865,860,861,862,863,864,865,860,861,862,863,864,865,860,861,862,863,864,865,860,861,862,863,864,865,860,861,862,863,864,865,860,861,862,863,864,865,860,861,862,863,864,865,860,861,862,863,864,865,860,861,862,863,864,865,860,861,862,863,864,865,860,861,862,863,864,865,860,861,862,863,864,865,860,861,862,863,864,865,
927,928,929,930,931,932,927,928,929,930,931,932,927,928,929,930,931,932,927,928,929,930,931,932,927,928,929,930,931,932,927,928,929,930,931,932,927,928,929,930,931,932,927,928,929,930,931,932,927,928,929,930,931,932,927,928,929,930,931,932,927,928,929,930,931,932,927,928,929,930,931,932,927,928,929,930,931,932,927,928,929,930,931,932,927,928,929,930,931,932,927,928,929,930,931,932,927,928,929,930,931,932,927,928,929,930,931,932,927,928,929,930,931,932,927,928,929,930,931,932,927,928,929,930,931,932,927,928,929,930,931,932,927,928,929,930,931,932,927,928,929,930,931,932,927,928,929,930,931,932,
793,794,795,796,797,798,793,794,795,796,797,798,793,794,795,796,797,798,793,794,795,796,797,798,793,794,795,796,797,798,793,794,795,796,797,798,793,794,795,796,797,798,793,794,795,796,797,798,793,794,795,796,797,798,793,794,795,796,797,798,793,794,795,796,797,798,793,794,795,796,797,798,793,794,795,796,797,798,793,794,795,796,797,798,793,794,795,796,797,798,793,794,795,796,797,798,793,794,795,796,797,798,793,794,795,796,797,798,793,794,795,796,797,798,793,794,795,796,797,798,793,794,795,796,797,798,793,794,795,796,797,798,793,794,795,796,797,798,793,794,795,796,797,798,793,794,795,796,797,798,
860,861,862,863,864,865,860,861,862,863,864,865,860,861,862,863,864,865,860,861,862,863,864,865,860,861,862,863,864,865,860,861,862,863,864,865,860,861,862,863,864,865,860,861,862,863,864,865,860,861,862,863,864,865,860,861,862,863,864,865,860,861,862,863,864,865,860,861,862,863,864,865,860,861,862,863,864,865,860,861,862,863,864,865,860,861,862,863,864,865,860,861,862,863,864,865,860,861,862,863,864,865,860,861,862,863,864,865,860,861,862,863,864,865,860,861,862,863,864,865,860,861,862,863,864,865,860,861,862,863,864,865,860,861,862,863,864,865,860,861,862,863,864,865,860,861,862,863,864,865,
927,928,929,930,931,932,927,928,929,930,931,932,927,928,929,930,931,932,927,928,929,930,931,932,927,928,929,930,931,932,927,928,929,930,931,932,927,928,929,930,931,932,927,928,929,930,931,932,927,928,929,930,931,932,927,928,929,930,931,932,927,928,929,930,931,932,927,928,929,930,931,932,927,928,929,930,931,932,927,928,929,930,931,932,927,928,929,930,931,932,927,928,929,930,931,932,927,928,929,930,931,932,927,928,929,930,931,932,927,928,929,930,931,932,927,928,929,930,931,932,927,928,929,930,931,932,927,928,929,930,931,932,927,928,929,930,931,932,927,928,929,930,931,932,927,928,929,930,931,932,
793,794,795,796,797,798,793,794,795,796,797,798,793,794,795,796,797,798,793,794,795,796,797,798,793,794,795,796,797,798,793,794,795,796,797,798,793,794,795,796,797,798,793,794,795,796,797,798,793,794,795,796,797,798,793,794,795,796,797,798,793,794,795,796,797,798,793,794,795,796,797,798,793,794,795,796,797,798,793,794,795,796,797,798,793,794,795,796,797,798,793,794,795,796,797,798,793,794,795,796,797,798,793,794,795,796,797,798,793,794,795,796,797,798,793,794,795,796,797,798,793,794,795,796,797,798,793,794,795,796,797,798,793,794,795,796,797,798,793,794,795,796,797,798,793,794,795,796,797,798,
860,861,862,863,864,865,860,861,862,863,864,865,860,861,862,863,864,865,860,861,862,863,864,865,860,861,862,863,864,865,860,861,862,863,864,865,860,861,862,863,864,865,860,861,862,863,864,865,860,861,862,863,864,865,860,861,862,863,864,865,860,861,862,863,864,865,860,861,862,863,864,865,860,861,862,863,864,865,860,861,862,863,864,865,860,861,862,863,864,865,860,861,862,863,864,865,860,861,862,863,864,865,860,861,862,863,864,865,860,861,862,863,864,865,860,861,862,863,864,865,860,861,862,863,864,865,860,861,862,863,864,865,860,861,862,863,864,865,860,861,862,863,864,865,860,861,862,863,864,865,
927,928,929,930,931,932,927,928,929,930,931,932,927,928,929,930,931,932,927,928,929,930,931,932,927,928,929,930,931,932,927,928,929,930,931,932,927,928,929,930,931,932,927,928,929,930,931,932,927,928,929,930,931,932,927,928,929,930,931,932,927,928,929,930,931,932,927,928,929,930,931,932,927,928,929,930,931,932,927,928,929,930,931,932,927,928,929,930,931,932,927,928,929,930,931,932,927,928,929,930,931,932,927,928,929,930,931,932,927,928,929,930,931,932,927,928,929,930,931,932,927,928,929,930,931,932,927,928,929,930,931,932,927,928,929,930,931,932,927,928,929,930,931,932,927,928,929,930,931,932,
793,794,795,796,797,798,793,794,795,796,797,798,793,794,795,796,797,798,793,794,795,796,797,798,793,794,795,796,797,798,793,794,795,796,797,798,793,794,795,796,797,798,793,794,795,796,797,798,793,794,795,796,797,798,793,794,795,796,797,798,793,794,795,796,797,798,793,794,795,796,797,798,793,794,795,796,797,798,793,794,795,796,797,798,793,794,795,796,797,798,793,794,795,796,797,798,793,794,795,796,797,798,793,794,795,796,797,798,793,794,795,796,797,798,793,794,795,796,797,798,793,794,795,796,797,798,793,794,795,796,797,798,793,794,795,796,797,798,793,794,795,796,797,798,793,794,795,796,797,798,
860,861,862,863,864,865,860,861,862,863,864,865,860,861,862,863,864,865,860,861,862,863,864,865,860,861,862,863,864,865,860,861,862,863,864,865,860,861,862,863,864,865,860,861,862,863,864,865,860,861,862,863,864,865,860,861,862,863,864,865,860,861,862,863,864,865,860,861,862,863,864,865,860,861,862,863,864,865,860,861,862,863,864,865,860,861,862,863,864,865,860,861,862,863,864,865,860,861,862,863,864,865,860,861,862,863,864,865,860,861,862,863,864,865,860,861,862,863,864,865,860,861,862,863,864,865,860,861,862,863,864,865,860,861,862,863,864,865,860,861,862,863,864,865,860,861,862,863,864,865,
927,928,929,930,931,932,927,928,929,930,931,932,927,928,929,930,931,932,927,928,929,930,931,932,927,928,929,930,931,932,927,928,929,930,931,932,927,928,929,930,931,932,927,928,929,930,931,932,927,928,929,930,931,932,927,928,929,930,931,932,927,928,929,930,931,932,927,928,929,930,931,932,927,928,929,930,931,932,927,928,929,930,931,932,927,928,929,930,931,932,927,928,929,930,931,932,927,928,929,930,931,932,927,928,929,930,931,932,927,928,929,930,931,932,927,928,929,930,931,932,927,928,929,930,931,932,927,928,929,930,931,932,927,928,929,930,931,932,927,928,929,930,931,932,927,928,929,930,931,932,
793,794,795,796,797,798,793,794,795,796,797,798,793,794,795,796,797,798,793,794,795,796,797,798,793,794,795,796,797,798,793,794,795,796,797,798,793,794,795,796,797,798,793,794,795,796,797,798,793,794,795,796,797,798,793,794,795,796,797,798,793,794,795,796,797,798,793,794,795,796,797,798,793,794,795,796,797,798,793,794,795,796,797,798,793,794,795,796,797,798,793,794,795,796,797,798,793,794,795,796,797,798,793,794,795,796,797,798,793,794,795,796,797,798,793,794,795,796,797,798,793,794,795,796,797,798,793,794,795,796,797,798,793,794,795,796,797,798,793,794,795,796,797,798,793,794,795,796,797,798,
860,861,862,863,864,865,860,861,862,863,864,865,860,861,862,863,864,865,860,861,862,863,864,865,860,861,862,863,864,865,860,861,862,863,864,865,860,861,862,863,864,865,860,861,862,863,864,865,860,861,862,863,864,865,860,861,862,863,864,865,860,861,862,863,864,865,860,861,862,863,864,865,860,861,862,863,864,865,860,861,862,863,864,865,860,861,862,863,864,865,860,861,862,863,864,865,860,861,862,863,864,865,860,861,862,863,864,865,860,861,862,863,864,865,860,861,862,863,864,865,860,861,862,863,864,865,860,861,862,863,864,865,860,861,862,863,864,865,860,861,862,863,864,865,860,861,862,863,864,865,
927,928,929,930,931,932,927,928,929,930,931,932,927,928,929,930,931,932,927,928,929,930,931,932,927,928,929,930,931,932,927,928,929,930,931,932,927,928,929,930,931,932,927,928,929,930,931,932,927,928,929,930,931,932,927,928,929,930,931,932,927,928,929,930,931,932,927,928,929,930,931,932,927,928,929,930,931,932,927,928,929,930,931,932,927,928,929,930,931,932,927,928,929,930,931,932,927,928,929,930,931,932,927,928,929,930,931,932,927,928,929,930,931,932,927,928,929,930,931,932,927,928,929,930,931,932,927,928,929,930,931,932,927,928,929,930,931,932,927,928,929,930,931,932,927,928,929,930,931,932,
793,794,795,796,797,798,793,794,795,796,797,798,793,794,795,796,797,798,793,794,795,796,797,798,793,794,795,796,797,798,793,794,795,796,797,798,793,794,795,796,797,798,793,794,795,796,797,798,793,794,795,796,797,798,793,794,795,796,797,798,793,794,795,796,797,798,793,794,795,796,797,798,793,794,795,796,797,798,793,794,795,796,797,798,793,794,795,796,797,798,793,794,795,796,797,798,793,794,795,796,797,798,793,794,795,796,797,798,793,794,795,796,797,798,793,794,795,796,797,798,793,794,795,796,797,798,793,794,795,796,797,798,793,794,795,796,797,798,793,794,795,796,797,798,793,794,795,796,797,798,
860,861,862,863,864,865,860,861,862,863,864,865,860,861,862,863,864,865,860,861,862,863,864,865,860,861,862,863,864,865,860,861,862,863,864,865,860,861,862,863,864,865,860,861,862,863,864,865,860,861,862,863,864,865,860,861,862,863,864,865,860,861,862,863,864,865,860,861,862,863,864,865,860,861,862,863,864,865,860,861,862,863,864,865,860,861,862,863,864,865,860,861,862,863,864,865,860,861,862,863,864,865,860,861,862,863,864,865,860,861,862,863,864,865,860,861,862,863,864,865,860,861,862,863,864,865,860,861,862,863,864,865,860,861,862,863,864,865,860,861,862,863,864,865,860,861,862,863,864,865,
927,928,929,930,931,932,927,928,929,930,931,932,927,928,929,930,931,932,927,928,929,930,931,932,927,928,929,930,931,932,927,928,929,930,931,932,927,928,929,930,931,932,927,928,929,930,931,932,927,928,929,930,931,932,927,928,929,930,931,932,927,928,929,930,931,932,927,928,929,930,931,932,927,928,929,930,931,932,927,928,929,930,931,932,927,928,929,930,931,932,927,928,929,930,931,932,927,928,929,930,931,932,927,928,929,930,931,932,927,928,929,930,931,932,927,928,929,930,931,932,927,928,929,930,931,932,927,928,929,930,931,932,927,928,929,930,931,932,927,928,929,930,931,932,927,928,929,930,931,932,
793,794,795,796,797,798,793,794,795,796,797,798,793,794,795,796,797,798,793,794,795,796,797,798,793,794,795,796,797,798,793,794,795,796,797,798,793,794,795,796,797,798,793,794,795,796,797,798,793,794,795,796,797,798,793,794,795,796,797,798,793,794,795,796,797,798,793,794,795,796,797,798,793,794,795,796,797,798,793,794,795,796,797,798,793,794,795,796,797,798,793,794,795,796,797,798,793,794,795,796,797,798,793,794,795,796,797,798,793,794,795,796,797,798,793,794,795,796,797,798,793,794,795,796,797,798,793,794,795,796,797,798,793,794,795,796,797,798,793,794,795,796,797,798,793,794,795,796,797,798,
860,861,862,863,864,865,860,861,862,863,864,865,860,861,862,863,864,865,860,861,862,863,864,865,860,861,862,863,864,865,860,861,862,863,864,865,860,861,862,863,864,865,860,861,862,863,864,865,860,861,862,863,864,865,860,861,862,863,864,865,860,861,862,863,864,865,860,861,862,863,864,865,860,861,862,863,864,865,860,861,862,863,864,865,860,861,862,863,864,865,860,861,862,863,864,865,860,861,862,863,864,865,860,861,862,863,864,865,860,861,862,863,864,865,860,861,862,863,864,865,860,861,862,863,864,865,860,861,862,863,864,865,860,861,862,863,864,865,860,861,862,863,864,865,860,861,862,863,864,865,
927,928,929,930,931,932,927,928,929,930,931,932,927,928,929,930,931,932,927,928,929,930,931,932,927,928,929,930,931,932,927,928,929,930,931,932,927,928,929,930,931,932,927,928,929,930,931,932,927,928,929,930,931,932,927,928,929,930,931,932,927,928,929,930,931,932,927,928,929,930,931,932,927,928,929,930,931,932,927,928,929,930,931,932,927,928,929,930,931,932,927,928,929,930,931,932,927,928,929,930,931,932,927,928,929,930,931,932,927,928,929,930,931,932,927,928,929,930,931,932,927,928,929,930,931,932,927,928,929,930,931,932,927,928,929,930,931,932,927,928,929,930,931,932,927,928,929,930,931,932,
793,794,795,796,797,798,793,794,795,796,797,798,793,794,795,796,797,798,793,794,795,796,797,798,793,794,795,796,797,798,793,794,795,796,797,798,793,794,795,796,797,798,793,794,795,796,797,798,793,794,795,796,797,798,793,794,795,796,797,798,793,794,795,796,797,798,793,794,795,796,797,798,793,794,795,796,797,798,793,794,795,796,797,798,793,794,795,796,797,798,793,794,795,796,797,798,793,794,795,796,797,798,793,794,795,796,797,798,793,794,795,796,797,798,793,794,795,796,797,798,793,794,795,796,797,798,793,794,795,796,797,798,793,794,795,796,797,798,793,794,795,796,797,798,793,794,795,796,797,798,
860,861,862,863,864,865,860,861,862,863,864,865,860,861,862,863,864,865,860,861,862,863,864,865,860,861,862,863,864,865,860,861,862,863,864,865,860,861,862,863,864,865,860,861,862,863,864,865,860,861,862,863,864,865,860,861,862,863,864,865,860,861,862,863,864,865,860,861,862,863,864,865,860,861,862,863,864,865,860,861,862,863,864,865,860,861,862,863,864,865,860,861,862,863,864,865,860,861,862,863,864,865,860,861,862,863,864,865,860,861,862,863,864,865,860,861,862,863,864,865,860,861,862,863,864,865,860,861,862,863,864,865,860,861,862,863,864,865,860,861,862,863,864,865,860,861,862,863,864,865,
927,928,929,930,931,932,927,928,929,930,931,932,927,928,929,930,931,932,927,928,929,930,931,932,927,928,929,930,931,932,927,928,929,930,931,932,927,928,929,930,931,932,927,928,929,930,931,932,927,928,929,930,931,932,927,928,929,930,931,932,927,928,929,930,931,932,927,928,929,930,931,932,927,928,929,930,931,932,927,928,929,930,931,932,927,928,929,930,931,932,927,928,929,930,931,932,927,928,929,930,931,932,927,928,929,930,931,932,927,928,929,930,931,932,927,928,929,930,931,932,927,928,929,930,931,932,927,928,929,930,931,932,927,928,929,930,931,932,927,928,929,930,931,932,927,928,929,930,931,932,
793,794,795,796,797,798,793,794,795,796,797,798,793,794,795,796,797,798,793,794,795,796,797,798,793,794,795,796,797,798,793,794,795,796,797,798,793,794,795,796,797,798,793,794,795,796,797,798,793,794,795,796,797,798,793,794,795,796,797,798,793,794,795,796,797,798,793,794,795,796,797,798,793,794,795,796,797,798,793,794,795,796,797,798,793,794,795,796,797,798,793,794,795,796,797,798,793,794,795,796,797,798,793,794,795,796,797,798,793,794,795,796,797,798,793,794,795,796,797,798,793,794,795,796,797,798,793,794,795,796,797,798,793,794,795,796,797,798,793,794,795,796,797,798,793,794,795,796,797,798,
860,861,862,863,864,865,860,861,862,863,864,865,860,861,862,863,864,865,860,861,862,863,864,865,860,861,862,863,864,865,860,861,862,863,864,865,860,861,862,863,864,865,860,861,862,863,864,865,860,861,862,863,864,865,860,861,862,863,864,865,860,861,862,863,864,865,860,861,862,863,864,865,860,861,862,863,864,865,860,861,862,863,864,865,860,861,862,863,864,865,860,861,862,863,864,865,860,861,862,863,864,865,860,861,862,863,864,865,860,861,862,863,864,865,860,861,862,863,864,865,860,861,862,863,864,865,860,861,862,863,864,865,860,861,862,863,864,865,860,861,862,863,864,865,860,861,862,863,864,865,
927,928,929,930,931,932,927,928,929,930,931,932,927,928,929,930,931,932,927,928,929,930,931,932,927,928,929,930,931,932,927,928,929,930,931,932,927,928,929,930,931,932,927,928,929,930,931,932,927,928,929,930,931,932,927,928,929,930,931,932,927,928,929,930,931,932,927,928,929,930,931,932,927,928,929,930,931,932,927,928,929,930,931,932,927,928,929,930,931,932,927,928,929,930,931,932,927,928,929,930,931,932,927,928,929,930,931,932,927,928,929,930,931,932,927,928,929,930,931,932,927,928,929,930,931,932,927,928,929,930,931,932,927,928,929,930,931,932,927,928,929,930,931,932,927,928,929,930,931,932,
793,794,795,796,797,798,793,794,795,796,797,798,793,794,795,796,797,798,793,794,795,796,797,798,793,794,795,796,797,798,793,794,795,796,797,798,793,794,795,796,797,798,793,794,795,796,797,798,793,794,795,796,797,798,793,794,795,796,797,798,793,794,795,796,797,798,793,794,795,796,797,798,793,794,795,796,797,798,793,794,795,796,797,798,793,794,795,796,797,798,793,794,795,796,797,798,793,794,795,796,797,798,793,794,795,796,797,798,793,794,795,796,797,798,793,794,795,796,797,798,793,794,795,796,797,798,793,794,795,796,797,798,793,794,795,796,797,798,793,794,795,796,797,798,793,794,795,796,797,798,
860,861,862,863,864,865,860,861,862,863,864,865,860,861,862,863,864,865,860,861,862,863,864,865,860,861,862,863,864,865,860,861,862,863,864,865,860,861,862,863,864,865,860,861,862,863,864,865,860,861,862,863,864,865,860,861,862,863,864,865,860,861,862,863,864,865,860,861,862,863,864,865,860,861,862,863,864,865,860,861,862,863,864,865,860,861,862,863,864,865,860,861,862,863,864,865,860,861,862,863,864,865,860,861,862,863,864,865,860,861,862,863,864,865,860,861,862,863,864,865,860,861,862,863,864,865,860,861,862,863,864,865,860,861,862,863,864,865,860,861,862,863,864,865,860,861,862,863,864,865,
927,928,929,930,931,932,927,928,929,930,931,932,927,928,929,930,931,932,927,928,929,930,931,932,927,928,929,930,931,932,927,928,929,930,931,932,927,928,929,930,931,932,927,928,929,930,931,932,927,928,929,930,931,932,927,928,929,930,931,932,927,928,929,930,931,932,927,928,929,930,931,932,927,928,929,930,931,932,927,928,929,930,931,932,927,928,929,930,931,932,927,928,929,930,931,932,927,928,929,930,931,932,927,928,929,930,931,932,927,928,929,930,931,932,927,928,929,930,931,932,927,928,929,930,931,932,927,928,929,930,931,932,927,928,929,930,931,932,927,928,929,930,931,932,927,928,929,930,931,932,
793,794,795,796,797,798,793,794,795,796,797,798,793,794,795,796,797,798,793,794,795,796,797,798,793,794,795,796,797,798,793,794,795,796,797,798,793,794,795,796,797,798,793,794,795,796,797,798,793,794,795,796,797,798,793,794,795,796,797,798,793,794,795,796,797,798,793,794,795,796,797,798,793,794,795,796,797,798,793,794,795,796,797,798,793,794,795,796,797,798,793,794,795,796,797,798,793,794,795,796,797,798,793,794,795,796,797,798,793,794,795,796,797,798,793,794,795,796,797,798,793,794,795,796,797,798,793,794,795,796,797,798,793,794,795,796,797,798,793,794,795,796,797,798,793,794,795,796,797,798,
860,861,862,863,864,865,860,861,862,863,864,865,860,861,862,863,864,865,860,861,862,863,864,865,860,861,862,863,864,865,860,861,862,863,864,865,860,861,862,863,864,865,860,861,862,863,864,865,860,861,862,863,864,865,860,861,862,863,864,865,860,861,862,863,864,865,860,861,862,863,864,865,860,861,862,863,864,865,860,861,862,863,864,865,860,861,862,863,864,865,860,861,862,863,864,865,860,861,862,863,864,865,860,861,862,863,864,865,860,861,862,863,864,865,860,861,862,863,864,865,860,861,862,863,864,865,860,861,862,863,864,865,860,861,862,863,864,865,860,861,862,863,864,865,860,861,862,863,864,865,
927,928,929,930,931,932,927,928,929,930,931,932,927,928,929,930,931,932,927,928,929,930,931,932,927,928,929,930,931,932,927,928,929,930,931,932,927,928,929,930,931,932,927,928,929,930,931,932,927,928,929,930,931,932,927,928,929,930,931,932,927,928,929,930,931,932,927,928,929,930,931,932,927,928,929,930,931,932,927,928,929,930,931,932,927,928,929,930,931,932,927,928,929,930,931,932,927,928,929,930,931,932,927,928,929,930,931,932,927,928,929,930,931,932,927,928,929,930,931,932,927,928,929,930,931,932,927,928,929,930,931,932,927,928,929,930,931,932,927,928,929,930,931,932,927,928,929,930,931,932,
793,794,795,796,797,798,793,794,795,796,797,798,793,794,795,796,797,798,793,794,795,796,797,798,793,794,795,796,797,798,793,794,795,796,797,798,793,794,795,796,797,798,793,794,795,796,797,798,793,794,795,796,797,798,793,794,795,796,797,798,793,794,795,796,797,798,793,794,795,796,797,798,793,794,795,796,797,798,793,794,795,796,797,798,793,794,795,796,797,798,793,794,795,796,797,798,793,794,795,796,797,798,793,794,795,796,797,798,793,794,795,796,797,798,793,794,795,796,797,798,793,794,795,796,797,798,793,794,795,796,797,798,793,794,795,796,797,798,793,794,795,796,797,798,793,794,795,796,797,798,
860,861,862,863,864,865,860,861,862,863,864,865,860,861,862,863,864,865,860,861,862,863,864,865,860,861,862,863,864,865,860,861,862,863,864,865,860,861,862,863,864,865,860,861,862,863,864,865,860,861,862,863,864,865,860,861,862,863,864,865,860,861,862,863,864,865,860,861,862,863,864,865,860,861,862,863,864,865,860,861,862,863,864,865,860,861,862,863,864,865,860,861,862,863,864,865,860,861,862,863,864,865,860,861,862,863,864,865,860,861,862,863,864,865,860,861,862,863,864,865,860,861,862,863,864,865,860,861,862,863,864,865,860,861,862,863,864,865,860,861,862,863,864,865,860,861,862,863,864,865,
927,928,929,930,931,932,927,928,929,930,931,932,927,928,929,930,931,932,927,928,929,930,931,932,927,928,929,930,931,932,927,928,929,930,931,932,927,928,929,930,931,932,927,928,929,930,931,932,927,928,929,930,931,932,927,928,929,930,931,932,927,928,929,930,931,932,927,928,929,930,931,932,927,928,929,930,931,932,927,928,929,930,931,932,927,928,929,930,931,932,927,928,929,930,931,932,927,928,929,930,931,932,927,928,929,930,931,932,927,928,929,930,931,932,927,928,929,930,931,932,927,928,929,930,931,932,927,928,929,930,931,932,927,928,929,930,931,932,927,928,929,930,931,932,927,928,929,930,931,932,
793,794,795,796,797,798,793,794,795,796,797,798,793,794,795,796,797,798,793,794,795,796,797,798,793,794,795,796,797,798,793,794,795,796,797,798,793,794,795,796,797,798,793,794,795,796,797,798,793,794,795,796,797,798,793,794,795,796,797,798,793,794,795,796,797,798,793,794,795,796,797,798,793,794,795,796,797,798,793,794,795,796,797,798,793,794,795,796,797,798,793,794,795,796,797,798,793,794,795,796,797,798,793,794,795,796,797,798,793,794,795,796,797,798,793,794,795,796,797,798,793,794,795,796,797,798,793,794,795,796,797,798,793,794,795,796,797,798,793,794,795,796,797,798,793,794,795,796,797,798,
860,861,862,863,864,865,860,861,862,863,864,865,860,861,862,863,864,865,860,861,862,863,864,865,860,861,862,863,864,865,860,861,862,863,864,865,860,861,862,863,864,865,860,861,862,863,864,865,860,861,862,863,864,865,860,861,862,863,864,865,860,861,862,863,864,865,860,861,862,863,864,865,860,861,862,863,864,865,860,861,862,863,864,865,860,861,862,863,864,865,860,861,862,863,864,865,860,861,862,863,864,865,860,861,862,863,864,865,860,861,862,863,864,865,860,861,862,863,864,865,860,861,862,863,864,865,860,861,862,863,864,865,860,861,862,863,864,865,860,861,862,863,864,865,860,861,862,863,864,865,
927,928,929,930,931,932,927,928,929,930,931,932,927,928,929,930,931,932,927,928,929,930,931,932,927,928,929,930,931,932,927,928,929,930,931,932,927,928,929,930,931,932,927,928,929,930,931,932,927,928,929,930,931,932,927,928,929,930,931,932,927,928,929,930,931,932,927,928,929,930,931,932,927,928,929,930,931,932,927,928,929,930,931,932,927,928,929,930,931,932,927,928,929,930,931,932,927,928,929,930,931,932,927,928,929,930,931,932,927,928,929,930,931,932,927,928,929,930,931,932,927,928,929,930,931,932,927,928,929,930,931,932,927,928,929,930,931,932,927,928,929,930,931,932,927,928,929,930,931,932,
793,794,795,796,797,798,793,794,795,796,797,798,793,794,795,796,797,798,793,794,795,796,797,798,793,794,795,796,797,798,793,794,795,796,797,798,793,794,795,796,797,798,793,794,795,796,797,798,793,794,795,796,797,798,793,794,795,796,797,798,793,794,795,796,797,798,793,794,795,796,797,798,793,794,795,796,797,798,793,794,795,796,797,798,793,794,795,796,797,798,793,794,795,796,797,798,793,794,795,796,797,798,793,794,795,796,797,798,793,794,795,796,797,798,793,794,795,796,797,798,793,794,795,796,797,798,793,794,795,796,797,798,793,794,795,796,797,798,793,794,795,796,797,798,793,794,795,796,797,798,
860,861,862,863,864,865,860,861,862,863,864,865,860,861,862,863,864,865,860,861,862,863,864,865,860,861,862,863,864,865,860,861,862,863,864,865,860,861,862,863,864,865,860,861,862,863,864,865,860,861,862,863,864,865,860,861,862,863,864,865,860,861,862,863,864,865,860,861,862,863,864,865,860,861,862,863,864,865,860,861,862,863,864,865,860,861,862,863,864,865,860,861,862,863,864,865,860,861,862,863,864,865,860,861,862,863,864,865,860,861,862,863,864,865,860,861,862,863,864,865,860,861,862,863,864,865,860,861,862,863,864,865,860,861,862,863,864,865,860,861,862,863,864,865,860,861,862,863,864,865,
927,928,929,930,931,932,927,928,929,930,931,932,927,928,929,930,931,932,927,928,929,930,931,932,927,928,929,930,931,932,927,928,929,930,931,932,927,928,929,930,931,932,927,928,929,930,931,932,927,928,929,930,931,932,927,928,929,930,931,932,927,928,929,930,931,932,927,928,929,930,931,932,927,928,929,930,931,932,927,928,929,930,931,932,927,928,929,930,931,932,927,928,929,930,931,932,927,928,929,930,931,932,927,928,929,930,931,932,927,928,929,930,931,932,927,928,929,930,931,932,927,928,929,930,931,932,927,928,929,930,931,932,927,928,929,930,931,932,927,928,929,930,931,932,927,928,929,930,931,932,
793,794,795,796,797,798,793,794,795,796,797,798,793,794,795,796,797,798,793,794,795,796,797,798,793,794,795,796,797,798,793,794,795,796,797,798,793,794,795,796,797,798,793,794,795,796,797,798,793,794,795,796,797,798,793,794,795,796,797,798,793,794,795,796,797,798,793,794,795,796,797,798,793,794,795,796,797,798,793,794,795,796,797,798,793,794,795,796,797,798,793,794,795,796,797,798,793,794,795,796,797,798,793,794,795,796,797,798,793,794,795,796,797,798,793,794,795,796,797,798,793,794,795,796,797,798,793,794,795,796,797,798,793,794,795,796,797,798,793,794,795,796,797,798,793,794,795,796,797,798,
860,861,862,863,864,865,860,861,862,863,864,865,860,861,862,863,864,865,860,861,862,863,864,865,860,861,862,863,864,865,860,861,862,863,864,865,860,861,862,863,864,865,860,861,862,863,864,865,860,861,862,863,864,865,860,861,862,863,864,865,860,861,862,863,864,865,860,861,862,863,864,865,860,861,862,863,864,865,860,861,862,863,864,865,860,861,862,863,864,865,860,861,862,863,864,865,860,861,862,863,864,865,860,861,862,863,864,865,860,861,862,863,864,865,860,861,862,863,864,865,860,861,862,863,864,865,860,861,862,863,864,865,860,861,862,863,864,865,860,861,862,863,864,865,860,861,862,863,864,865,
927,928,929,930,931,932,927,928,929,930,931,932,927,928,929,930,931,932,927,928,929,930,931,932,927,928,929,930,931,932,927,928,929,930,931,932,927,928,929,930,931,932,927,928,929,930,931,932,927,928,929,930,931,932,927,928,929,930,931,932,927,928,929,930,931,932,927,928,929,930,931,932,927,928,929,930,931,932,927,928,929,930,931,932,927,928,929,930,931,932,927,928,929,930,931,932,927,928,929,930,931,932,927,928,929,930,931,932,927,928,929,930,931,932,927,928,929,930,931,932,927,928,929,930,931,932,927,928,929,930,931,932,927,928,929,930,931,932,927,928,929,930,931,932,927,928,929,930,931,932,
793,794,795,796,797,798,793,794,795,796,797,798,793,794,795,796,797,798,793,794,795,796,797,798,793,794,795,796,797,798,793,794,795,796,797,798,793,794,795,796,797,798,793,794,795,796,797,798,793,794,795,796,797,798,793,794,795,796,797,798,793,794,795,796,797,798,793,794,795,796,797,798,793,794,795,796,797,798,793,794,795,796,797,798,793,794,795,796,797,798,793,794,795,796,797,798,793,794,795,796,797,798,793,794,795,796,797,798,793,794,795,796,797,798,793,794,795,796,797,798,793,794,795,796,797,798,793,794,795,796,797,798,793,794,795,796,797,798,793,794,795,796,797,798,793,794,795,796,797,798,
860,861,862,863,864,865,860,861,862,863,864,865,860,861,862,863,864,865,860,861,862,863,864,865,860,861,862,863,864,865,860,861,862,863,864,865,860,861,862,863,864,865,860,861,862,863,864,865,860,861,862,863,864,865,860,861,862,863,864,865,860,861,862,863,864,865,860,861,862,863,864,865,860,861,862,863,864,865,860,861,862,863,864,865,860,861,862,863,864,865,860,861,862,863,864,865,860,861,862,863,864,865,860,861,862,863,864,865,860,861,862,863,864,865,860,861,862,863,864,865,860,861,862,863,864,865,860,861,862,863,864,865,860,861,862,863,864,865,860,861,862,863,864,865,860,861,862,863,864,865,
927,928,929,930,931,932,927,928,929,930,931,932,927,928,929,930,931,932,927,928,929,930,931,932,927,928,929,930,931,932,927,928,929,930,931,932,927,928,929,930,931,932,927,928,929,930,931,932,927,928,929,930,931,932,927,928,929,930,931,932,927,928,929,930,931,932,927,928,929,930,931,932,927,928,929,930,931,932,927,928,929,930,931,932,927,928,929,930,931,932,927,928,929,930,931,932,927,928,929,930,931,932,927,928,929,930,931,932,927,928,929,930,931,932,927,928,929,930,931,932,927,928,929,930,931,932,927,928,929,930,931,932,927,928,929,930,931,932,927,928,929,930,931,932,927,928,929,930,931,932,
793,794,795,796,797,798,793,794,795,796,797,798,793,794,795,796,797,798,793,794,795,796,797,798,793,794,795,796,797,798,793,794,795,796,797,798,793,794,795,796,797,798,793,794,795,796,797,798,793,794,795,796,797,798,793,794,795,796,797,798,793,794,795,796,797,798,793,794,795,796,797,798,793,794,795,796,797,798,793,794,795,796,797,798,793,794,795,796,797,798,793,794,795,796,797,798,793,794,795,796,797,798,793,794,795,796,797,798,793,794,795,796,797,798,793,794,795,796,797,798,793,794,795,796,797,798,793,794,795,796,797,798,793,794,795,796,797,798,793,794,795,796,797,798,793,794,795,796,797,798,
860,861,862,863,864,865,860,861,862,863,864,865,860,861,862,863,864,865,860,861,862,863,864,865,860,861,862,863,864,865,860,861,862,863,864,865,860,861,862,863,864,865,860,861,862,863,864,865,860,861,862,863,864,865,860,861,862,863,864,865,860,861,862,863,864,865,860,861,862,863,864,865,860,861,862,863,864,865,860,861,862,863,864,865,860,861,862,863,864,865,860,861,862,863,864,865,860,861,862,863,864,865,860,861,862,863,864,865,860,861,862,863,864,865,860,861,862,863,864,865,860,861,862,863,864,865,860,861,862,863,864,865,860,861,862,863,864,865,860,861,862,863,864,865,860,861,862,863,864,865,
927,928,929,930,931,932,927,928,929,930,931,932,927,928,929,930,931,932,927,928,929,930,931,932,927,928,929,930,931,932,927,928,929,930,931,932,927,928,929,930,931,932,927,928,929,930,931,932,927,928,929,930,931,932,927,928,929,930,931,932,927,928,929,930,931,932,927,928,929,930,931,932,927,928,929,930,931,932,927,928,929,930,931,932,927,928,929,930,931,932,927,928,929,930,931,932,927,928,929,930,931,932,927,928,929,930,931,932,927,928,929,930,931,932,927,928,929,930,931,932,927,928,929,930,931,932,927,928,929,930,931,932,927,928,929,930,931,932,927,928,929,930,931,932,927,928,929,930,931,932,
793,794,795,796,797,798,793,794,795,796,797,798,793,794,795,796,797,798,793,794,795,796,797,798,793,794,795,796,797,798,793,794,795,796,797,798,793,794,795,796,797,798,793,794,795,796,797,798,793,794,795,796,797,798,793,794,795,796,797,798,793,794,795,796,797,798,793,794,795,796,797,798,793,794,795,796,797,798,793,794,795,796,797,798,793,794,795,796,797,798,793,794,795,796,797,798,793,794,795,796,797,798,793,794,795,796,797,798,793,794,795,796,797,798,793,794,795,796,797,798,793,794,795,796,797,798,793,794,795,796,797,798,793,794,795,796,797,798,793,794,795,796,797,798,793,794,795,796,797,798,
860,861,862,863,864,865,860,861,862,863,864,865,860,861,862,863,864,865,860,861,862,863,864,865,860,861,862,863,864,865,860,861,862,863,864,865,860,861,862,863,864,865,860,861,862,863,864,865,860,861,862,863,864,865,860,861,862,863,864,865,860,861,862,863,864,865,860,861,862,863,864,865,860,861,862,863,864,865,860,861,862,863,864,865,860,861,862,863,864,865,860,861,862,863,864,865,860,861,862,863,864,865,860,861,862,863,864,865,860,861,862,863,864,865,860,861,862,863,864,865,860,861,862,863,864,865,860,861,862,863,864,865,860,861,862,863,864,865,860,861,862,863,864,865,860,861,862,863,864,865,
927,928,929,930,931,932,927,928,929,930,931,932,927,928,929,930,931,932,927,928,929,930,931,932,927,928,929,930,931,932,927,928,929,930,931,932,927,928,929,930,931,932,927,928,929,930,931,932,927,928,929,930,931,932,927,928,929,930,931,932,927,928,929,930,931,932,927,928,929,930,931,932,927,928,929,930,931,932,927,928,929,930,931,932,927,928,929,930,931,932,927,928,929,930,931,932,927,928,929,930,931,932,927,928,929,930,931,932,927,928,929,930,931,932,927,928,929,930,931,932,927,928,929,930,931,932,927,928,929,930,931,932,927,928,929,930,931,932,927,928,929,930,931,932,927,928,929,930,931,932,
793,794,795,796,797,798,793,794,795,796,797,798,793,794,795,796,797,798,793,794,795,796,797,798,793,794,795,796,797,798,793,794,795,796,797,798,793,794,795,796,797,798,793,794,795,796,797,798,793,794,795,796,797,798,793,794,795,796,797,798,793,794,795,796,797,798,793,794,795,796,797,798,793,794,795,796,797,798,793,794,795,796,797,798,793,794,795,796,797,798,793,794,795,796,797,798,793,794,795,796,797,798,793,794,795,796,797,798,793,794,795,796,797,798,793,794,795,796,797,798,793,794,795,796,797,798,793,794,795,796,797,798,793,794,795,796,797,798,793,794,795,796,797,798,793,794,795,796,797,798,
860,861,862,863,864,865,860,861,862,863,864,865,860,861,862,863,864,865,860,861,862,863,864,865,860,861,862,863,864,865,860,861,862,863,864,865,860,861,862,863,864,865,860,861,862,863,864,865,860,861,862,863,864,865,860,861,862,863,864,865,860,861,862,863,864,865,860,861,862,863,864,865,860,861,862,863,864,865,860,861,862,863,864,865,860,861,862,863,864,865,860,861,862,863,864,865,860,861,862,863,864,865,860,861,862,863,864,865,860,861,862,863,864,865,860,861,862,863,864,865,860,861,862,863,864,865,860,861,862,863,864,865,860,861,862,863,864,865,860,861,862,863,864,865,860,861,862,863,864,865,
927,928,929,930,931,932,927,928,929,930,931,932,927,928,929,930,931,932,927,928,929,930,931,932,927,928,929,930,931,932,927,928,929,930,931,932,927,928,929,930,931,932,927,928,929,930,931,932,927,928,929,930,931,932,927,928,929,930,931,932,927,928,929,930,931,932,927,928,929,930,931,932,927,928,929,930,931,932,927,928,929,930,931,932,927,928,929,930,931,932,927,928,929,930,931,932,927,928,929,930,931,932,927,928,929,930,931,932,927,928,929,930,931,932,927,928,929,930,931,932,927,928,929,930,931,932,927,928,929,930,931,932,927,928,929,930,931,932,927,928,929,930,931,932,927,928,929,930,931,932,
793,794,795,796,797,798,793,794,795,796,797,798,793,794,795,796,797,798,793,794,795,796,797,798,793,794,795,796,797,798,793,794,795,796,797,798,793,794,795,796,797,798,793,794,795,796,797,798,793,794,795,796,797,798,793,794,795,796,797,798,793,794,795,796,797,798,793,794,795,796,797,798,793,794,795,796,797,798,793,794,795,796,797,798,793,794,795,796,797,798,793,794,795,796,797,798,793,794,795,796,797,798,793,794,795,796,797,798,793,794,795,796,797,798,793,794,795,796,797,798,793,794,795,796,797,798,793,794,795,796,797,798,793,794,795,796,797,798,793,794,795,796,797,798,793,794,795,796,797,798,
860,861,862,863,864,865,860,861,862,863,864,865,860,861,862,863,864,865,860,861,862,863,864,865,860,861,862,863,864,865,860,861,862,863,864,865,860,861,862,863,864,865,860,861,862,863,864,865,860,861,862,863,864,865,860,861,862,863,864,865,860,861,862,863,864,865,860,861,862,863,864,865,860,861,862,863,864,865,860,861,862,863,864,865,860,861,862,863,864,865,860,861,862,863,864,865,860,861,862,863,864,865,860,861,862,863,864,865,860,861,862,863,864,865,860,861,862,863,864,865,860,861,862,863,864,865,860,861,862,863,864,865,860,861,862,863,864,865,860,861,862,863,864,865,860,861,862,863,864,865,
927,928,929,930,931,932,927,928,929,930,931,932,927,928,929,930,931,932,927,928,929,930,931,932,927,928,929,930,931,932,927,928,929,930,931,932,927,928,929,930,931,932,927,928,929,930,931,932,927,928,929,930,931,932,927,928,929,930,931,932,927,928,929,930,931,932,927,928,929,930,931,932,927,928,929,930,931,932,927,928,929,930,931,932,927,928,929,930,931,932,927,928,929,930,931,932,927,928,929,930,931,932,927,928,929,930,931,932,927,928,929,930,931,932,927,928,929,930,931,932,927,928,929,930,931,932,927,928,929,930,931,932,927,928,929,930,931,932,927,928,929,930,931,932,927,928,929,930,931,932,
793,794,795,796,797,798,793,794,795,796,797,798,793,794,795,796,797,798,793,794,795,796,797,798,793,794,795,796,797,798,793,794,795,796,797,798,793,794,795,796,797,798,793,794,795,796,797,798,793,794,795,796,797,798,793,794,795,796,797,798,793,794,795,796,797,798,793,794,795,796,797,798,793,794,795,796,797,798,793,794,795,796,797,798,793,794,795,796,797,798,793,794,795,796,797,798,793,794,795,796,797,798,793,794,795,796,797,798,793,794,795,796,797,798,793,794,795,796,797,798,793,794,795,796,797,798,793,794,795,796,797,798,793,794,795,796,797,798,793,794,795,796,797,798,793,794,795,796,797,798,
860,861,862,863,864,865,860,861,862,863,864,865,860,861,862,863,864,865,860,861,862,863,864,865,860,861,862,863,864,865,860,861,862,863,864,865,860,861,862,863,864,865,860,861,862,863,864,865,860,861,862,863,864,865,860,861,862,863,864,865,860,861,862,863,864,865,860,861,862,863,864,865,860,861,862,863,864,865,860,861,862,863,864,865,860,861,862,863,864,865,860,861,862,863,864,865,860,861,862,863,864,865,860,861,862,863,864,865,860,861,862,863,864,865,860,861,862,863,864,865,860,861,862,863,864,865,860,861,862,863,864,865,860,861,862,863,864,865,860,861,862,863,864,865,860,861,862,863,864,865,
927,928,929,930,931,932,927,928,929,930,931,932,927,928,929,930,931,932,927,928,929,930,931,932,927,928,929,930,931,932,927,928,929,930,931,932,927,928,929,930,931,932,927,928,929,930,931,932,927,928,929,930,931,932,927,928,929,930,931,932,927,928,929,930,931,932,927,928,929,930,931,932,927,928,929,930,931,932,927,928,929,930,931,932,927,928,929,930,931,932,927,928,929,930,931,932,927,928,929,930,931,932,927,928,929,930,931,932,927,928,929,930,931,932,927,928,929,930,931,932,927,928,929,930,931,932,927,928,929,930,931,932,927,928,929,930,931,932,927,928,929,930,931,932,927,928,929,930,931,932,
793,794,795,796,797,798,793,794,795,796,797,798,793,794,795,796,797,798,793,794,795,796,797,798,793,794,795,796,797,798,793,794,795,796,797,798,793,794,795,796,797,798,793,794,795,796,797,798,793,794,795,796,797,798,793,794,795,796,797,798,793,794,795,796,797,798,793,794,795,796,797,798,793,794,795,796,797,798,793,794,795,796,797,798,793,794,795,796,797,798,793,794,795,796,797,798,793,794,795,796,797,798,793,794,795,796,797,798,793,794,795,796,797,798,793,794,795,796,797,798,793,794,795,796,797,798,793,794,795,796,797,798,793,794,795,796,797,798,793,794,795,796,797,798,793,794,795,796,797,798,
860,861,862,863,864,865,860,861,862,863,864,865,860,861,862,863,864,865,860,861,862,863,864,865,860,861,862,863,864,865,860,861,862,863,864,865,860,861,862,863,864,865,860,861,862,863,864,865,860,861,862,863,864,865,860,861,862,863,864,865,860,861,862,863,864,865,860,861,862,863,864,865,860,861,862,863,864,865,860,861,862,863,864,865,860,861,862,863,864,865,860,861,862,863,864,865,860,861,862,863,864,865,860,861,862,863,864,865,860,861,862,863,864,865,860,861,862,863,864,865,860,861,862,863,864,865,860,861,862,863,864,865,860,861,862,863,864,865,860,861,862,863,864,865,860,861,862,863,864,865,
927,928,929,930,931,932,927,928,929,930,931,932,927,928,929,930,931,932,927,928,929,930,931,932,927,928,929,930,931,932,927,928,929,930,931,932,927,928,929,930,931,932,927,928,929,930,931,932,927,928,929,930,931,932,927,928,929,930,931,932,927,928,929,930,931,932,927,928,929,930,931,932,927,928,929,930,931,932,927,928,929,930,931,932,927,928,929,930,931,932,927,928,929,930,931,932,927,928,929,930,931,932,927,928,929,930,931,932,927,928,929,930,931,932,927,928,929,930,931,932,927,928,929,930,931,932,927,928,929,930,931,932,927,928,929,930,931,932,927,928,929,930,931,932,927,928,929,930,931,932,
793,794,795,796,797,798,793,794,795,796,797,798,793,794,795,796,797,798,793,794,795,796,797,798,793,794,795,796,797,798,793,794,795,796,797,798,793,794,795,796,797,798,793,794,795,796,797,798,793,794,795,796,797,798,793,794,795,796,797,798,793,794,795,796,797,798,793,794,795,796,797,798,793,794,795,796,797,798,793,794,795,796,797,798,793,794,795,796,797,798,793,794,795,796,797,798,793,794,795,796,797,798,793,794,795,796,797,798,793,794,795,796,797,798,793,794,795,796,797,798,793,794,795,796,797,798,793,794,795,796,797,798,793,794,795,796,797,798,793,794,795,796,797,798,793,794,795,796,797,798,
860,861,862,863,864,865,860,861,862,863,864,865,860,861,862,863,864,865,860,861,862,863,864,865,860,861,862,863,864,865,860,861,862,863,864,865,860,861,862,863,864,865,860,861,862,863,864,865,860,861,862,863,864,865,860,861,862,863,864,865,860,861,862,863,864,865,860,861,862,863,864,865,860,861,862,863,864,865,860,861,862,863,864,865,860,861,862,863,864,865,860,861,862,863,864,865,860,861,862,863,864,865,860,861,862,863,864,865,860,861,862,863,864,865,860,861,862,863,864,865,860,861,862,863,864,865,860,861,862,863,864,865,860,861,862,863,864,865,860,861,862,863,864,865,860,861,862,863,864,865,
927,928,929,930,931,932,927,928,929,930,931,932,927,928,929,930,931,932,927,928,929,930,931,932,927,928,929,930,931,932,927,928,929,930,931,932,927,928,929,930,931,932,927,928,929,930,931,932,927,928,929,930,931,932,927,928,929,930,931,932,927,928,929,930,931,932,927,928,929,930,931,932,927,928,929,930,931,932,927,928,929,930,931,932,927,928,929,930,931,932,927,928,929,930,931,932,927,928,929,930,931,932,927,928,929,930,931,932,927,928,929,930,931,932,927,928,929,930,931,932,927,928,929,930,931,932,927,928,929,930,931,932,927,928,929,930,931,932,927,928,929,930,931,932,927,928,929,930,931,932,
793,794,795,796,797,798,793,794,795,796,797,798,793,794,795,796,797,798,793,794,795,796,797,798,793,794,795,796,797,798,793,794,795,796,797,798,793,794,795,796,797,798,793,794,795,796,797,798,793,794,795,796,797,798,793,794,795,796,797,798,793,794,795,796,797,798,793,794,795,796,797,798,793,794,795,796,797,798,793,794,795,796,797,798,793,794,795,796,797,798,793,794,795,796,797,798,793,794,795,796,797,798,793,794,795,796,797,798,793,794,795,796,797,798,793,794,795,796,797,798,793,794,795,796,797,798,793,794,795,796,797,798,793,794,795,796,797,798,793,794,795,796,797,798,793,794,795,796,797,798,
860,861,862,863,864,865,860,861,862,863,864,865,860,861,862,863,864,865,860,861,862,863,864,865,860,861,862,863,864,865,860,861,862,863,864,865,860,861,862,863,864,865,860,861,862,863,864,865,860,861,862,863,864,865,860,861,862,863,864,865,860,861,862,863,864,865,860,861,862,863,864,865,860,861,862,863,864,865,860,861,862,863,864,865,860,861,862,863,864,865,860,861,862,863,864,865,860,861,862,863,864,865,860,861,862,863,864,865,860,861,862,863,864,865,860,861,862,863,864,865,860,861,862,863,864,865,860,861,862,863,864,865,860,861,862,863,864,865,860,861,862,863,864,865,860,861,862,863,864,865,
927,928,929,930,931,932,927,928,929,930,931,932,927,928,929,930,931,932,927,928,929,930,931,932,927,928,929,930,931,932,927,928,929,930,931,932,927,928,929,930,931,932,927,928,929,930,931,932,927,928,929,930,931,932,927,928,929,930,931,932,927,928,929,930,931,932,927,928,929,930,931,932,927,928,929,930,931,932,927,928,929,930,931,932,927,928,929,930,931,932,927,928,929,930,931,932,927,928,929,930,931,932,927,928,929,930,931,932,927,928,929,930,931,932,927,928,929,930,931,932,927,928,929,930,931,932,927,928,929,930,931,932,927,928,929,930,931,932,927,928,929,930,931,932,927,928,929,930,931,932,
793,794,795,796,797,798,793,794,795,796,797,798,793,794,795,796,797,798,793,794,795,796,797,798,793,794,795,796,797,798,793,794,795,796,797,798,793,794,795,796,797,798,793,794,795,796,797,798,793,794,795,796,797,798,793,794,795,796,797,798,793,794,795,796,797,798,793,794,795,796,797,798,793,794,795,796,797,798,793,794,795,796,797,798,793,794,795,796,797,798,793,794,795,796,797,798,793,794,795,796,797,798,793,794,795,796,797,798,793,794,795,796,797,798,793,794,795,796,797,798,793,794,795,796,797,798,793,794,795,796,797,798,793,794,795,796,797,798,793,794,795,796,797,798,793,794,795,796,797,798,
860,861,862,863,864,865,860,861,862,863,864,865,860,861,862,863,864,865,860,861,862,863,864,865,860,861,862,863,864,865,860,861,862,863,864,865,860,861,862,863,864,865,860,861,862,863,864,865,860,861,862,863,864,865,860,861,862,863,864,865,860,861,862,863,864,865,860,861,862,863,864,865,860,861,862,863,864,865,860,861,862,863,864,865,860,861,862,863,864,865,860,861,862,863,864,865,860,861,862,863,864,865,860,861,862,863,864,865,860,861,862,863,864,865,860,861,862,863,864,865,860,861,862,863,864,865,860,861,862,863,864,865,860,861,862,863,864,865,860,861,862,863,864,865,860,861,862,863,864,865,
927,928,929,930,931,932,927,928,929,930,931,932,927,928,929,930,931,932,927,928,929,930,931,932,927,928,929,930,931,932,927,928,929,930,931,932,927,928,929,930,931,932,927,928,929,930,931,932,927,928,929,930,931,932,927,928,929,930,931,932,927,928,929,930,931,932,927,928,929,930,931,932,927,928,929,930,931,932,927,928,929,930,931,932,927,928,929,930,931,932,927,928,929,930,931,932,927,928,929,930,931,932,927,928,929,930,931,932,927,928,929,930,931,932,927,928,929,930,931,932,927,928,929,930,931,932,927,928,929,930,931,932,927,928,929,930,931,932,927,928,929,930,931,932,927,928,929,930,931,932,
793,794,795,796,797,798,793,794,795,796,797,798,793,794,795,796,797,798,793,794,795,796,797,798,793,794,795,796,797,798,793,794,795,796,797,798,793,794,795,796,797,798,793,794,795,796,797,798,793,794,795,796,797,798,793,794,795,796,797,798,793,794,795,796,797,798,793,794,795,796,797,798,793,794,795,796,797,798,793,794,795,796,797,798,793,794,795,796,797,798,793,794,795,796,797,798,793,794,795,796,797,798,793,794,795,796,797,798,793,794,795,796,797,798,793,794,795,796,797,798,793,794,795,796,797,798,793,794,795,796,797,798,793,794,795,796,797,798,793,794,795,796,797,798,793,794,795,796,797,798,
860,861,862,863,864,865,860,861,862,863,864,865,860,861,862,863,864,865,860,861,862,863,864,865,860,861,862,863,864,865,860,861,862,863,864,865,860,861,862,863,864,865,860,861,862,863,864,865,860,861,862,863,864,865,860,861,862,863,864,865,860,861,862,863,864,865,860,861,862,863,864,865,860,861,862,863,864,865,860,861,862,863,864,865,860,861,862,863,864,865,860,861,862,863,864,865,860,861,862,863,864,865,860,861,862,863,864,865,860,861,862,863,864,865,860,861,862,863,864,865,860,861,862,863,864,865,860,861,862,863,864,865,860,861,862,863,864,865,860,861,862,863,864,865,860,861,862,863,864,865,
927,928,929,930,931,932,927,928,929,930,931,932,927,928,929,930,931,932,927,928,929,930,931,932,927,928,929,930,931,932,927,928,929,930,931,932,927,928,929,930,931,932,927,928,929,930,931,932,927,928,929,930,931,932,927,928,929,930,931,932,927,928,929,930,931,932,927,928,929,930,931,932,927,928,929,930,931,932,927,928,929,930,931,932,927,928,929,930,931,932,927,928,929,930,931,932,927,928,929,930,931,932,927,928,929,930,931,932,927,928,929,930,931,932,927,928,929,930,931,932,927,928,929,930,931,932,927,928,929,930,931,932,927,928,929,930,931,932,927,928,929,930,931,932,927,928,929,930,931,932,
793,794,795,796,797,798,793,794,795,796,797,798,793,794,795,796,797,798,793,794,795,796,797,798,793,794,795,796,797,798,793,794,795,796,797,798,793,794,795,796,797,798,793,794,795,796,797,798,793,794,795,796,797,798,793,794,795,796,797,798,793,794,795,796,797,798,793,794,795,796,797,798,793,794,795,796,797,798,793,794,795,796,797,798,793,794,795,796,797,798,793,794,795,796,797,798,793,794,795,796,797,798,793,794,795,796,797,798,793,794,795,796,797,798,793,794,795,796,797,798,793,794,795,796,797,798,793,794,795,796,797,798,793,794,795,796,797,798,793,794,795,796,797,798,793,794,795,796,797,798,
860,861,862,863,864,865,860,861,862,863,864,865,860,861,862,863,864,865,860,861,862,863,864,865,860,861,862,863,864,865,860,861,862,863,864,865,860,861,862,863,864,865,860,861,862,863,864,865,860,861,862,863,864,865,860,861,862,863,864,865,860,861,862,863,864,865,860,861,862,863,864,865,860,861,862,863,864,865,860,861,862,863,864,865,860,861,862,863,864,865,860,861,862,863,864,865,860,861,862,863,864,865,860,861,862,863,864,865,860,861,862,863,864,865,860,861,862,863,864,865,860,861,862,863,864,865,860,861,862,863,864,865,860,861,862,863,864,865,860,861,862,863,864,865,860,861,862,863,864,865,
927,928,929,930,931,932,927,928,929,930,931,932,927,928,929,930,931,932,927,928,929,930,931,932,927,928,929,930,931,932,927,928,929,930,931,932,927,928,929,930,931,932,927,928,929,930,931,932,927,928,929,930,931,932,927,928,929,930,931,932,927,928,929,930,931,932,927,928,929,930,931,932,927,928,929,930,931,932,927,928,929,930,931,932,927,928,929,930,931,932,927,928,929,930,931,932,927,928,929,930,931,932,927,928,929,930,931,932,927,928,929,930,931,932,927,928,929,930,931,932,927,928,929,930,931,932,927,928,929,930,931,932,927,928,929,930,931,932,927,928,929,930,931,932,927,928,929,930,931,932,
793,794,795,796,797,798,793,794,795,796,797,798,793,794,795,796,797,798,793,794,795,796,797,798,793,794,795,796,797,798,793,794,795,796,797,798,793,794,795,796,797,798,793,794,795,796,797,798,793,794,795,796,797,798,793,794,795,796,797,798,793,794,795,796,797,798,793,794,795,796,797,798,793,794,795,796,797,798,793,794,795,796,797,798,793,794,795,796,797,798,793,794,795,796,797,798,793,794,795,796,797,798,793,794,795,796,797,798,793,794,795,796,797,798,793,794,795,796,797,798,793,794,795,796,797,798,793,794,795,796,797,798,793,794,795,796,797,798,793,794,795,796,797,798,793,794,795,796,797,798,
860,861,862,863,864,865,860,861,862,863,864,865,860,861,862,863,864,865,860,861,862,863,864,865,860,861,862,863,864,865,860,861,862,863,864,865,860,861,862,863,864,865,860,861,862,863,864,865,860,861,862,863,864,865,860,861,862,863,864,865,860,861,862,863,864,865,860,861,862,863,864,865,860,861,862,863,864,865,860,861,862,863,864,865,860,861,862,863,864,865,860,861,862,863,864,865,860,861,862,863,864,865,860,861,862,863,864,865,860,861,862,863,864,865,860,861,862,863,864,865,860,861,862,863,864,865,860,861,862,863,864,865,860,861,862,863,864,865,860,861,862,863,864,865,860,861,862,863,864,865,
927,928,929,930,931,932,927,928,929,930,931,932,927,928,929,930,931,932,927,928,929,930,931,932,927,928,929,930,931,932,927,928,929,930,931,932,927,928,929,930,931,932,927,928,929,930,931,932,927,928,929,930,931,932,927,928,929,930,931,932,927,928,929,930,931,932,927,928,929,930,931,932,927,928,929,930,931,932,927,928,929,930,931,932,927,928,929,930,931,932,927,928,929,930,931,932,927,928,929,930,931,932,927,928,929,930,931,932,927,928,929,930,931,932,927,928,929,930,931,932,927,928,929,930,931,932,927,928,929,930,931,932,927,928,929,930,931,932,927,928,929,930,931,932,927,928,929,930,931,932,
793,794,795,796,797,798,793,794,795,796,797,798,793,794,795,796,797,798,793,794,795,796,797,798,793,794,795,796,797,798,793,794,795,796,797,798,793,794,795,796,797,798,793,794,795,796,797,798,793,794,795,796,797,798,793,794,795,796,797,798,793,794,795,796,797,798,793,794,795,796,797,798,793,794,795,796,797,798,793,794,795,796,797,798,793,794,795,796,797,798,793,794,795,796,797,798,793,794,795,796,797,798,793,794,795,796,797,798,793,794,795,796,797,798,793,794,795,796,797,798,793,794,795,796,797,798,793,794,795,796,797,798,793,794,795,796,797,798,793,794,795,796,797,798,793,794,795,796,797,798,
860,861,862,863,864,865,860,861,862,863,864,865,860,861,862,863,864,865,860,861,862,863,864,865,860,861,862,863,864,865,860,861,862,863,864,865,860,861,862,863,864,865,860,861,862,863,864,865,860,861,862,863,864,865,860,861,862,863,864,865,860,861,862,863,864,865,860,861,862,863,864,865,860,861,862,863,864,865,860,861,862,863,864,865,860,861,862,863,864,865,860,861,862,863,864,865,860,861,862,863,864,865,860,861,862,863,864,865,860,861,862,863,864,865,860,861,862,863,864,865,860,861,862,863,864,865,860,861,862,863,864,865,860,861,862,863,864,865,860,861,862,863,864,865,860,861,862,863,864,865,
927,928,929,930,931,932,927,928,929,930,931,932,927,928,929,930,931,932,927,928,929,930,931,932,927,928,929,930,931,932,927,928,929,930,931,932,927,928,929,930,931,932,927,928,929,930,931,932,927,928,929,930,931,932,927,928,929,930,931,932,927,928,929,930,931,932,927,928,929,930,931,932,927,928,929,930,931,932,927,928,929,930,931,932,927,928,929,930,931,932,927,928,929,930,931,932,927,928,929,930,931,932,927,928,929,930,931,932,927,928,929,930,931,932,927,928,929,930,931,932,927,928,929,930,931,932,927,928,929,930,931,932,927,928,929,930,931,932,927,928,929,930,931,932,927,928,929,930,931,932,
793,794,795,796,797,798,793,794,795,796,797,798,793,794,795,796,797,798,793,794,795,796,797,798,793,794,795,796,797,798,793,794,795,796,797,798,793,794,795,796,797,798,793,794,795,796,797,798,793,794,795,796,797,798,793,794,795,796,797,798,793,794,795,796,797,798,793,794,795,796,797,798,793,794,795,796,797,798,793,794,795,796,797,798,793,794,795,796,797,798,793,794,795,796,797,798,793,794,795,796,797,798,793,794,795,796,797,798,793,794,795,796,797,798,793,794,795,796,797,798,793,794,795,796,797,798,793,794,795,796,797,798,793,794,795,796,797,798,793,794,795,796,797,798,793,794,795,796,797,798,
860,861,862,863,864,865,860,861,862,863,864,865,860,861,862,863,864,865,860,861,862,863,864,865,860,861,862,863,864,865,860,861,862,863,864,865,860,861,862,863,864,865,860,861,862,863,864,865,860,861,862,863,864,865,860,861,862,863,864,865,860,861,862,863,864,865,860,861,862,863,864,865,860,861,862,863,864,865,860,861,862,863,864,865,860,861,862,863,864,865,860,861,862,863,864,865,860,861,862,863,864,865,860,861,862,863,864,865,860,861,862,863,864,865,860,861,862,863,864,865,860,861,862,863,864,865,860,861,862,863,864,865,860,861,862,863,864,865,860,861,862,863,864,865,860,861,862,863,864,865,
927,928,929,930,931,932,927,928,929,930,931,932,927,928,929,930,931,932,927,928,929,930,931,932,927,928,929,930,931,932,927,928,929,930,931,932,927,928,929,930,931,932,927,928,929,930,931,932,927,928,929,930,931,932,927,928,929,930,931,932,927,928,929,930,931,932,927,928,929,930,931,932,927,928,929,930,931,932,927,928,929,930,931,932,927,928,929,930,931,932,927,928,929,930,931,932,927,928,929,930,931,932,927,928,929,930,931,932,927,928,929,930,931,932,927,928,929,930,931,932,927,928,929,930,931,932,927,928,929,930,931,932,927,928,929,930,931,932,927,928,929,930,931,932,927,928,929,930,931,932,
793,794,795,796,797,798,793,794,795,796,797,798,793,794,795,796,797,798,793,794,795,796,797,798,793,794,795,796,797,798,793,794,795,796,797,798,793,794,795,796,797,798,793,794,795,796,797,798,793,794,795,796,797,798,793,794,795,796,797,798,793,794,795,796,797,798,793,794,795,796,797,798,793,794,795,796,797,798,793,794,795,796,797,798,793,794,795,796,797,798,793,794,795,796,797,798,793,794,795,796,797,798,793,794,795,796,797,798,793,794,795,796,797,798,793,794,795,796,797,798,793,794,795,796,797,798,793,794,795,796,797,798,793,794,795,796,797,798,793,794,795,796,797,798,793,794,795,796,797,798,
860,861,862,863,864,865,860,861,862,863,864,865,860,861,862,863,864,865,860,861,862,863,864,865,860,861,862,863,864,865,860,861,862,863,864,865,860,861,862,863,864,865,860,861,862,863,864,865,860,861,862,863,864,865,860,861,862,863,864,865,860,861,862,863,864,865,860,861,862,863,864,865,860,861,862,863,864,865,860,861,862,863,864,865,860,861,862,863,864,865,860,861,862,863,864,865,860,861,862,863,864,865,860,861,862,863,864,865,860,861,862,863,864,865,860,861,862,863,864,865,860,861,862,863,864,865,860,861,862,863,864,865,860,861,862,863,864,865,860,861,862,863,864,865,860,861,862,863,864,865,
927,928,929,930,931,932,927,928,929,930,931,932,927,928,929,930,931,932,927,928,929,930,931,932,927,928,929,930,931,932,927,928,929,930,931,932,927,928,929,930,931,932,927,928,929,930,931,932,927,928,929,930,931,932,927,928,929,930,931,932,927,928,929,930,931,932,927,928,929,930,931,932,927,928,929,930,931,932,927,928,929,930,931,932,927,928,929,930,931,932,927,928,929,930,931,932,927,928,929,930,931,932,927,928,929,930,931,932,927,928,929,930,931,932,927,928,929,930,931,932,927,928,929,930,931,932,927,928,929,930,931,932,927,928,929,930,931,932,927,928,929,930,931,932,927,928,929,930,931,932,
793,794,795,796,797,798,793,794,795,796,797,798,793,794,795,796,797,798,793,794,795,796,797,798,793,794,795,796,797,798,793,794,795,796,797,798,793,794,795,796,797,798,793,794,795,796,797,798,793,794,795,796,797,798,793,794,795,796,797,798,793,794,795,796,797,798,793,794,795,796,797,798,793,794,795,796,797,798,793,794,795,796,797,798,793,794,795,796,797,798,793,794,795,796,797,798,793,794,795,796,797,798,793,794,795,796,797,798,793,794,795,796,797,798,793,794,795,796,797,798,793,794,795,796,797,798,793,794,795,796,797,798,793,794,795,796,797,798,793,794,795,796,797,798,793,794,795,796,797,798,
860,861,862,863,864,865,860,861,862,863,864,865,860,861,862,863,864,865,860,861,862,863,864,865,860,861,862,863,864,865,860,861,862,863,864,865,860,861,862,863,864,865,860,861,862,863,864,865,860,861,862,863,864,865,860,861,862,863,864,865,860,861,862,863,864,865,860,861,862,863,864,865,860,861,862,863,864,865,860,861,862,863,864,865,860,861,862,863,864,865,860,861,862,863,864,865,860,861,862,863,864,865,860,861,862,863,864,865,860,861,862,863,864,865,860,861,862,863,864,865,860,861,862,863,864,865,860,861,862,863,864,865,860,861,862,863,864,865,860,861,862,863,864,865,860,861,862,863,864,865,
927,928,929,930,931,932,927,928,929,930,931,932,927,928,929,930,931,932,927,928,929,930,931,932,927,928,929,930,931,932,927,928,929,930,931,932,927,928,929,930,931,932,927,928,929,930,931,932,927,928,929,930,931,932,927,928,929,930,931,932,927,928,929,930,931,932,927,928,929,930,931,932,927,928,929,930,931,932,927,928,929,930,931,932,927,928,929,930,931,932,927,928,929,930,931,932,927,928,929,930,931,932,927,928,929,930,931,932,927,928,929,930,931,932,927,928,929,930,931,932,927,928,929,930,931,932,927,928,929,930,931,932,927,928,929,930,931,932,927,928,929,930,931,932,927,928,929,930,931,932,
793,794,795,796,797,798,793,794,795,796,797,798,793,794,795,796,797,798,793,794,795,796,797,798,793,794,795,796,797,798,793,794,795,796,797,798,793,794,795,796,797,798,793,794,795,796,797,798,793,794,795,796,797,798,793,794,795,796,797,798,793,794,795,796,797,798,793,794,795,796,797,798,793,794,795,796,797,798,793,794,795,796,797,798,793,794,795,796,797,798,793,794,795,796,797,798,793,794,795,796,797,798,793,794,795,796,797,798,793,794,795,796,797,798,793,794,795,796,797,798,793,794,795,796,797,798,793,794,795,796,797,798,793,794,795,796,797,798,793,794,795,796,797,798,793,794,795,796,797,798,
860,861,862,863,864,865,860,861,862,863,864,865,860,861,862,863,864,865,860,861,862,863,864,865,860,861,862,863,864,865,860,861,862,863,864,865,860,861,862,863,864,865,860,861,862,863,864,865,860,861,862,863,864,865,860,861,862,863,864,865,860,861,862,863,864,865,860,861,862,863,864,865,860,861,862,863,864,865,860,861,862,863,864,865,860,861,862,863,864,865,860,861,862,863,864,865,860,861,862,863,864,865,860,861,862,863,864,865,860,861,862,863,864,865,860,861,862,863,864,865,860,861,862,863,864,865,860,861,862,863,864,865,860,861,862,863,864,865,860,861,862,863,864,865,860,861,862,863,864,865,
927,928,929,930,931,932,927,928,929,930,931,932,927,928,929,930,931,932,927,928,929,930,931,932,927,928,929,930,931,932,927,928,929,930,931,932,927,928,929,930,931,932,927,928,929,930,931,932,927,928,929,930,931,932,927,928,929,930,931,932,927,928,929,930,931,932,927,928,929,930,931,932,927,928,929,930,931,932,927,928,929,930,931,932,927,928,929,930,931,932,927,928,929,930,931,932,927,928,929,930,931,932,927,928,929,930,931,932,927,928,929,930,931,932,927,928,929,930,931,932,927,928,929,930,931,932,927,928,929,930,931,932,927,928,929,930,931,932,927,928,929,930,931,932,927,928,929,930,931,932,
793,794,795,796,797,798,793,794,795,796,797,798,793,794,795,796,797,798,793,794,795,796,797,798,793,794,795,796,797,798,793,794,795,796,797,798,793,794,795,796,797,798,793,794,795,796,797,798,793,794,795,796,797,798,793,794,795,796,797,798,793,794,795,796,797,798,793,794,795,796,797,798,793,794,795,796,797,798,793,794,795,796,797,798,793,794,795,796,797,798,793,794,795,796,797,798,793,794,795,796,797,798,793,794,795,796,797,798,793,794,795,796,797,798,793,794,795,796,797,798,793,794,795,796,797,798,793,794,795,796,797,798,793,794,795,796,797,798,793,794,795,796,797,798,793,794,795,796,797,798,
860,861,862,863,864,865,860,861,862,863,864,865,860,861,862,863,864,865,860,861,862,863,864,865,860,861,862,863,864,865,860,861,862,863,864,865,860,861,862,863,864,865,860,861,862,863,864,865,860,861,862,863,864,865,860,861,862,863,864,865,860,861,862,863,864,865,860,861,862,863,864,865,860,861,862,863,864,865,860,861,862,863,864,865,860,861,862,863,864,865,860,861,862,863,864,865,860,861,862,863,864,865,860,861,862,863,864,865,860,861,862,863,864,865,860,861,862,863,864,865,860,861,862,863,864,865,860,861,862,863,864,865,860,861,862,863,864,865,860,861,862,863,864,865,860,861,862,863,864,865,
927,928,929,930,931,932,927,928,929,930,931,932,927,928,929,930,931,932,927,928,929,930,931,932,927,928,929,930,931,932,927,928,929,930,931,932,927,928,929,930,931,932,927,928,929,930,931,932,927,928,929,930,931,932,927,928,929,930,931,932,927,928,929,930,931,932,927,928,929,930,931,932,927,928,929,930,931,932,927,928,929,930,931,932,927,928,929,930,931,932,927,928,929,930,931,932,927,928,929,930,931,932,927,928,929,930,931,932,927,928,929,930,931,932,927,928,929,930,931,932,927,928,929,930,931,932,927,928,929,930,931,932,927,928,929,930,931,932,927,928,929,930,931,932,927,928,929,930,931,932,
793,794,795,796,797,798,793,794,795,796,797,798,793,794,795,796,797,798,793,794,795,796,797,798,793,794,795,796,797,798,793,794,795,796,797,798,793,794,795,796,797,798,793,794,795,796,797,798,793,794,795,796,797,798,793,794,795,796,797,798,793,794,795,796,797,798,793,794,795,796,797,798,793,794,795,796,797,798,793,794,795,796,797,798,793,794,795,796,797,798,793,794,795,796,797,798,793,794,795,796,797,798,793,794,795,796,797,798,793,794,795,796,797,798,793,794,795,796,797,798,793,794,795,796,797,798,793,794,795,796,797,798,793,794,795,796,797,798,793,794,795,796,797,798,793,794,795,796,797,798,
860,861,862,863,864,865,860,861,862,863,864,865,860,861,862,863,864,865,860,861,862,863,864,865,860,861,862,863,864,865,860,861,862,863,864,865,860,861,862,863,864,865,860,861,862,863,864,865,860,861,862,863,864,865,860,861,862,863,864,865,860,861,862,863,864,865,860,861,862,863,864,865,860,861,862,863,864,865,860,861,862,863,864,865,860,861,862,863,864,865,860,861,862,863,864,865,860,861,862,863,864,865,860,861,862,863,864,865,860,861,862,863,864,865,860,861,862,863,864,865,860,861,862,863,864,865,860,861,862,863,864,865,860,861,862,863,864,865,860,861,862,863,864,865,860,861,862,863,864,865,
927,928,929,930,931,932,927,928,929,930,931,932,927,928,929,930,931,932,927,928,929,930,931,932,927,928,929,930,931,932,927,928,929,930,931,932,927,928,929,930,931,932,927,928,929,930,931,932,927,928,929,930,931,932,927,928,929,930,931,932,927,928,929,930,931,932,927,928,929,930,931,932,927,928,929,930,931,932,927,928,929,930,931,932,927,928,929,930,931,932,927,928,929,930,931,932,927,928,929,930,931,932,927,928,929,930,931,932,927,928,929,930,931,932,927,928,929,930,931,932,927,928,929,930,931,932,927,928,929,930,931,932,927,928,929,930,931,932,927,928,929,930,931,932,927,928,929,930,931,932,
793,794,795,796,797,798,793,794,795,796,797,798,793,794,795,796,797,798,793,794,795,796,797,798,793,794,795,796,797,798,793,794,795,796,797,798,793,794,795,796,797,798,793,794,795,796,797,798,793,794,795,796,797,798,793,794,795,796,797,798,793,794,795,796,797,798,793,794,795,796,797,798,793,794,795,796,797,798,793,794,795,796,797,798,793,794,795,796,797,798,793,794,795,796,797,798,793,794,795,796,797,798,793,794,795,796,797,798,793,794,795,796,797,798,793,794,795,796,797,798,793,794,795,796,797,798,793,794,795,796,797,798,793,794,795,796,797,798,793,794,795,796,797,798,793,794,795,796,797,798,
860,861,862,863,864,865,860,861,862,863,864,865,860,861,862,863,864,865,860,861,862,863,864,865,860,861,862,863,864,865,860,861,862,863,864,865,860,861,862,863,864,865,860,861,862,863,864,865,860,861,862,863,864,865,860,861,862,863,864,865,860,861,862,863,864,865,860,861,862,863,864,865,860,861,862,863,864,865,860,861,862,863,864,865,860,861,862,863,864,865,860,861,862,863,864,865,860,861,862,863,864,865,860,861,862,863,864,865,860,861,862,863,864,865,860,861,862,863,864,865,860,861,862,863,864,865,860,861,862,863,864,865,860,861,862,863,864,865,860,861,862,863,864,865,860,861,862,863,864,865,
927,928,929,930,931,932,927,928,929,930,931,932,927,928,929,930,931,932,927,928,929,930,931,932,927,928,929,930,931,932,927,928,929,930,931,932,927,928,929,930,931,932,927,928,929,930,931,932,927,928,929,930,931,932,927,928,929,930,931,932,927,928,929,930,931,932,927,928,929,930,931,932,927,928,929,930,931,932,927,928,929,930,931,932,927,928,929,930,931,932,927,928,929,930,931,932,927,928,929,930,931,932,927,928,929,930,931,932,927,928,929,930,931,932,927,928,929,930,931,932,927,928,929,930,931,932,927,928,929,930,931,932,927,928,929,930,931,932,927,928,929,930,931,932,927,928,929,930,931,932,
793,794,795,796,797,798,793,794,795,796,797,798,793,794,795,796,797,798,793,794,795,796,797,798,793,794,795,796,797,798,793,794,795,796,797,798,793,794,795,796,797,798,793,794,795,796,797,798,793,794,795,796,797,798,793,794,795,796,797,798,793,794,795,796,797,798,793,794,795,796,797,798,793,794,795,796,797,798,793,794,795,796,797,798,793,794,795,796,797,798,793,794,795,796,797,798,793,794,795,796,797,798,793,794,795,796,797,798,793,794,795,796,797,798,793,794,795,796,797,798,793,794,795,796,797,798,793,794,795,796,797,798,793,794,795,796,797,798,793,794,795,796,797,798,793,794,795,796,797,798,
860,861,862,863,864,865,860,861,862,863,864,865,860,861,862,863,864,865,860,861,862,863,864,865,860,861,862,863,864,865,860,861,862,863,864,865,860,861,862,863,864,865,860,861,862,863,864,865,860,861,862,863,864,865,860,861,862,863,864,865,860,861,862,863,864,865,860,861,862,863,864,865,860,861,862,863,864,865,860,861,862,863,864,865,860,861,862,863,864,865,860,861,862,863,864,865,860,861,862,863,864,865,860,861,862,863,864,865,860,861,862,863,864,865,860,861,862,863,864,865,860,861,862,863,864,865,860,861,862,863,864,865,860,861,862,863,864,865,860,861,862,863,864,865,860,861,862,863,864,865,
927,928,929,930,931,932,927,928,929,930,931,932,927,928,929,930,931,932,927,928,929,930,931,932,927,928,929,930,931,932,927,928,929,930,931,932,927,928,929,930,931,932,927,928,929,930,931,932,927,928,929,930,931,932,927,928,929,930,931,932,927,928,929,930,931,932,927,928,929,930,931,932,927,928,929,930,931,932,927,928,929,930,931,932,927,928,929,930,931,932,927,928,929,930,931,932,927,928,929,930,931,932,927,928,929,930,931,932,927,928,929,930,931,932,927,928,929,930,931,932,927,928,929,930,931,932,927,928,929,930,931,932,927,928,929,930,931,932,927,928,929,930,931,932,927,928,929,930,931,932,
793,794,795,796,797,798,793,794,795,796,797,798,793,794,795,796,797,798,793,794,795,796,797,798,793,794,795,796,797,798,793,794,795,796,797,798,793,794,795,796,797,798,793,794,795,796,797,798,793,794,795,796,797,798,793,794,795,796,797,798,793,794,795,796,797,798,793,794,795,796,797,798,793,794,795,796,797,798,793,794,795,796,797,798,793,794,795,796,797,798,793,794,795,796,797,798,793,794,795,796,797,798,793,794,795,796,797,798,793,794,795,796,797,798,793,794,795,796,797,798,793,794,795,796,797,798,793,794,795,796,797,798,793,794,795,796,797,798,793,794,795,796,797,798,793,794,795,796,797,798,
860,861,862,863,864,865,860,861,862,863,864,865,860,861,862,863,864,865,860,861,862,863,864,865,860,861,862,863,864,865,860,861,862,863,864,865,860,861,862,863,864,865,860,861,862,863,864,865,860,861,862,863,864,865,860,861,862,863,864,865,860,861,862,863,864,865,860,861,862,863,864,865,860,861,862,863,864,865,860,861,862,863,864,865,860,861,862,863,864,865,860,861,862,863,864,865,860,861,862,863,864,865,860,861,862,863,864,865,860,861,862,863,864,865,860,861,862,863,864,865,860,861,862,863,864,865,860,861,862,863,864,865,860,861,862,863,864,865,860,861,862,863,864,865,860,861,862,863,864,865,
927,928,929,930,931,932,927,928,929,930,931,932,927,928,929,930,931,932,927,928,929,930,931,932,927,928,929,930,931,932,927,928,929,930,931,932,927,928,929,930,931,932,927,928,929,930,931,932,927,928,929,930,931,932,927,928,929,930,931,932,927,928,929,930,931,932,927,928,929,930,931,932,927,928,929,930,931,932,927,928,929,930,931,932,927,928,929,930,931,932,927,928,929,930,931,932,927,928,929,930,931,932,927,928,929,930,931,932,927,928,929,930,931,932,927,928,929,930,931,932,927,928,929,930,931,932,927,928,929,930,931,932,927,928,929,930,931,932,927,928,929,930,931,932,927,928,929,930,931,932,
793,794,795,796,797,798,793,794,795,796,797,798,793,794,795,796,797,798,793,794,795,796,797,798,793,794,795,796,797,798,793,794,795,796,797,798,793,794,795,796,797,798,793,794,795,796,797,798,793,794,795,796,797,798,793,794,795,796,797,798,793,794,795,796,797,798,793,794,795,796,797,798,793,794,795,796,797,798,793,794,795,796,797,798,793,794,795,796,797,798,793,794,795,796,797,798,793,794,795,796,797,798,793,794,795,796,797,798,793,794,795,796,797,798,793,794,795,796,797,798,793,794,795,796,797,798,793,794,795,796,797,798,793,794,795,796,797,798,793,794,795,796,797,798,793,794,795,796,797,798,
860,861,862,863,864,865,860,861,862,863,864,865,860,861,862,863,864,865,860,861,862,863,864,865,860,861,862,863,864,865,860,861,862,863,864,865,860,861,862,863,864,865,860,861,862,863,864,865,860,861,862,863,864,865,860,861,862,863,864,865,860,861,862,863,864,865,860,861,862,863,864,865,860,861,862,863,864,865,860,861,862,863,864,865,860,861,862,863,864,865,860,861,862,863,864,865,860,861,862,863,864,865,860,861,862,863,864,865,860,861,862,863,864,865,860,861,862,863,864,865,860,861,862,863,864,865,860,861,862,863,864,865,860,861,862,863,864,865,860,861,862,863,864,865,860,861,862,863,864,865
</data>
 </layer>
 <layer id="16" name="wall" width="150" height="200">
  <data encoding="csv">
0,0,0,0,0,0,0,0,0,0,0,0,0,0,0,0,0,0,0,0,0,0,0,0,0,0,0,0,0,0,0,0,0,0,0,0,0,0,0,0,0,0,0,0,0,0,0,0,0,0,0,0,0,1662,1663,1664,1465,1466,1467,1465,1466,1467,1465,3221227404,3221227403,3221227402,0,0,0,0,0,0,0,0,0,0,0,0,0,0,0,0,0,0,0,0,0,0,0,0,0,0,0,0,0,0,0,0,0,0,0,0,0,0,0,0,0,0,0,0,0,0,0,0,0,0,0,0,0,0,0,0,0,0,0,0,0,0,0,0,0,0,0,0,0,0,0,0,0,0,0,0,0,0,0,0,0,0,0,0,
0,0,0,0,0,0,0,0,0,0,0,0,0,0,0,0,0,0,0,0,0,0,0,0,0,0,0,0,0,0,0,0,0,0,0,0,0,0,0,0,0,0,0,0,0,0,0,0,0,0,0,0,0,1729,1730,1731,1465,1466,1467,1465,1466,1467,1465,3221227337,3221227336,3221227335,0,0,0,0,0,0,0,0,0,0,0,0,0,0,0,0,0,0,0,0,0,0,0,0,0,0,0,0,0,0,0,0,0,0,0,0,0,0,0,0,0,0,0,0,0,0,0,0,0,0,0,0,0,0,0,0,0,0,0,0,0,0,0,0,0,0,0,0,0,0,0,0,0,0,0,0,0,0,0,0,0,0,0,0,
0,0,0,0,0,0,0,0,0,0,0,0,0,0,0,0,0,0,0,0,0,0,0,0,0,0,0,0,0,0,0,0,0,0,0,0,0,0,0,0,0,0,0,0,0,0,0,0,0,0,0,0,0,1796,1797,1798,1465,1466,1467,1465,1466,1467,1465,3221227270,3221227269,3221227268,0,0,0,0,0,0,0,0,0,0,0,0,0,0,0,0,0,0,0,0,0,0,0,0,0,0,0,0,0,0,0,0,0,0,0,0,0,0,0,0,0,0,0,0,0,0,0,0,0,0,0,0,0,0,0,0,0,0,0,0,0,0,0,0,0,0,0,0,0,0,0,0,0,0,0,0,0,0,0,0,0,0,0,0,
0,0,0,0,0,0,0,0,0,0,0,0,0,0,0,0,0,0,0,0,0,0,0,0,0,0,0,0,0,0,0,0,0,0,0,0,0,0,0,0,0,0,0,0,0,0,0,0,0,0,0,0,0,1863,1864,1865,1465,1466,1467,1465,1466,1467,1465,3221227203,3221227202,3221227201,0,0,0,0,0,0,0,0,0,0,0,0,0,0,0,0,0,0,0,0,0,0,0,0,0,0,0,0,0,0,0,0,0,0,0,0,0,0,0,0,0,0,0,0,0,0,0,0,0,0,0,0,0,0,0,0,0,0,0,0,0,0,0,0,0,0,0,0,0,0,0,0,0,0,0,0,0,0,0,0,0,0,0,0,
0,0,0,0,0,0,0,0,0,0,0,0,0,0,0,0,0,0,0,0,0,0,0,0,0,0,0,0,0,0,0,0,0,0,0,0,0,0,0,0,0,0,0,0,0,0,0,0,0,0,0,0,0,1930,1931,1932,1465,1466,1467,1465,1466,1467,1465,3221227136,3221227135,3221227134,0,0,0,0,0,0,0,0,0,0,0,0,0,0,0,0,0,0,0,0,0,0,0,0,0,0,0,0,0,0,0,0,0,0,0,0,0,0,0,0,0,0,0,0,0,0,0,0,0,0,0,0,0,0,0,0,0,0,0,0,0,0,0,0,0,0,0,0,0,0,0,0,0,0,0,0,0,0,0,0,0,0,0,0,
0,0,0,0,0,0,0,0,0,0,0,0,0,0,0,0,0,0,0,0,0,0,0,0,0,0,0,0,0,0,0,0,0,0,0,0,0,0,0,0,0,0,0,0,0,0,0,0,0,0,0,0,0,1997,1998,1999,1465,1466,1467,1465,1466,1467,1465,3221227069,3221227068,3221227067,0,0,0,0,0,0,0,0,0,0,0,0,0,0,0,0,0,0,0,0,0,0,0,0,0,0,0,0,0,0,0,0,0,0,0,0,0,0,0,0,0,0,0,0,0,0,0,0,0,0,0,0,0,0,0,0,0,0,0,0,0,0,0,0,0,0,0,0,0,0,0,0,0,0,0,0,0,0,0,0,0,0,0,0,
0,0,0,0,0,0,0,0,0,0,0,0,0,0,0,0,0,0,0,0,0,0,0,0,0,0,0,0,0,0,0,0,0,0,0,0,0,0,0,0,0,0,0,0,0,0,0,0,0,0,0,0,0,2064,2065,2066,1465,1466,1467,1465,1466,1467,1465,3221227002,3221227001,3221227000,0,0,0,0,0,0,0,0,0,0,0,0,0,0,0,0,0,0,0,0,0,0,0,0,0,0,0,0,0,0,0,0,0,0,0,0,0,0,0,0,0,0,0,0,0,0,0,0,0,0,0,0,0,0,0,0,0,0,0,0,0,0,0,0,0,0,0,0,0,0,0,0,0,0,0,0,0,0,0,0,0,0,0,0,
0,0,0,0,0,0,0,0,0,0,0,0,0,0,0,0,0,0,0,0,0,0,0,0,0,0,0,0,0,0,0,0,0,0,0,0,0,0,0,0,0,0,0,0,0,0,0,0,0,0,0,0,0,2131,2132,2133,1465,1466,1467,1465,1466,1467,1465,3221226935,3221226934,3221226933,0,0,0,0,0,0,0,0,0,0,0,0,0,0,0,0,0,0,0,0,0,0,0,0,0,0,0,0,0,0,0,0,0,0,0,0,0,0,0,0,0,0,0,0,0,0,0,0,0,0,0,0,0,0,0,0,0,0,0,0,0,0,0,0,0,0,0,0,0,0,0,0,0,0,0,0,0,0,0,0,0,0,0,0,
0,0,0,0,0,0,0,0,0,0,0,0,0,0,0,0,0,0,0,0,0,0,0,0,0,0,0,0,0,0,0,0,0,0,0,0,0,0,0,0,0,0,0,0,0,0,0,0,0,0,0,0,0,1461,1462,1463,1465,1466,1467,1465,1466,1467,1465,3221227605,3221227604,3221227603,0,0,0,0,0,0,0,0,0,0,0,0,0,0,0,0,0,0,0,0,0,0,0,0,0,0,0,0,0,0,0,0,0,0,0,0,0,0,0,0,0,0,0,0,0,0,0,0,0,0,0,0,0,0,0,0,0,0,0,0,0,0,0,0,0,0,0,0,0,0,0,0,0,0,0,0,0,0,0,0,0,0,0,0,
0,0,0,0,0,0,0,0,0,0,0,0,0,0,0,0,0,0,0,0,0,0,0,0,0,0,0,0,0,0,0,0,0,0,0,0,0,0,0,0,0,0,0,0,0,0,0,0,0,0,0,0,0,1528,1529,1530,1465,1466,1467,1465,1466,1467,1465,3221227538,3221227537,3221227536,0,0,0,0,0,0,0,0,0,0,0,0,0,0,0,0,0,0,0,0,0,0,0,0,0,0,0,0,0,0,0,0,0,0,0,0,0,0,0,0,0,0,0,0,0,0,0,0,0,0,0,0,0,0,0,0,0,0,0,0,0,0,0,0,0,0,0,0,0,0,0,0,0,0,0,0,0,0,0,0,0,0,0,0,
0,0,0,0,0,0,0,0,0,0,0,0,0,0,0,0,0,0,0,0,0,0,0,0,0,0,0,0,0,0,0,0,0,0,0,0,0,0,0,0,0,0,0,0,0,0,0,0,0,0,0,0,0,1595,1596,1597,1465,1466,1467,1465,1466,1467,1465,3221227471,3221227470,3221227469,0,0,0,0,0,0,0,0,0,0,0,0,0,0,0,0,0,0,0,0,0,0,0,0,0,0,0,0,0,0,0,0,0,0,0,0,0,0,0,0,0,0,0,0,0,0,0,0,0,0,0,0,0,0,0,0,0,0,0,0,0,0,0,0,0,0,0,0,0,0,0,0,0,0,0,0,0,0,0,0,0,0,0,0,
0,0,0,0,0,0,0,0,0,0,0,0,0,0,0,0,0,0,0,0,0,0,0,0,0,0,0,0,0,0,0,0,0,0,0,0,0,0,0,0,0,0,0,0,0,0,0,0,0,0,0,0,0,1662,1663,1664,1465,1466,1467,1465,1466,1467,1465,3221227404,3221227403,3221227402,0,0,0,0,0,0,0,0,0,0,0,0,0,0,0,0,0,0,0,0,0,0,0,0,0,0,0,0,0,0,0,0,0,0,0,0,0,0,0,0,0,0,0,0,0,0,0,0,0,0,0,0,0,0,0,0,0,0,0,0,0,0,0,0,0,0,0,0,0,0,0,0,0,0,0,0,0,0,0,0,0,0,0,0,
0,0,0,0,0,0,0,0,0,0,0,0,0,0,0,0,0,0,0,0,0,0,0,0,0,0,0,0,0,0,0,0,0,0,0,0,0,0,0,0,0,0,0,0,0,0,0,0,0,0,0,0,0,1729,1730,1731,1465,1466,1467,1465,1466,1467,1465,3221227337,3221227336,3221227335,0,0,0,0,0,0,0,0,0,0,0,0,0,0,0,0,0,0,0,0,0,0,0,0,0,0,0,0,0,0,0,0,0,0,0,0,0,0,0,0,0,0,0,0,0,0,0,0,0,0,0,0,0,0,0,0,0,0,0,0,0,0,0,0,0,0,0,0,0,0,0,0,0,0,0,0,0,0,0,0,0,0,0,0,
0,0,0,0,0,0,0,0,0,0,0,0,0,0,0,0,0,0,0,0,0,0,0,0,0,0,0,0,0,0,0,0,0,0,0,0,0,0,0,0,0,0,0,0,0,0,0,0,0,0,0,0,0,1796,1797,1798,1465,1466,1467,1465,1466,1467,1465,3221227270,3221227269,3221227268,0,0,0,0,0,0,0,0,0,0,0,0,0,0,0,0,0,0,0,0,0,0,0,0,0,0,0,0,0,0,0,0,0,0,0,0,0,0,0,0,0,0,0,0,0,0,0,0,0,0,0,0,0,0,0,0,0,0,0,0,0,0,0,0,0,0,0,0,0,0,0,0,0,0,0,0,0,0,0,0,0,0,0,0,
0,0,0,0,0,0,0,0,0,0,0,0,0,0,0,0,0,0,0,0,0,0,0,0,0,0,0,0,0,0,0,0,0,0,0,0,0,0,0,0,0,0,0,0,0,0,0,0,0,0,0,0,0,1863,1864,1865,1465,1466,1467,1465,1466,1467,1465,3221227203,3221227202,3221227201,0,0,0,0,0,0,0,0,0,0,0,0,0,0,0,0,0,0,0,0,0,0,0,0,0,0,0,0,0,0,0,0,0,0,0,0,0,0,0,0,0,0,0,0,0,0,0,0,0,0,0,0,0,0,0,0,0,0,0,0,0,0,0,0,0,0,0,0,0,0,0,0,0,0,0,0,0,0,0,0,0,0,0,0,
0,0,0,0,0,0,0,0,0,0,0,0,0,0,0,0,0,0,0,0,0,0,0,0,0,0,0,0,0,0,0,0,0,0,0,0,0,0,0,0,0,0,0,0,0,0,0,0,0,0,0,0,0,1930,1931,1932,1465,1466,1467,1465,1466,1467,1465,3221227136,3221227135,3221227134,0,0,0,0,0,0,0,0,0,0,0,0,0,0,0,0,0,0,0,0,0,0,0,0,0,0,0,0,0,0,0,0,0,0,0,0,0,0,0,0,0,0,0,0,0,0,0,0,0,0,0,0,0,0,0,0,0,0,0,0,0,0,0,0,0,0,0,0,0,0,0,0,0,0,0,0,0,0,0,0,0,0,0,0,
0,0,0,0,0,0,0,0,0,0,0,0,0,0,0,0,0,0,0,0,0,0,0,0,0,0,0,0,0,0,0,0,0,0,0,0,0,0,0,0,0,0,0,0,0,0,0,0,0,0,0,0,0,1997,1998,1999,1465,1466,1467,1465,1466,1467,1465,3221227069,3221227068,3221227067,0,0,0,0,0,0,0,0,0,0,0,0,0,0,0,0,0,0,0,0,0,0,0,0,0,0,0,0,0,0,0,0,0,0,0,0,0,0,0,0,0,0,0,0,0,0,0,0,0,0,0,0,0,0,0,0,0,0,0,0,0,0,0,0,0,0,0,0,0,0,0,0,0,0,0,0,0,0,0,0,0,0,0,0,
0,0,0,0,0,0,0,0,0,0,0,0,0,0,0,0,0,0,0,0,0,0,0,0,0,0,0,0,0,0,0,0,0,0,0,0,0,0,0,0,0,0,0,0,0,0,0,0,0,0,0,0,0,2064,2065,2066,1465,1466,1467,1465,1466,1467,1465,3221227002,3221227001,3221227000,0,0,0,0,0,0,0,0,0,0,0,0,0,0,0,0,0,0,0,0,0,0,0,0,0,0,0,0,0,0,0,0,0,0,0,0,0,0,0,0,0,0,0,0,0,0,0,0,0,0,0,0,0,0,0,0,0,0,0,0,0,0,0,0,0,0,0,0,0,0,0,0,0,0,0,0,0,0,0,0,0,0,0,0,
0,0,0,0,0,0,0,0,0,0,0,0,0,0,0,0,0,0,0,0,0,0,0,0,0,0,0,0,0,0,0,0,0,0,0,0,0,0,0,0,0,0,0,0,0,0,0,0,0,0,0,0,0,2131,2132,2133,1465,1466,1467,1465,1466,1467,1465,3221226935,3221226934,3221226933,0,0,0,0,0,0,0,0,0,0,0,0,0,0,0,0,0,0,0,0,0,0,0,0,0,0,0,0,0,0,0,0,0,0,0,0,0,0,0,0,0,0,0,0,0,0,0,0,0,0,0,0,0,0,0,0,0,0,0,0,0,0,0,0,0,0,0,0,0,0,0,0,0,0,0,0,0,0,0,0,0,0,0,0,
0,0,0,0,0,0,0,0,0,0,0,0,0,0,0,0,0,0,0,0,0,0,0,0,0,0,0,0,0,0,0,0,0,0,0,0,0,0,0,0,0,0,0,0,0,0,0,0,0,0,0,0,0,1461,1462,1463,1465,1466,1467,1465,1466,1467,1465,3221227605,3221227604,3221227603,0,0,0,0,0,0,0,0,0,0,0,0,0,0,0,0,0,0,0,0,0,0,0,0,0,0,0,0,0,0,0,0,0,0,0,0,0,0,0,0,0,0,0,0,0,0,0,0,0,0,0,0,0,0,0,0,0,0,0,0,0,0,0,0,0,0,0,0,0,0,0,0,0,0,0,0,0,0,0,0,0,0,0,0,
0,0,0,0,0,0,0,0,0,0,0,0,0,0,0,0,0,0,0,0,0,0,0,0,0,0,0,0,0,0,0,0,0,0,0,0,0,0,0,0,0,0,0,0,0,0,0,0,0,0,0,0,0,1528,1529,1530,1465,1466,1467,1465,1466,1467,1465,3221227538,3221227537,3221227536,0,0,0,0,0,0,0,0,0,0,0,0,0,0,0,0,0,0,0,0,0,0,0,0,0,0,0,0,0,0,0,0,0,0,0,0,0,0,0,0,0,0,0,0,0,0,0,0,0,0,0,0,0,0,0,0,0,0,0,0,0,0,0,0,0,0,0,0,0,0,0,0,0,0,0,0,0,0,0,0,0,0,0,0,
0,0,0,0,0,0,0,0,0,0,0,0,0,0,0,0,0,0,0,0,0,0,0,0,0,0,0,0,0,0,0,0,0,0,0,0,0,0,0,0,0,0,0,0,0,0,0,0,0,0,0,0,0,1595,1596,1597,1465,1466,1467,1465,1466,1467,1465,3221227471,3221227470,3221227469,0,0,0,0,0,0,0,0,0,0,0,0,0,0,0,0,0,0,0,0,0,0,0,0,0,0,0,0,0,0,0,0,0,0,0,0,0,0,0,0,0,0,0,0,0,0,0,0,0,0,0,0,0,0,0,0,0,0,0,0,0,0,0,0,0,0,0,0,0,0,0,0,0,0,0,0,0,0,0,0,0,0,0,0,
0,0,0,0,0,0,0,0,0,0,0,0,0,0,0,0,0,0,0,0,0,0,0,0,0,0,0,0,0,0,0,0,0,0,0,0,0,0,0,0,0,0,0,0,0,0,0,0,0,0,0,0,0,1662,1663,1664,1465,1466,1467,1465,1466,1467,1465,3221227404,3221227403,3221227402,0,0,0,0,0,0,0,0,0,0,0,0,0,0,0,0,0,0,0,0,0,0,0,0,0,0,0,0,0,0,0,0,0,0,0,0,0,0,0,0,0,0,0,0,0,0,0,0,0,0,0,0,0,0,0,0,0,0,0,0,0,0,0,0,0,0,0,0,0,0,0,0,0,0,0,0,0,0,0,0,0,0,0,0,
0,0,0,0,0,0,0,0,0,0,0,0,0,0,0,0,0,0,0,0,0,0,0,0,0,0,0,0,0,0,0,0,0,0,0,0,0,0,0,0,0,0,0,0,0,0,0,0,0,0,0,0,0,1729,1730,1731,1465,1466,1467,1465,1466,1467,1465,3221227337,3221227336,3221227335,0,0,0,0,0,0,0,0,0,0,0,0,0,0,0,0,0,0,0,0,0,0,0,0,0,0,0,0,0,0,0,0,0,0,0,0,0,0,0,0,0,0,0,0,0,0,0,0,0,0,0,0,0,0,0,0,0,0,0,0,0,0,0,0,0,0,0,0,0,0,0,0,0,0,0,0,0,0,0,0,0,0,0,0,
0,0,0,0,0,0,0,0,0,0,0,0,0,0,0,0,0,0,0,0,0,0,0,0,0,0,0,0,0,0,0,0,0,0,0,0,0,0,0,0,0,0,0,0,0,0,0,0,0,0,0,0,0,1796,1797,1798,1465,1466,1467,1465,1466,1467,1465,3221227270,3221227269,3221227268,0,0,0,0,0,0,0,0,0,0,0,0,0,0,0,0,0,0,0,0,0,0,0,0,0,0,0,0,0,0,0,0,0,0,0,0,0,0,0,0,0,0,0,0,0,0,0,0,0,0,0,0,0,0,0,0,0,0,0,0,0,0,0,0,0,0,0,0,0,0,0,0,0,0,0,0,0,0,0,0,0,0,0,0,
0,0,0,0,0,0,0,0,0,0,0,0,0,0,0,0,0,0,0,0,0,0,0,0,0,0,0,0,0,0,0,0,0,0,0,0,0,0,0,0,0,0,0,0,0,0,0,0,0,0,0,0,0,1863,1864,1865,1465,1466,1467,1465,1466,1467,1465,3221227203,3221227202,3221227201,0,0,0,0,0,0,0,0,0,0,0,0,0,0,0,0,0,0,0,0,0,0,0,0,0,0,0,0,0,0,0,0,0,0,0,0,0,0,0,0,0,0,0,0,0,0,0,0,0,0,0,0,0,0,0,0,0,0,0,0,0,0,0,0,0,0,0,0,0,0,0,0,0,0,0,0,0,0,0,0,0,0,0,0,
0,0,0,0,0,0,0,0,0,0,0,0,0,0,0,0,0,0,0,0,0,0,0,0,0,0,0,0,0,0,0,0,0,0,0,0,0,0,0,0,0,0,0,0,0,0,0,0,0,0,0,0,0,1930,1931,1932,1465,1466,1467,1465,1466,1467,1465,3221227136,3221227135,3221227134,0,0,0,0,0,0,0,0,0,0,0,0,0,0,0,0,0,0,0,0,0,0,0,0,0,0,0,0,0,0,0,0,0,0,0,0,0,0,0,0,0,0,0,0,0,0,0,0,0,0,0,0,0,0,0,0,0,0,0,0,0,0,0,0,0,0,0,0,0,0,0,0,0,0,0,0,0,0,0,0,0,0,0,0,
0,0,0,0,0,0,0,0,0,0,0,0,0,0,0,0,0,0,0,0,0,0,0,0,0,0,0,0,0,0,0,0,0,0,0,0,0,0,0,0,0,0,0,0,0,0,0,0,0,0,0,0,0,1997,1998,1999,1465,1466,1467,1465,1466,1467,1465,3221227069,3221227068,3221227067,0,0,0,0,0,0,0,0,0,0,0,0,0,0,0,0,0,0,0,0,0,0,0,0,0,0,0,0,0,0,0,0,0,0,0,0,0,0,0,0,0,0,0,0,0,0,0,0,0,0,0,0,0,0,0,0,0,0,0,0,0,0,0,0,0,0,0,0,0,0,0,0,0,0,0,0,0,0,0,0,0,0,0,0,
0,0,0,0,0,0,0,0,0,0,0,0,0,0,0,0,0,0,0,0,0,0,0,0,0,0,0,0,0,0,0,0,0,0,0,0,0,0,0,0,0,0,0,0,0,0,0,0,0,0,0,0,0,2064,2065,2066,1465,1466,1467,1465,1466,1467,1465,3221227002,3221227001,3221227000,0,0,0,0,0,0,0,0,0,0,0,0,0,0,0,0,0,0,0,0,0,0,0,0,0,0,0,0,0,0,0,0,0,0,0,0,0,0,0,0,0,0,0,0,0,0,0,0,0,0,0,0,0,0,0,0,0,0,0,0,0,0,0,0,0,0,0,0,0,0,0,0,0,0,0,0,0,0,0,0,0,0,0,0,
0,0,0,0,1194,1195,1196,1197,1196,1197,1198,1199,1200,1196,1197,1198,1199,1200,1196,1197,1198,1199,1200,1196,1197,1198,1199,1200,1196,1197,1198,1199,1200,1197,1198,1199,1200,1201,1197,1198,1199,1200,1201,1202,1200,1201,1202,1197,1198,1199,1200,1201,1202,1197,2065,2066,1465,1466,1467,1465,1466,1467,1465,2147485714,2147485713,1197,1198,1199,1200,1201,1202,1197,1198,1199,1200,1201,1202,1197,1198,1199,1200,1201,1202,1197,1198,1199,1200,1201,1202,1202,1203,1204,1205,1206,0,0,0,0,0,0,0,0,0,0,0,0,0,0,0,0,0,0,0,0,0,0,0,0,0,0,0,0,0,0,0,0,0,0,0,0,0,0,0,0,0,0,0,0,0,0,0,0,0,0,0,0,0,0,0,0,
0,0,0,0,1261,1262,1263,1264,1263,1264,1265,1266,1267,1263,1264,1265,1266,1267,1263,1264,1265,1266,1267,1263,1264,1265,1266,1267,1263,1264,1265,1266,1267,1264,1265,1266,1267,1268,1264,1265,1266,1267,1268,1269,1267,1268,1269,1264,1265,1266,1267,1268,1269,1264,1265,1266,1465,1466,1467,1465,1466,1467,1465,1268,1269,1264,1265,1266,1267,1268,1269,1264,1265,1266,1267,1268,1269,1264,1265,1266,1267,1268,1269,1264,1265,1266,1267,1268,1269,1269,1270,1271,1272,1273,0,0,0,0,0,0,0,0,0,0,0,0,0,0,0,0,0,0,0,0,0,0,0,0,0,0,0,0,0,0,0,0,0,0,0,0,0,0,0,0,0,0,0,0,0,0,0,0,0,0,0,0,0,0,0,0,
0,0,0,0,1328,1329,1330,1331,1330,1331,1332,1333,1334,1330,1331,1332,1333,1334,1330,1331,1332,1333,1334,1330,1331,1332,1333,1334,1330,1331,1332,1333,1334,1331,1332,1333,1334,1335,1331,1332,1333,1334,1335,1336,1334,1335,1336,1331,1332,1333,1334,1335,1336,1331,1332,1333,1465,1466,1467,1465,1466,1467,1465,1335,1336,1331,1332,1333,1334,1335,1336,1331,1332,1333,1334,1335,1336,1331,1332,1333,1334,1335,1336,1331,1332,1333,1334,1335,1336,1336,1337,1338,1339,1340,0,0,0,0,0,0,0,0,0,0,0,0,0,0,0,0,0,0,0,0,0,0,0,0,0,0,0,0,0,0,0,0,0,0,0,0,0,0,0,0,0,0,0,0,0,0,0,0,0,0,0,0,0,0,0,0,
0,0,0,0,1395,1396,1465,1466,1467,1465,1466,1467,1465,1466,1467,1465,1466,1467,1465,1466,1467,1465,1466,1467,1465,1466,1467,1465,1466,1467,1465,1466,1467,1465,1466,1467,1465,1466,1467,1465,1466,1467,1465,1466,1467,1465,1466,1467,1465,1466,1467,1465,1466,1467,1465,1466,1467,1465,1466,1467,1465,1466,1467,1465,1466,1467,1465,1466,1467,1465,1466,1467,1465,1466,1467,1465,1466,1467,1465,1466,1467,1465,1466,1467,1465,1466,1467,1465,1466,1467,1465,1466,1406,1407,0,0,0,0,0,0,0,0,0,0,0,0,0,0,0,0,0,0,0,0,0,0,0,0,0,0,0,0,0,0,0,0,0,0,0,0,0,0,0,0,0,0,0,0,0,0,0,0,0,0,0,0,0,0,0,0,
0,0,0,0,1462,1463,1465,1466,1467,1465,1466,1467,1465,1466,1467,1465,1466,1467,1465,1466,1467,1465,1466,1467,1465,1466,1467,1465,1466,1467,1465,1466,1467,1465,1466,1467,1465,1466,1467,1465,1466,1467,1465,1466,1467,1465,1466,1467,1465,1466,1467,1465,1466,1467,1465,1466,1467,1465,1466,1467,1465,1466,1467,1465,1466,1467,1465,1466,1467,1465,1466,1467,1465,1466,1467,1465,1466,1467,1465,1466,1467,1465,1466,1467,1465,1466,1467,1465,1466,1467,1465,1466,1473,1474,0,0,0,0,0,0,0,0,0,0,0,0,0,0,0,0,0,0,0,0,0,0,0,0,0,0,0,0,0,0,0,0,0,0,0,0,0,0,0,0,0,0,0,0,0,0,0,0,0,0,0,0,0,0,0,0,
0,0,0,0,1395,1396,1465,1466,1467,1465,1466,1467,1465,1466,1467,1465,1466,1467,1465,1466,1467,1465,1466,1467,1465,1466,1467,1465,1466,1467,1465,1466,1467,1465,1466,1467,1465,1466,1467,1465,1466,1467,1465,1466,1467,1465,1466,1467,1465,1466,1467,1465,1466,1467,1465,1466,1467,1465,1466,1467,1465,1466,1467,1465,1466,1467,1465,1466,1467,1465,1466,1467,1465,1466,1467,1465,1466,1467,1465,1466,1467,1465,1466,1467,1465,1466,1467,1465,1466,1467,1465,1466,1473,1474,0,0,0,0,0,0,0,0,0,0,0,0,0,0,0,0,0,0,0,0,0,0,0,0,0,0,0,0,0,0,0,0,0,0,0,0,0,0,0,0,0,0,0,0,0,0,0,0,0,0,0,0,0,0,0,0,
0,0,0,0,1462,1463,1465,1466,1467,1465,1466,1467,1465,1466,1467,1465,1466,1467,1465,1466,1467,1465,1466,1467,1465,1466,1467,1465,1466,1467,1465,1466,1467,1465,1466,1467,1465,1466,1467,1465,1466,1467,1465,1466,1467,1465,1466,1467,1465,1466,1467,1465,1466,1467,1465,1466,1467,1465,1466,1467,1465,1466,1467,1465,1466,1467,1465,1466,1467,1465,1466,1467,1465,1466,1467,1465,1466,1467,1465,1466,1467,1465,1466,1467,1465,1466,1467,1465,1466,1467,1465,1466,1540,1541,0,0,0,0,0,0,0,0,0,0,0,0,0,0,0,0,0,0,0,0,0,0,0,0,0,0,0,0,0,0,0,0,0,0,0,0,0,0,0,0,0,0,0,0,0,0,0,0,0,0,0,0,0,0,0,0,
0,0,0,0,1529,1530,1465,1466,1467,1465,1466,1467,1465,1466,1467,1465,1466,1467,1465,1466,1467,1465,1466,1467,1465,1466,1467,1465,1466,1467,1465,1466,1467,1465,1466,1467,1465,1466,1467,1465,1466,1467,1465,1466,1467,1465,1466,1467,1465,1466,1467,1465,1466,1467,1465,1466,1467,1465,1466,1467,1465,1466,1467,1465,1466,1467,1465,1466,1467,1465,1466,1467,1465,1466,1467,1465,1466,1467,1465,1466,1467,1465,1466,1467,1465,1466,1467,1465,1466,1467,1465,1466,1473,1474,0,0,0,0,0,0,0,0,0,0,0,0,0,0,0,0,0,0,0,0,0,0,0,0,0,0,0,0,0,0,0,0,0,0,0,0,0,0,0,0,0,0,0,0,0,0,0,0,0,0,0,0,0,0,0,0,
0,0,0,0,1596,1597,1465,1466,1467,1465,1466,1467,1465,1466,1467,1465,1466,1467,1465,1466,1467,1465,1466,1467,1465,1466,1467,1465,1466,1467,1465,1466,1467,1465,1466,1467,1465,1466,1467,1465,1466,1467,1465,1466,1467,1465,1466,1467,1465,1466,1467,1465,1466,1467,1465,1466,1467,1465,1466,1467,1465,1466,1467,1465,1466,1467,1465,1466,1467,1465,1466,1467,1465,1466,1467,1465,1466,1467,1465,1466,1467,1465,1466,1467,1465,1466,1467,1465,1466,1467,1465,1466,1540,1541,0,0,0,0,0,0,0,0,0,0,0,0,0,0,0,0,0,0,0,0,0,0,0,0,0,0,0,0,0,0,0,0,0,0,0,0,0,0,0,0,0,0,0,0,0,0,0,0,0,0,0,0,0,0,0,0,
0,0,0,0,1663,1664,1465,1466,1467,1465,1466,1467,1465,1466,1467,1465,1466,1467,1465,1466,1467,1465,1466,1467,1465,1466,1467,1465,1466,1467,1465,1466,1467,1465,1466,1467,1465,1466,1467,1465,1466,1467,1465,1466,1467,1465,1466,1467,1465,1466,1467,1465,1466,1467,1465,1466,1467,1465,1466,1467,1465,1466,1467,1465,1466,1467,1465,1466,1467,1465,1466,1467,1465,1466,1467,1465,1466,1467,1465,1466,1467,1465,1466,1467,1465,1466,1467,1465,1466,1467,1465,1466,1473,1474,0,0,0,0,0,0,0,0,0,0,0,0,0,0,0,0,0,0,0,0,0,0,0,0,0,0,0,0,0,0,0,0,0,0,0,0,0,0,0,0,0,0,0,0,0,0,0,0,0,0,0,0,0,0,0,0,
0,0,0,0,1395,1396,1465,1466,1467,1465,1466,1467,1465,1466,1467,1465,1466,1467,1465,1466,1467,1465,1466,1467,1465,1466,1467,1465,1466,1467,1465,1466,1467,1465,1466,1467,1465,1466,1467,1465,1466,1467,1465,1466,1467,1465,1466,1467,1465,1466,1467,1465,1466,1467,1465,1466,1467,1465,1466,1467,1465,1466,1467,1465,1466,1467,1465,1466,1467,1465,1466,1467,1465,1466,1467,1465,1466,1467,1465,1466,1467,1465,1466,1467,1465,1466,1467,1465,1466,1467,1465,1466,1473,1474,0,0,0,0,0,0,0,0,0,0,0,0,0,0,0,0,0,0,0,0,0,0,0,0,0,0,0,0,0,0,0,0,0,0,0,0,0,0,0,0,0,0,0,0,0,0,0,0,0,0,0,0,0,0,0,0,
0,0,0,0,1462,1463,1465,1466,1467,1465,1466,1467,1465,1466,1467,1465,1466,1467,1465,1466,1467,1465,1466,1467,1465,1466,1467,1465,1466,1467,1465,1466,1467,1465,1466,1467,1465,1466,1467,1465,1466,1467,1465,1466,1467,1465,1466,1467,1465,1466,1467,1465,1466,1467,1465,1466,1467,1465,1466,1467,1465,1466,1467,1465,1466,1467,1465,1466,1467,1465,1466,1467,1465,1466,1467,1465,1466,1467,1465,1466,1467,1465,1466,1467,1465,1466,1467,1465,1466,1467,1465,1466,1540,1541,0,0,0,0,0,0,0,0,0,0,0,0,0,0,0,0,0,0,0,0,0,0,0,0,0,0,0,0,0,0,0,0,0,0,0,0,0,0,0,0,0,0,0,0,0,0,0,0,0,0,0,0,0,0,0,0,
0,0,0,0,1529,1530,1465,1466,1467,1465,1466,1467,1465,1466,1467,1465,1466,1467,1465,1466,1467,1465,1466,1467,1465,1466,1467,1465,1466,1467,1465,1466,1467,1465,1466,1467,1465,1466,1467,1465,1466,1467,1465,1466,1467,1465,1466,1467,1465,1466,1467,1465,1466,1467,1465,1466,1467,1465,1466,1467,1465,1466,1467,1465,1466,1467,1465,1466,1467,1465,1466,1467,1465,1466,1467,1465,1466,1467,1465,1466,1467,1465,1466,1467,1465,1466,1467,1465,1466,1467,1465,1466,1473,1474,0,0,0,0,0,0,0,0,0,0,0,0,0,0,0,0,0,0,0,0,0,0,0,0,0,0,0,0,0,0,0,0,0,0,0,0,0,0,0,0,0,0,0,0,0,0,0,0,0,0,0,0,0,0,0,0,
0,0,0,0,1596,1597,1465,1466,1467,1465,1466,1467,1465,1466,1467,1465,1466,1467,1465,1466,1467,1465,1466,1467,1465,1466,1467,1465,1466,1467,1465,1466,1467,1465,1466,1467,1465,1466,1467,1465,1466,1467,1465,1466,1467,1465,1466,1467,1465,1466,1467,1465,1466,1467,1465,1466,1467,1465,1466,1467,1465,1466,1467,1465,1466,1467,1465,1466,1467,1465,1466,1467,1465,1466,1467,1465,1466,5569,5570,5571,5572,5569,5570,5571,5572,1466,1467,1465,1466,1467,1465,1466,1540,1541,0,0,0,0,0,0,0,0,0,0,0,0,0,0,0,0,0,0,0,0,0,0,0,0,0,0,0,0,0,0,0,0,0,0,0,0,0,0,0,0,0,0,0,0,0,0,0,0,0,0,0,0,0,0,0,0,
0,0,0,0,1663,1664,1465,1466,1467,1465,1466,1467,1465,1466,1467,1465,1466,1467,1465,1466,1467,1465,1466,1467,1465,1466,1467,1465,1466,1467,1465,1466,1467,1465,1466,1467,1465,1466,1467,1465,1466,1467,1465,1466,1467,1465,1466,1467,1465,1466,1467,1465,1466,1467,1465,1466,1467,1465,1466,1467,1465,1466,1467,1465,1466,1467,1465,1466,1467,1465,1466,1467,1465,1466,1467,1465,1466,1467,1465,1466,1467,1465,1466,1467,1465,1466,1467,1465,1466,1467,1465,1466,1473,1474,0,0,0,0,0,0,0,0,0,0,0,0,0,0,0,0,0,0,0,0,0,0,0,0,0,0,0,0,0,0,0,0,0,0,0,0,0,0,0,0,0,0,0,0,0,0,0,0,0,0,0,0,0,0,0,0,
0,0,0,0,1395,1396,1465,1466,1467,1465,1466,1467,1465,1466,1467,1465,1466,1467,1465,1466,1467,1465,1466,1467,1465,1466,1467,1465,1466,1467,1465,1466,1467,1465,1466,1467,1465,1466,1467,1465,1466,1467,1465,1466,1467,1465,1466,1467,1465,1466,1467,1465,1466,1467,1465,1466,1467,1465,1466,1467,1465,1466,1467,1465,1466,1467,1465,1466,1467,1465,1466,1467,1465,1466,1467,1465,1466,1467,1465,1466,1467,1465,1466,1467,1465,1466,1467,1465,1466,1467,1465,1466,1540,1541,0,0,0,0,0,0,0,0,0,0,0,0,0,0,0,0,0,0,0,0,0,0,0,0,0,0,0,0,0,0,0,0,0,0,0,0,0,0,0,0,0,0,0,0,0,0,0,0,0,0,0,0,0,0,0,0,
0,0,0,0,1462,1463,1465,1466,1467,1465,1466,1467,1465,1466,1467,1465,1466,1467,1465,1466,1467,1465,1466,1467,1465,1466,1467,1465,1466,1467,1465,1466,1467,1465,1466,1467,1465,1466,1467,1465,1466,1467,1465,1466,1467,1465,1466,1467,1465,1466,1467,1465,1466,1467,1465,1466,1467,1465,1466,1467,1465,1466,1467,1465,1466,1467,1465,1466,1467,1465,1466,1467,1465,1466,1467,1465,1466,1467,1465,1466,1467,1465,1466,1467,1465,1466,1467,1465,1466,1467,1465,1466,1473,1474,0,0,0,0,0,0,0,0,0,0,0,0,0,0,0,0,0,0,0,0,0,0,0,0,0,0,0,0,0,0,0,0,0,0,0,0,0,0,0,0,0,0,0,0,0,0,0,0,0,0,0,0,0,0,0,0,
0,0,0,0,1529,1530,1465,1466,1467,1465,1466,1467,1465,1466,1467,1465,1466,1467,1465,1466,1467,1465,1466,1467,1465,1466,1467,1465,1466,1467,1465,1466,1467,1465,1466,1467,1465,1466,1467,1465,1466,1467,1465,1466,1467,1465,1466,1467,1465,1466,1467,1465,1466,1467,1465,1466,1467,1465,1466,1467,1465,1466,1467,1465,1466,1467,1465,1466,1467,1465,1466,1467,1465,1466,1467,1465,1466,1467,1465,1466,1467,1465,1466,1467,1465,1466,1467,1465,1466,1467,1465,1466,1540,1541,0,0,0,0,0,0,0,0,0,0,0,0,0,0,0,0,0,0,0,0,0,0,0,0,0,0,0,0,0,0,0,0,0,0,0,0,0,0,0,0,0,0,0,0,0,0,0,0,0,0,0,0,0,0,0,0,
0,0,0,0,1596,1597,1465,1466,1467,1465,1466,1467,1465,1466,1467,1465,1466,1467,1465,1466,1467,1465,1466,1467,1465,1466,1467,1465,1466,1467,1465,1466,1467,1465,1466,1467,1465,1466,1467,1465,1466,1467,1465,1466,1467,1465,1466,1467,1465,1466,1467,1465,1466,1467,1465,1466,1467,1465,1466,1467,1465,1466,1467,1465,1466,1467,1465,1466,1467,1465,1466,1467,1465,1466,1467,1465,1466,1467,1465,1466,1467,1465,1466,1467,1465,1466,1467,1465,1466,1467,1465,1466,1473,1474,0,0,0,0,0,0,0,0,0,0,0,0,0,0,0,0,0,0,0,0,0,0,0,0,0,0,0,0,0,0,0,0,0,0,0,0,0,0,0,0,0,0,0,0,0,0,0,0,0,0,0,0,0,0,0,0,
0,0,0,0,1663,1664,5569,5570,5571,5572,5569,5570,5571,5572,1467,1465,1466,1467,1465,1466,1467,1465,1466,1467,1465,1466,1467,1465,1466,1467,1465,1466,1467,1465,1466,1467,1465,1466,1467,1465,1466,1467,1465,1466,1467,1465,1466,1467,1465,1466,1467,1465,1466,1467,1465,1466,1467,1465,1466,1467,1465,1466,1467,1465,1466,1467,1465,1466,1467,1465,1466,1467,1465,1466,1467,1465,1466,1467,1465,1466,1467,1465,1466,1467,1465,1466,1467,1465,1466,1467,1465,1466,1540,1541,0,0,0,0,0,0,0,0,0,0,0,0,0,0,0,0,0,0,0,0,0,0,0,0,0,0,0,0,0,0,0,0,0,0,0,0,0,0,0,0,0,0,0,0,0,0,0,0,0,0,0,0,0,0,0,0,
0,0,0,0,1395,1396,1465,1466,1467,1465,1466,1467,1465,1466,1467,1465,1466,1467,1465,1466,1467,1465,1466,1467,1465,1466,1467,1465,1466,1467,1465,1466,1467,1465,1466,1467,1465,1466,1467,1465,1466,1467,1465,1466,1467,1465,1466,1467,1465,1466,1467,1465,1466,1467,1465,1466,1467,5569,5570,5571,5572,5569,5570,5571,5572,1467,1465,1466,1467,1465,1466,1467,1465,1466,1467,1465,1466,1467,1465,1466,1467,1465,1466,1467,1465,1466,1467,1465,1466,1467,1465,1466,1473,1474,0,0,0,0,0,0,0,0,0,0,0,0,0,0,0,0,0,0,0,0,0,0,0,0,0,0,0,0,0,0,0,0,0,0,0,0,0,0,0,0,0,0,0,0,0,0,0,0,0,0,0,0,0,0,0,0,
0,0,0,0,1462,1463,1465,1466,1467,1465,1466,1467,1465,1466,1467,1465,1466,1467,1465,1466,1467,1465,1466,1467,1465,1466,1467,1465,1466,1467,1465,1466,1467,1465,1466,1467,1465,1466,1467,1465,1466,1467,1465,1466,1467,1465,1466,1467,1465,1466,1467,1465,1466,1467,1465,1466,1467,1465,1466,1467,1465,1466,1467,1465,1466,1467,1465,1466,1467,1465,1466,1467,1465,1466,1467,1465,1466,1467,1465,1466,1467,1465,1466,1467,1465,1466,1467,1465,1466,1467,1465,1466,1540,1541,0,0,0,0,0,0,0,0,0,0,0,0,0,0,0,0,0,0,0,0,0,0,0,0,0,0,0,0,0,0,0,0,0,0,0,0,0,0,0,0,0,0,0,0,0,0,0,0,0,0,0,0,0,0,0,0,
0,0,0,0,1529,1530,1465,1466,1467,1465,1466,1467,1465,1466,1467,1465,1466,1467,1465,1466,1467,1465,1466,1467,1465,1466,1467,1465,1466,1467,1465,1466,1467,1465,1466,1467,1465,1466,1467,1465,1466,1467,1465,1466,1467,1465,1466,1467,1465,1466,1467,1465,1466,1467,1465,1466,1467,1465,1466,1467,1465,1466,1467,1465,1466,1467,1465,1466,1467,1465,1466,1467,1465,1466,1467,1465,1466,1467,1465,1466,1467,1465,1466,1467,1465,1466,1467,1465,1466,1467,1465,1466,1473,1474,0,0,0,0,0,0,0,0,0,0,0,0,0,0,0,0,0,0,0,0,0,0,0,0,0,0,0,0,0,0,0,0,0,0,0,0,0,0,0,0,0,0,0,0,0,0,0,0,0,0,0,0,0,0,0,0,
0,0,0,0,1596,1597,1465,1466,1467,1465,1466,1467,1465,1466,1467,1465,1466,1467,1465,1466,1467,1465,1466,1467,1465,1466,1467,1465,1466,1467,1465,1466,1467,1465,1466,1467,1465,1466,1467,1465,1466,1467,1465,1466,1467,1465,1466,1467,1465,1466,1467,1465,1466,1467,1465,1466,1467,1465,1466,1467,1465,1466,1467,1465,1466,1467,1465,1466,1467,1465,1466,1467,1465,1466,1467,1465,1466,1467,1465,1466,1467,1465,1466,1467,1465,1466,1467,1465,1466,1467,1465,1466,1540,1541,0,0,0,0,0,0,0,0,0,0,0,0,0,0,0,0,0,0,0,0,0,0,0,0,0,0,0,0,0,0,0,0,0,0,0,0,0,0,0,0,0,0,0,0,0,0,0,0,0,0,0,0,0,0,0,0,
0,0,0,0,1663,1664,1465,1466,1467,1465,1466,1467,1465,1466,1467,1465,1466,1467,1465,1466,1467,1465,1466,1467,1465,1466,1467,1465,1466,1467,1465,1466,1467,1465,1466,1467,1465,1466,1467,1465,1466,1467,1465,1466,1467,1465,1466,1467,1465,1466,1467,1465,1466,1467,1465,1466,1467,1465,1466,1467,1465,1466,1467,1465,1466,1467,1465,1466,1467,1465,1466,1467,1465,1466,1467,1465,1466,1467,1465,1466,1467,1465,1466,1467,1465,1466,1467,1465,1466,1467,1465,1466,1473,1474,0,0,0,0,0,0,0,0,0,0,0,0,0,0,0,0,0,0,0,0,0,0,0,0,0,0,0,0,0,0,0,0,0,0,0,0,0,0,0,0,0,0,0,0,0,0,0,0,0,0,0,0,0,0,0,0,
0,0,0,0,1395,1396,1465,1466,1467,1465,1466,1467,1465,1466,1467,1465,1466,1467,1465,1466,1467,1465,1466,1467,1465,1466,1467,1465,1466,1467,1465,1466,1467,1465,1466,1467,1465,1466,1467,1465,1466,1467,1465,1466,1467,1465,1466,1467,1465,1466,1467,1465,1466,1467,1465,1466,1467,1465,1466,1467,1465,1466,1467,1465,1466,1467,1465,1466,1467,1465,1466,1467,1465,1466,1467,1465,1466,1467,1465,1466,1467,1465,1466,1467,1465,1466,1467,1465,1466,1467,1465,1466,1540,1541,0,0,0,0,0,0,0,0,0,0,0,0,0,0,0,0,0,0,0,0,0,0,0,0,0,0,0,0,0,0,0,0,0,0,0,0,0,0,0,0,0,0,0,0,0,0,0,0,0,0,0,0,0,0,0,0,
0,0,0,0,1462,1463,1465,1466,1467,1465,1466,1467,1465,1466,1467,1465,1466,1467,1465,1466,1467,1465,1466,1467,1465,1466,1467,1465,1466,1467,5569,5570,5571,5572,5569,5570,5571,5572,5569,5570,5571,5572,1465,1466,1467,1465,1466,1467,1465,1466,1467,1465,1466,1467,1465,1466,1467,1465,1466,1467,1465,1466,1467,1465,1466,1467,1465,1466,1467,1465,1466,1467,1465,1466,1467,1465,1466,1467,1465,1466,1467,1465,1466,1467,1465,1466,1467,1465,1466,1467,1465,1466,1473,1474,0,0,0,0,0,0,0,0,0,0,0,0,0,0,0,0,0,0,0,0,0,0,0,0,0,0,0,0,0,0,0,0,0,0,0,0,0,0,0,0,0,0,0,0,0,0,0,0,0,0,0,0,0,0,0,0,
0,0,0,0,1529,1530,1465,1466,1467,1465,1466,1467,1465,1466,1467,1465,1466,1467,1465,1466,1467,1465,1466,1467,1465,1466,1467,1465,1466,1467,1465,1466,1467,1465,1466,1467,1465,1466,1467,1465,1466,1467,1465,1466,1467,1465,1466,1467,1465,1466,1467,1465,1466,1467,1465,1466,1467,1465,1466,1467,1465,1466,1467,1465,1466,1467,1465,1466,1467,1465,1466,1467,1465,1466,1467,1465,1466,1467,1465,1466,1467,1465,1466,1467,1465,1466,1467,1465,1466,1467,1465,1466,1540,1541,0,0,0,0,0,0,0,0,0,0,0,0,0,0,0,0,0,0,0,0,0,0,0,0,0,0,0,0,0,0,0,0,0,0,0,0,0,0,0,0,0,0,0,0,0,0,0,0,0,0,0,0,0,0,0,0,
0,0,0,0,1596,1597,1465,1466,1467,1465,1466,1467,1465,1466,1467,1465,1466,1467,1465,1466,1467,1465,1466,1467,1465,1466,1467,1465,1466,1467,1465,1466,1467,1465,1466,1467,1465,1466,1467,1465,1466,1467,1465,1466,1467,1465,1466,1467,1465,1466,1467,1465,1466,1467,1465,1466,1467,1465,1466,1467,1465,1466,1467,1465,1466,1467,1465,1466,1467,1465,1466,1467,1465,1466,1467,1465,1466,1467,1465,1466,1467,1465,1466,1467,1465,1466,1467,1465,1466,1467,1465,1466,1473,1474,0,0,0,0,0,0,0,0,0,0,0,0,0,0,0,0,0,0,0,0,0,0,0,0,0,0,0,0,0,0,0,0,0,0,0,0,0,0,0,0,0,0,0,0,0,0,0,0,0,0,0,0,0,0,0,0,
0,0,0,0,1663,1664,1465,1466,1467,1465,1466,1467,1465,1466,1467,1465,1466,1467,1465,1466,1467,1465,1466,1467,1465,1466,1467,1465,1466,1467,1465,1466,1467,1465,1466,1467,1465,1466,1467,1465,1466,1467,1465,1466,1467,1465,1466,1467,1465,1466,1467,1465,1466,1467,1465,1466,1467,1465,1466,1467,1465,1466,1467,1465,1466,1467,1465,1466,1467,1465,1466,1467,1465,1466,1467,1465,1466,1467,1465,1466,1467,1465,1466,1467,1465,1466,1467,1465,1466,1467,1465,1466,1540,1541,0,0,0,0,0,0,0,0,0,0,0,0,0,0,0,0,0,0,0,0,0,0,0,0,0,0,0,0,0,0,0,0,0,0,0,0,0,0,0,0,0,0,0,0,0,0,0,0,0,0,0,0,0,0,0,0,
0,0,0,0,1395,1396,1465,1466,1467,1465,1466,1467,1465,1466,1467,1465,1466,1467,1465,1466,1467,1465,1466,1467,1465,1466,1467,1465,1466,1467,1465,1466,1467,1465,1466,1467,1465,1466,1467,1465,1466,1467,1465,1466,1467,1465,1466,1467,1465,1466,1467,1465,1466,1467,1465,1466,1467,1465,1466,1467,1465,1466,1467,1465,1466,1467,1465,1466,1467,1465,1466,1467,1465,1466,1467,1465,1466,1467,1465,1466,1467,1465,1466,1467,1465,1466,1467,1465,1466,1467,1465,1466,1473,1474,0,0,0,0,0,0,0,0,0,0,0,0,0,0,0,0,0,0,0,0,0,0,0,0,0,0,0,0,0,0,0,0,0,0,0,0,0,0,0,0,0,0,0,0,0,0,0,0,0,0,0,0,0,0,0,0,
0,0,0,0,1462,1463,1465,1466,1467,1465,1466,1467,1465,1466,1467,1465,1466,1467,1465,1466,1467,1465,1466,1467,1465,1466,1467,1465,1466,1467,1465,1466,1467,1465,1466,1467,1465,1466,1467,1465,1466,1467,1465,1466,1467,1465,1466,1467,1465,1466,1467,1465,1466,1467,1465,1466,1467,1465,1466,1467,1465,1466,1467,1465,1466,1467,1465,1466,1467,1465,1466,1467,1465,1466,1467,1465,1466,1467,1465,1466,1467,1465,1466,1467,1465,1466,1467,1465,1466,1467,1465,1466,1540,1541,0,0,0,0,0,0,0,0,0,0,0,0,0,0,0,0,0,0,0,0,0,0,0,0,0,0,0,0,0,0,0,0,0,0,0,0,0,0,0,0,0,0,0,0,0,0,0,0,0,0,0,0,0,0,0,0,
0,0,0,0,1529,1530,1465,1466,1467,1465,1466,1467,1465,1466,1467,1465,1466,1467,1465,1466,1467,1465,1466,1467,1465,1466,1467,1465,1466,1467,1465,1466,1467,1465,1466,1467,1465,1466,1467,1465,1466,1467,1465,1466,1467,1465,1466,1467,1465,1466,1467,1465,1466,1467,1465,1466,1467,1465,1466,1467,1465,1466,1467,1465,1466,1467,1465,1466,1467,1465,1466,1467,1465,1466,1467,1465,1466,1467,1465,1466,1467,1465,1466,1467,1465,1466,1467,1465,1466,1467,1465,1466,1473,1474,0,0,0,0,0,0,0,0,0,0,0,0,0,0,0,0,0,0,0,0,0,0,0,0,0,0,0,0,0,0,0,0,0,0,0,0,0,0,0,0,0,0,0,0,0,0,0,0,0,0,0,0,0,0,0,0,
0,0,0,0,1596,1597,1465,1466,1467,1465,1466,1467,1465,1466,1467,1465,1466,1467,1465,1466,1467,1465,1466,1467,1465,1466,1467,1465,1466,1467,1465,1466,1467,1465,1466,1467,1465,1466,1467,1465,1466,1467,1465,1466,1467,1465,1466,1467,1465,1466,1467,1465,1466,1467,1465,1466,1467,1465,1466,1467,1465,1466,1467,1465,1466,1467,1465,1466,1467,1465,1466,1467,1465,1466,1467,1465,1466,1467,1465,1466,1467,1465,1466,1467,1465,1466,1467,1465,1466,1467,1465,1466,1540,1541,0,0,0,0,0,0,0,0,0,0,0,0,0,0,0,0,0,0,0,0,0,0,0,0,0,0,0,0,0,0,0,0,0,0,0,0,0,0,0,0,0,0,0,0,0,0,0,0,0,0,0,0,0,0,0,0,
0,0,0,0,1663,1664,1465,1466,1467,1465,1466,1467,1465,1466,1467,1465,1466,1467,1465,1466,1467,1465,1466,1467,1465,1466,1467,1465,1466,1467,1465,1466,1467,1465,1466,1467,1465,1466,1467,1465,1466,1467,1465,1466,1467,1465,1466,1467,1465,1466,1467,1465,1466,1467,1465,1466,1467,1465,1466,1467,1465,1466,1467,1465,1466,1467,1465,1466,1467,1465,1466,1467,1465,1466,1467,1465,1466,1467,1465,1466,1467,1465,1466,1467,1465,1466,1467,1465,1466,1467,1465,1466,1473,1474,0,0,0,0,0,0,0,0,0,0,0,0,0,0,0,0,0,0,0,0,0,0,0,0,0,0,0,0,0,0,0,0,0,0,0,0,0,0,0,0,0,0,0,0,0,0,0,0,0,0,0,0,0,0,0,0,
0,0,0,0,1395,1396,1465,1466,1467,1465,1466,1467,1465,1466,1467,1465,1466,1467,1465,1466,1467,1465,1466,1467,1465,1466,1467,1465,1466,1467,1465,1466,1467,1465,1466,1467,1465,1466,1467,1465,1466,1467,1465,1466,1467,1465,1466,1467,1465,1466,1467,1465,1466,1467,1465,1466,1467,1465,1466,1467,1465,1466,1467,1465,1466,1467,1465,1466,1467,1465,1466,1467,1465,1466,1467,1465,1466,1467,1465,1466,1467,1465,1466,1467,1465,1466,1467,1465,1466,1467,1465,1466,1540,1541,0,0,0,0,0,0,0,0,0,0,0,0,0,0,0,0,0,0,0,0,0,0,0,0,0,0,0,0,0,0,0,0,0,0,0,0,0,0,0,0,0,0,0,0,0,0,0,0,0,0,0,0,0,0,0,0,
0,0,0,0,1462,1463,1465,1466,1467,1465,1466,1467,1465,1466,1467,1465,1466,1467,1465,1466,1467,1465,1466,1467,1465,1466,1467,1465,1466,1467,1465,1466,1467,1465,1466,1467,1465,1466,1467,1465,1466,1467,1465,1466,1467,1465,1466,1467,1465,1466,1467,1465,1466,1467,1465,1466,1467,1465,1466,1467,1465,1466,1467,1465,1466,1467,1465,1466,1467,1465,1466,1467,1465,1466,1467,1465,1466,1467,1465,1466,1467,1465,1466,1467,1465,1466,1467,1465,1466,1467,1465,1466,1473,1474,0,0,0,0,0,0,0,0,0,0,0,0,0,0,0,0,0,0,0,0,0,0,0,0,0,0,0,0,0,0,0,0,0,0,0,0,0,0,0,0,0,0,0,0,0,0,0,0,0,0,0,0,0,0,0,0,
0,0,0,0,1529,1530,1465,1466,1467,1465,1466,1467,1465,1466,1467,1465,1466,1467,1465,1466,1467,1465,1466,1467,1465,1466,1467,1465,1466,1467,1465,1466,1467,1465,1466,1467,1465,1466,1467,1465,1466,1467,1465,1466,1467,1465,1466,1467,1465,1466,1467,1465,1466,1467,1465,1466,1467,1465,1466,1467,1465,1466,1467,1465,1466,1467,1465,1466,1467,1465,1466,1467,1465,1466,1467,1465,1466,1467,1465,1466,1467,1465,1466,1467,1465,1466,1467,1465,1466,1467,1465,1466,1540,1541,0,0,0,0,0,0,0,0,0,0,0,0,0,0,0,0,0,0,0,0,0,0,0,0,0,0,0,0,0,0,0,0,0,0,0,0,0,0,0,0,0,0,0,0,0,0,0,0,0,0,0,0,0,0,0,0,
0,0,0,0,1596,1597,1465,1466,1467,1465,1466,1467,1465,1466,1467,1465,1466,1467,1465,1466,1467,1465,1466,1467,1465,1466,1467,1465,1466,1467,1465,1466,1467,1465,1466,1467,1465,1466,1467,1465,1466,1467,1465,1466,1467,1465,1466,1467,1465,1466,1467,1465,1466,1467,1465,1466,1467,1465,1466,1467,1465,1466,1467,1465,1466,1467,1465,1466,1467,1465,1466,1467,1465,1466,1467,1465,1466,1467,1465,1466,1467,1465,1466,1467,1465,1466,1467,1465,1466,1467,1465,1466,1473,1474,0,0,0,0,0,0,0,0,0,0,0,0,0,0,0,0,0,0,0,0,0,0,0,0,0,0,0,0,0,0,0,0,0,0,0,0,0,0,0,0,0,0,0,0,0,0,0,0,0,0,0,0,0,0,0,0,
0,0,0,0,1663,1664,1465,1466,1467,1465,1466,1467,1465,1466,1467,1465,1466,1467,1465,1466,1467,1465,1466,1467,1465,1466,1467,1465,1466,1467,1465,1466,1467,1465,1466,1467,1465,1466,1467,1465,1466,1467,1465,1466,1467,1465,1466,1467,1465,1466,1467,1465,1466,1467,1465,1466,1467,1465,1466,1467,1465,1466,1467,1465,1466,1467,1465,1466,1467,1465,1466,1467,1465,1466,1467,1465,1466,1467,1465,1466,1467,1465,1466,1467,1465,1466,1467,1465,1466,1467,1465,1466,1540,1541,0,0,0,0,0,0,0,0,0,0,0,0,0,0,0,0,0,0,0,0,0,0,0,0,0,0,0,0,0,0,0,0,0,0,0,0,0,0,0,0,0,0,0,0,0,0,0,0,0,0,0,0,0,0,0,0,
0,0,0,0,1395,1396,1465,1466,1467,1465,1466,1467,1465,1466,1467,1465,1466,1467,1465,1466,1467,1465,1466,1467,1465,1466,1467,1465,1466,1467,1465,1466,1467,1465,1466,1467,1465,1466,1467,1465,1466,1467,1465,1466,1467,1465,1466,1467,1465,1466,1467,1465,1466,1467,1465,1466,1467,1465,1466,1467,1465,1466,1467,1465,1466,1467,1465,1466,1467,1465,1466,1467,1465,1466,1467,1465,1466,1467,1465,1466,1467,1465,1466,1467,1465,1466,1467,1465,1466,1467,1465,1466,1473,1474,0,0,0,0,0,0,0,0,0,0,0,0,0,0,0,0,0,0,0,0,0,0,0,0,0,0,0,0,0,0,0,0,0,0,0,0,0,0,0,0,0,0,0,0,0,0,0,0,0,0,0,0,0,0,0,0,
0,0,0,0,1462,1463,1465,1466,1467,1465,1466,1467,1465,1466,1467,1465,1466,1467,1465,1466,1467,1465,1466,1467,1465,1466,1467,1465,1466,1467,1465,1466,1467,1465,1466,1467,1465,1466,1467,1465,1466,1467,1465,1466,1467,1465,1466,1467,1465,1466,1467,1465,1466,1467,1465,1466,1467,1465,1466,1467,1465,1466,1467,1465,1466,1467,1465,1466,1467,1465,1466,1467,1465,1466,1467,1465,1466,1467,1465,1466,1467,1465,1466,1467,1465,1466,1467,1465,1466,1467,1465,1466,1540,1541,0,0,0,0,0,0,0,0,0,0,0,0,0,0,0,0,0,0,0,0,0,0,0,0,0,0,0,0,0,0,0,0,0,0,0,0,0,0,0,0,0,0,0,0,0,0,0,0,0,0,0,0,0,0,0,0,
0,0,0,0,1529,1530,1465,1466,1467,1465,1466,1467,1465,1466,1467,1465,1466,1467,1465,1466,1467,1465,1466,1467,1465,1466,1467,1465,1466,1467,1465,1466,1467,1465,1466,1467,1465,1466,1467,1465,1466,1467,1465,1466,1467,1465,1466,1467,1465,1466,1467,1465,1466,1467,1465,1466,1467,1465,1466,1467,1465,1466,1467,1465,1466,1467,1465,1466,1467,1465,1466,1467,1465,1466,1467,1465,1466,1467,1465,1466,1467,1465,1466,1467,1465,1466,1467,1465,1466,1467,1465,1466,1473,1474,0,0,0,0,0,0,0,0,0,0,0,0,0,0,0,0,0,0,0,0,0,0,0,0,0,0,0,0,0,0,0,0,0,0,0,0,0,0,0,0,0,0,0,0,0,0,0,0,0,0,0,0,0,0,0,0,
0,0,0,0,1596,1597,1465,1466,1467,1465,1466,1467,1465,1466,1467,1465,1466,1467,1465,1466,1467,1465,1466,1467,1465,1466,1467,1465,1466,1467,1465,1466,1467,1465,1466,1467,1465,1466,1467,1465,1466,1467,1465,1466,1467,1465,1466,1467,1465,1466,1467,1465,1466,1467,1465,1466,1467,1465,1466,1467,1465,1466,1467,1465,1466,1467,1465,1466,1467,1465,1466,1467,1465,1466,1467,1465,1466,1467,1465,1466,1467,1465,1466,1467,1465,1466,1467,1465,1466,1467,1465,1466,1540,1541,0,0,0,0,0,0,0,0,0,0,0,0,0,0,0,0,0,0,0,0,0,0,0,0,0,0,0,0,0,0,0,0,0,0,0,0,0,0,0,0,0,0,0,0,0,0,0,0,0,0,0,0,0,0,0,0,
0,0,0,0,1663,1664,1465,1466,1467,1465,1466,1467,1465,1466,1467,1465,1466,1467,1465,1466,1467,1465,1466,1467,1465,1466,1467,1465,1466,1467,1465,1466,1467,1465,1466,1467,1465,1466,1467,1465,1466,1467,1465,1466,1467,1465,1466,1467,1465,1466,1467,1465,1466,1467,1465,1466,1467,1465,1466,1467,1465,1466,1467,1465,1466,1467,1465,1466,1467,1465,1466,1467,1465,1466,1467,1465,1466,1467,1465,1466,1467,1465,1466,1467,1465,1466,1467,1465,1466,1467,1465,1466,1473,1474,0,0,0,0,0,0,0,0,0,0,0,0,0,0,0,0,0,0,0,0,0,0,0,0,0,0,0,0,0,0,0,0,0,0,0,0,0,0,0,0,0,0,0,0,0,0,0,0,0,0,0,0,0,0,0,0,
0,0,0,0,1395,1396,1465,1466,1467,1465,1466,1467,1465,1466,1467,1465,1466,1467,1465,1466,1467,1465,1466,1467,1465,1466,1467,1465,1466,1467,1465,1466,1467,1465,1466,1467,1465,1466,1467,1465,1466,1467,1465,1466,1467,1465,1466,1467,1465,1466,1467,1465,1466,1467,1465,1466,1467,1465,1466,1467,1465,1466,1467,1465,1466,1467,1465,1466,1467,1465,1466,1467,1465,1466,1467,1465,1466,1467,1465,1466,1467,1465,1466,1467,1465,1466,1467,1465,1466,1467,1465,1466,1540,1541,0,0,0,0,0,0,0,0,0,0,0,0,0,0,0,0,0,0,0,0,0,0,0,0,0,0,0,0,0,0,0,0,0,0,0,0,0,0,0,0,0,0,0,0,0,0,0,0,0,0,0,0,0,0,0,0,
0,0,0,0,1462,1463,1465,1466,1467,1465,1466,1467,1465,1466,1467,1465,1466,1467,1465,1466,1467,1465,1466,1467,1465,1466,1467,1465,1466,1467,1465,1466,1467,1465,1466,1467,1465,1466,1467,1465,1466,1467,1465,1466,1467,1465,1466,1467,1465,1466,1467,1465,1466,1467,1465,1466,1467,1465,1466,1467,1465,1466,1467,1465,1466,1467,5569,5570,5571,5572,5569,5570,5571,5572,1467,1465,1466,1467,1465,1466,1467,1465,1466,1467,1465,1466,1467,1465,1466,1467,1465,1466,1473,1474,0,0,0,0,0,0,0,0,0,0,0,0,0,0,0,0,0,0,0,0,0,0,0,0,0,0,0,0,0,0,0,0,0,0,0,0,0,0,0,0,0,0,0,0,0,0,0,0,0,0,0,0,0,0,0,0,
0,0,0,0,1529,1530,1465,1466,1467,1465,1466,1467,1465,1466,1467,1465,1466,1467,1465,1466,1467,1465,1466,1467,1465,1466,1467,1465,1466,1467,1465,1466,1467,1465,1466,1467,1465,1466,1467,1465,1466,1467,1465,1466,1467,1465,1466,1467,1465,1466,1467,1465,1466,1467,1465,1466,1467,1465,1466,1467,1465,1466,1467,1465,1466,1467,1465,1466,1467,1465,1466,1467,1465,1466,1467,1465,1466,1467,1465,1466,1467,1465,1466,1467,1465,1466,1467,1465,1466,1467,1465,1466,1540,1541,0,0,0,0,0,0,0,0,0,0,0,0,0,0,0,0,0,0,0,0,0,0,0,0,0,0,0,0,0,0,0,0,0,0,0,0,0,0,0,0,0,0,0,0,0,0,0,0,0,0,0,0,0,0,0,0,
0,0,0,0,1596,1597,1465,1466,1467,1465,1466,1467,1465,1466,1467,1465,1466,1467,1465,1466,1467,1465,1466,1467,1465,1466,1467,1465,1466,1467,1465,1466,1467,1465,1466,1467,1465,1466,1467,1465,1466,1467,1465,1466,1467,1465,1466,1467,1465,1466,1467,1465,1466,1467,1465,1466,1467,1465,1466,1467,1465,1466,1467,1465,1466,1467,1465,1466,1467,1465,1466,1467,1465,1466,1467,1465,1466,1467,1465,1466,1467,1465,1466,1467,1465,1466,1467,1465,1466,1467,1465,1466,1473,1474,0,0,0,0,0,0,0,0,0,0,0,0,0,0,0,0,0,0,0,0,0,0,0,0,0,0,0,0,0,0,0,0,0,0,0,0,0,0,0,0,0,0,0,0,0,0,0,0,0,0,0,0,0,0,0,0,
0,0,0,0,1663,1664,1465,1466,1467,1465,1466,1467,1465,1466,1467,1465,1466,1467,1465,1466,1467,1465,1466,1467,1465,1466,1467,1465,1466,1467,1465,1466,1467,1465,1466,1467,1465,1466,1467,1465,1466,1467,1465,1466,1467,1465,1466,1467,1465,1466,1467,1465,1466,1467,1465,1466,1467,1465,1466,1467,1465,1466,1467,1465,1466,1467,1465,1466,1467,1465,1466,1467,1465,1466,1467,1465,1466,1467,1465,1466,1467,1465,1466,1467,1465,1466,1467,1465,1466,1467,1465,1466,1540,1541,0,0,0,0,0,0,0,0,0,0,0,0,0,0,0,0,0,0,0,0,0,0,0,0,0,0,0,0,0,0,0,0,0,0,0,0,0,0,0,0,0,0,0,0,0,0,0,0,0,0,0,0,0,0,0,0,
0,0,0,0,1395,1396,1465,1466,1467,1465,1466,1467,1465,1466,1467,1465,1466,1467,1465,1466,1467,1465,1466,1467,1465,1466,1467,1465,1466,1467,1465,1466,1467,1465,1466,1467,1465,1466,1467,1465,1466,1467,1465,1466,1467,1465,1466,1467,1465,1466,1467,1465,1466,1467,1465,1466,1467,1465,1466,1467,1465,1466,1467,1465,1466,1467,1465,1466,1467,1465,1466,1467,1465,1466,1467,1465,1466,1467,1465,1466,1467,1465,1466,1467,1465,1466,1467,1465,1466,1467,1465,1466,1473,1474,0,0,0,0,0,0,0,0,0,0,0,0,0,0,0,0,0,0,0,0,0,0,0,0,0,0,0,0,0,0,0,0,0,0,0,0,0,0,0,0,0,0,0,0,0,0,0,0,0,0,0,0,0,0,0,0,
0,0,0,0,1462,1463,1465,1466,1467,1465,1466,1467,1465,1466,1467,1465,1466,1467,1465,1466,1467,1465,1466,1467,1465,1466,1467,1465,1466,1467,1465,1466,1467,1465,1466,1467,1465,1466,1467,1465,1466,1467,1465,1466,1467,1465,1466,1467,1465,1466,1467,1465,1466,1467,1465,1466,1467,1465,1466,1467,1465,1466,1467,1465,1466,1467,1465,1466,1467,1465,1466,1467,1465,1466,1467,1465,1466,1467,1465,1466,1467,1465,1466,1467,1465,1466,1467,1465,1466,1467,1465,1466,1540,1541,0,0,0,0,0,0,0,0,0,0,0,0,0,0,0,0,0,0,0,0,0,0,0,0,0,0,0,0,0,0,0,0,0,0,0,0,0,0,0,0,0,0,0,0,0,0,0,0,0,0,0,0,0,0,0,0,
0,0,0,0,1529,1530,1465,1466,1467,1465,1466,1467,1465,1466,1467,1465,1466,1467,1465,1466,1467,1465,1466,1467,1465,1466,1467,1465,1466,1467,1465,1466,1467,1465,1466,1467,1465,1466,1467,1465,1466,1467,1465,1466,1467,1465,1466,1467,1465,1466,1467,1465,1466,1467,1465,1466,1467,1465,1466,1467,1465,1466,1467,1465,1466,1467,1465,1466,1467,1465,1466,1467,1465,1466,1467,1465,1466,1467,1465,1466,1467,1465,1466,1467,1465,1466,1467,1465,1466,1467,1465,1466,1473,1474,0,0,0,0,0,0,0,0,0,0,0,0,0,0,0,0,0,0,0,0,0,0,0,0,0,0,0,0,0,0,0,0,0,0,0,0,0,0,0,0,0,0,0,0,0,0,0,0,0,0,0,0,0,0,0,0,
0,0,0,0,1596,1597,1465,1466,1467,1465,1466,1467,1465,1466,1467,1465,1466,1467,1465,1466,1467,1465,1466,1467,1465,1466,1467,1465,1466,1467,1465,1466,1467,1465,1466,1467,1465,5569,5570,5571,5572,5569,5570,5571,5572,1465,1466,1467,1465,1466,1467,1465,1466,1467,1465,1466,1467,1465,1466,1467,1465,1466,1467,1465,1466,1467,1465,1466,1467,1465,1466,1467,1465,1466,1467,1465,1466,1467,1465,1466,1467,1465,1466,1467,1465,1466,1467,1465,1466,1467,1465,1466,1540,1541,0,0,0,0,0,0,0,0,0,0,0,0,0,0,0,0,0,0,0,0,0,0,0,0,0,0,0,0,0,0,0,0,0,0,0,0,0,0,0,0,0,0,0,0,0,0,0,0,0,0,0,0,0,0,0,0,
0,0,0,0,1663,1664,1465,1466,1467,1465,1466,1467,1465,1466,1467,1465,1466,1467,1465,1466,1467,1465,1466,1467,1465,1466,1467,1465,1466,1467,1465,1466,1467,1465,1466,1467,1465,1466,1467,1465,1466,1467,1465,1466,1467,1465,1466,1467,1465,1466,1467,1465,1466,1467,1465,1466,1467,1465,1466,1467,1465,1466,1467,1465,1466,1467,1465,1466,1467,1465,1466,1467,1465,1466,1467,1465,1466,1467,1465,1466,1467,1465,1466,1467,1465,1466,1467,1465,1466,1467,1465,1466,1473,1474,0,0,0,0,0,0,0,0,0,0,0,0,0,0,0,0,0,0,0,0,0,0,0,0,0,0,0,0,0,0,0,0,0,0,0,0,0,0,0,0,0,0,0,0,0,0,0,0,0,0,0,0,0,0,0,0,
0,0,0,0,1395,1396,1465,1466,1467,1465,1466,1467,1465,1466,1467,1465,1466,1467,1465,1466,1467,1465,1466,1467,1465,1466,1467,1465,1466,1467,1465,1466,1467,1465,1466,1467,1465,1466,1467,1465,1466,1467,1465,1466,1467,1465,1466,1467,1465,1466,1467,1465,1466,1467,1465,1466,1467,1465,1466,1467,1465,1466,1467,1465,1466,1467,1465,1466,1467,1465,1466,1467,1465,1466,1467,1465,1466,1467,1465,1466,1467,1465,1466,1467,1465,1466,1467,1465,1466,1467,1465,1466,1540,1541,0,0,0,0,0,0,0,0,0,0,0,0,0,0,0,0,0,0,0,0,0,0,0,0,0,0,0,0,0,0,0,0,0,0,0,0,0,0,0,0,0,0,0,0,0,0,0,0,0,0,0,0,0,0,0,0,
0,0,0,0,1462,1463,1465,1466,1467,1465,1466,1467,5569,5570,5571,5572,5569,5570,5571,5572,1467,1465,1466,1467,1465,1466,1467,1465,1466,1467,1465,1466,1467,1465,1466,1467,1465,1466,1467,1465,1466,1467,1465,1466,1467,1465,1466,1467,1465,1466,1467,1465,1466,1467,1465,1466,1467,1465,1466,1467,1465,1466,1467,1465,1466,1467,1465,1466,1467,1465,1466,1467,1465,1466,1467,1465,1466,1467,1465,1466,1467,1465,1466,1467,1465,1466,1467,1465,1466,1467,1465,1466,1473,1474,0,0,0,0,0,0,0,0,0,0,0,0,0,0,0,0,0,0,0,0,0,0,0,0,0,0,0,0,0,0,0,0,0,0,0,0,0,0,0,0,0,0,0,0,0,0,0,0,0,0,0,0,0,0,0,0,
0,0,0,0,1529,1530,1465,1466,1467,1465,1466,1467,1465,1466,1467,1465,1466,1467,1465,1466,1467,1465,1466,1467,1465,1466,1467,1465,1466,1467,1465,1466,1467,1465,1466,1467,1465,1466,1467,1465,1466,1467,1465,1466,1467,1465,1466,1467,1465,1466,1467,1465,1466,1467,1465,1466,1467,1465,1466,1467,1465,1466,1467,1465,1466,1467,1465,1466,1467,1465,1466,1467,1465,1466,1467,1465,1466,1467,1465,1466,1467,1465,1466,1467,1465,1466,1467,1465,1466,1467,1465,1466,1540,1541,0,0,0,0,0,0,0,0,0,0,0,0,0,0,0,0,0,0,0,0,0,0,0,0,0,0,0,0,0,0,0,0,0,0,0,0,0,0,0,0,0,0,0,0,0,0,0,0,0,0,0,0,0,0,0,0,
0,0,0,0,1596,1597,1465,1466,1467,1465,1466,1467,1465,1466,1467,1465,1466,1467,1465,1466,1467,1465,1466,1467,1465,1466,1467,1465,1466,1467,1465,1466,1467,1465,1466,1467,1465,1466,1467,1465,1466,1467,1465,1466,1467,1465,1466,1467,1465,1466,1467,1465,1466,1467,1465,1466,1467,1465,1466,1467,1465,1466,1467,1465,1466,1467,1465,1466,1467,1465,1466,1467,1465,1466,1467,1465,1466,1467,1465,1466,1467,1465,1466,1467,1465,1466,1467,1465,1466,1467,1465,1466,1473,1474,0,0,0,0,0,0,0,0,0,0,0,0,0,0,0,0,0,0,0,0,0,0,0,0,0,0,0,0,0,0,0,0,0,0,0,0,0,0,0,0,0,0,0,0,0,0,0,0,0,0,0,0,0,0,0,0,
0,0,0,0,1663,1664,1465,1466,1467,1465,1466,1467,1465,1466,1467,1465,1466,1467,1465,1466,1467,1465,1466,1467,1465,1466,1467,1465,1466,1467,1465,1466,1467,1465,1466,1467,1465,1466,1467,1465,1466,1467,1465,1466,1467,1465,1466,1467,1465,1466,1467,1465,1466,1467,1465,1466,1467,1465,1466,1467,1465,1466,1467,1465,1466,1467,1465,1466,1467,1465,1466,1467,1465,1466,1467,1465,1466,1467,1465,1466,1467,1465,1466,1467,1465,1466,1467,1465,1466,1467,1465,1466,1540,1541,0,0,0,0,0,0,0,0,0,0,0,0,0,0,0,0,0,0,0,0,0,0,0,0,0,0,0,0,0,0,0,0,0,0,0,0,0,0,0,0,0,0,0,0,0,0,0,0,0,0,0,0,0,0,0,0,
0,0,0,0,1395,1396,1465,1466,1467,1465,1466,1467,1465,1466,1467,1465,1466,1467,1465,1466,1467,1465,1466,1467,1465,1466,1467,1465,1466,1467,1465,1466,1467,1465,1466,1467,1465,1466,1467,1465,1466,1467,1465,1466,1467,1465,1466,1467,1465,1466,1467,1465,1466,1467,1465,1466,1467,1465,1466,1467,1465,1466,1467,1465,1466,1467,1465,1466,1467,1465,1466,1467,1465,1466,1467,1465,1466,1467,1465,1466,1467,1465,1466,1467,1465,1466,1467,1465,1466,1467,1465,1466,1473,1474,0,0,0,0,0,0,0,0,0,0,0,0,0,0,0,0,0,0,0,0,0,0,0,0,0,0,0,0,0,0,0,0,0,0,0,0,0,0,0,0,0,0,0,0,0,0,0,0,0,0,0,0,0,0,0,0,
0,0,0,0,1462,1463,1465,1466,1467,1465,1466,1467,1465,1466,1467,1465,1466,1467,1465,1466,1467,1465,1466,1467,1465,1466,1467,1465,1466,1467,1465,1466,1467,1465,1466,1467,1465,1466,1467,1465,1466,1467,1465,1466,1467,1465,1466,1467,1465,1466,1467,1465,1466,1467,1465,1466,1467,1465,1466,1467,1465,1466,1467,1465,1466,1467,1465,1466,1467,1465,1466,1467,1465,1466,1467,1465,1466,1467,1465,1466,1467,1465,1466,1467,1465,1466,1467,1465,1466,1467,1465,1466,1540,1541,0,0,0,0,0,0,0,0,0,0,0,0,0,0,0,0,0,0,0,0,0,0,0,0,0,0,0,0,0,0,0,0,0,0,0,0,0,0,0,0,0,0,0,0,0,0,0,0,0,0,0,0,0,0,0,0,
0,0,0,0,1529,1530,1465,1466,1467,1465,1466,1467,1465,1466,1467,1465,1466,1467,1465,1466,1467,1465,1466,1467,1465,1466,1467,1465,1466,1467,1465,1466,1467,1465,1466,1467,1465,1466,1467,1465,1466,1467,1465,1466,1467,1465,1466,1467,1465,1466,1467,1465,1466,1467,1465,1466,1467,1465,1466,1467,1465,1466,1467,1465,1466,1467,1465,1466,1467,1465,1466,1467,1465,1466,1467,1465,1466,1467,1465,1466,1467,1465,1466,1467,1465,1466,1467,1465,1466,1467,1465,1466,1473,1474,0,0,0,0,0,0,0,0,0,0,0,0,0,0,0,0,0,0,0,0,0,0,0,0,0,0,0,0,0,0,0,0,0,0,0,0,0,0,0,0,0,0,0,0,0,0,0,0,0,0,0,0,0,0,0,0,
0,0,0,0,1596,1597,1465,1466,1467,1465,1466,1467,1465,1466,1467,1465,1466,1467,1465,1466,1467,1465,1466,1467,1465,1466,1467,1465,1466,1467,1465,1466,1467,1465,1466,1467,1465,1466,1467,1465,1466,1467,1465,1466,1467,1465,1466,1467,1465,1466,1467,1465,1466,1467,1465,1466,1467,1465,1466,1467,1465,1466,1467,1465,1466,1467,1465,1466,1467,1465,1466,1467,1465,1466,1467,1465,1466,1467,1465,1466,1467,1465,1466,1467,1465,1466,1467,1465,1466,1467,1465,1466,1540,1541,0,0,0,0,0,0,0,0,0,0,0,0,0,0,0,0,0,0,0,0,0,0,0,0,0,0,0,0,0,0,0,0,0,0,0,0,0,0,0,0,0,0,0,0,0,0,0,0,0,0,0,0,0,0,0,0,
0,0,0,0,1663,1664,1465,1466,1467,1465,1466,1467,1465,1466,1467,1465,1466,1467,1465,1466,1467,1465,1466,1467,1465,1466,1467,1465,1466,1467,1465,1466,1467,1465,1466,1467,1465,1466,1467,1465,1466,1467,1465,1466,1467,1465,1466,1467,1465,1466,1467,1465,1466,1467,1465,1466,1467,1465,1466,1467,1465,1466,1467,1465,1466,1467,1465,1466,1467,1465,1466,1467,1465,1466,1467,1465,1466,1467,1465,1466,1467,1465,1466,1467,1465,1466,1467,1465,1466,1467,1465,1466,1473,1474,0,0,0,0,0,0,0,0,0,0,0,0,0,0,0,0,0,0,0,0,0,0,0,0,0,0,0,0,0,0,0,0,0,0,0,0,0,0,0,0,0,0,0,0,0,0,0,0,0,0,0,0,0,0,0,0,
0,0,0,0,1073743353,1073743354,1465,1466,1467,1465,1466,1467,1465,1466,1467,1465,1466,1467,1465,1466,1467,1465,1466,1467,1465,1466,1467,1465,1466,1467,1465,1466,1467,1465,1466,1467,1465,1466,1467,1465,1466,1467,1465,1466,1467,1465,1466,1467,1465,1466,1467,1465,1466,1467,1465,1466,1467,1465,1466,1467,1465,1466,1467,1465,1466,1467,1465,1466,1467,1465,1466,1467,1465,1466,1467,1465,1466,1467,1465,1466,1467,1465,1466,1467,1465,1466,1467,1465,1466,1467,1465,1466,1473,1474,0,0,0,0,0,0,0,0,0,0,0,0,0,0,0,0,0,0,0,0,0,0,0,0,0,0,0,0,0,0,0,0,0,0,0,0,0,0,0,0,0,0,0,0,0,0,0,0,0,0,0,0,0,0,0,0,
0,0,0,0,1073743286,1073743287,1465,1466,1467,1465,1466,1467,1465,1466,1467,1465,1466,1467,1465,1466,1467,1465,1466,1467,1465,1466,1467,1465,1466,1467,1465,1466,1467,1465,1466,1467,1465,1466,1467,1465,1466,1467,1465,1466,1467,1465,1466,1467,1465,1466,1467,1465,1466,1467,1465,1466,1467,1465,1466,1467,1465,1466,1467,1465,1466,1467,1465,1466,1467,1465,1466,1467,1465,1466,1467,1465,1466,1467,1465,1466,1467,1465,1466,1467,1465,1466,1467,1465,1466,1467,1465,1466,1073743297,1073743298,0,0,0,0,0,0,0,0,0,0,0,0,0,0,0,0,0,0,0,0,0,0,0,0,0,0,0,0,0,0,0,0,0,0,0,0,0,0,0,0,0,0,0,0,0,0,0,0,0,0,0,0,0,0,0,0,
0,0,0,0,1073743219,1073743220,1465,1466,1467,1465,1466,1467,1465,1466,1467,1465,1466,1467,1465,1466,1467,1465,1466,1467,1465,1466,1467,1465,1466,1467,1465,1466,1467,1465,1466,1467,1465,1466,1467,1465,1466,1467,1465,1466,1467,1465,1466,1467,1465,1466,1467,1465,1466,1467,1465,1466,1467,1465,1466,1467,1465,1466,1467,1465,1466,1467,1465,1466,1467,1465,1466,1467,1465,1466,1467,1465,1466,1467,1465,1466,1467,1465,1466,1467,1465,1466,1467,1465,1466,1467,1465,1466,1073743230,1073743231,0,0,0,0,0,0,0,0,0,0,0,0,0,0,0,0,0,0,0,0,0,0,0,0,0,0,0,0,0,0,0,0,0,0,0,0,0,0,0,0,0,0,0,0,0,0,0,0,0,0,0,0,0,0,0,0,
0,0,0,0,1073743152,1073743153,1073743154,1073743155,1073743155,1073743156,1073743157,1073743158,1073743159,1073743160,1073743155,1073743156,1073743157,1073743158,1073743159,1073743160,1073743155,1073743156,1073743157,1073743158,1073743159,1073743160,1073743155,1073743156,1073743157,1073743158,1073743159,1073743160,1073743155,1073743156,1073743157,1073743158,1073743159,1073743160,1073743155,1073743156,1073743157,1073743158,1073743159,1073743160,1073743155,1073743156,1073743157,1073743158,1073743159,1073743160,1073743155,1073743156,1073743157,1073743158,1073743159,1073743160,1073743155,1073743156,1073743157,1073743158,1073743159,1073743160,1073743155,1073743156,1073743157,1073743158,1073743159,1073743160,1073743158,1073743159,1073743160,1073743155,1465,1466,1467,1465,1466,1467,1465,1073743158,1073743159,1073743160,1073743155,1073743161,1073743158,1073743159,1073743160,1073743161,1073743158,1073743158,1073743161,1073743162,1073743163,1073743164,0,0,0,0,0,0,0,0,0,0,0,0,0,0,0,0,0,0,0,0,0,0,0,0,0,0,0,0,0,0,0,0,0,0,0,0,0,0,0,0,0,0,0,0,0,0,0,0,0,0,0,0,0,0,0,0,
0,0,0,0,1073743085,1073743086,1073743087,1073743088,1073743088,1073743089,1073743090,1073743091,1073743092,1073743093,1073743088,1073743089,1073743090,1073743091,1073743092,1073743093,1073743088,1073743089,1073743090,1073743091,1073743092,1073743093,1073743088,1073743089,1073743090,1073743091,1073743092,1073743093,1073743088,1073743089,1073743090,1073743091,1073743092,1073743093,1073743088,1073743089,1073743090,1073743091,1073743092,1073743093,1073743088,1073743089,1073743090,1073743091,1073743092,1073743093,1073743088,1073743089,1073743090,1073743091,1073743092,1073743093,1073743088,1073743089,1073743090,1073743091,1073743092,1073743093,1073743088,1073743089,1073743090,1073743091,1073743092,1073743093,1073743091,1073743092,1073743093,1073743088,1465,1466,1467,1465,1466,1467,1465,1073743091,1073743092,1073743093,1073743088,1073743094,1073743091,1073743092,1073743093,1073743094,1073743091,1073743091,1073743094,1073743095,1073743096,1073743097,0,0,0,0,0,0,0,0,0,0,0,0,0,0,0,0,0,0,0,0,0,0,0,0,0,0,0,0,0,0,0,0,0,0,0,0,0,0,0,0,0,0,0,0,0,0,0,0,0,0,0,0,0,0,0,0,
0,0,0,0,0,0,0,0,0,0,0,0,0,0,0,0,0,0,0,0,0,0,0,0,0,0,0,0,0,0,0,0,0,0,0,0,0,0,0,0,0,0,0,0,0,0,0,0,0,0,0,0,0,0,0,0,0,0,0,0,0,0,0,0,0,0,0,0,0,1662,1663,1664,1465,1466,1467,1465,1466,1467,1465,3221227404,3221227403,3221227402,0,0,0,0,0,0,0,0,0,0,0,0,0,0,0,0,0,0,0,0,0,0,0,0,0,0,0,0,0,0,0,0,0,0,0,0,0,0,0,0,0,0,0,0,0,0,0,0,0,0,0,0,0,0,0,0,0,0,0,0,0,0,0,0,0,0,0,0,
0,0,0,0,0,0,0,0,0,0,0,0,0,0,0,0,0,0,0,0,0,0,0,0,0,0,0,0,0,0,0,0,0,0,0,0,0,0,0,0,0,0,0,0,0,0,0,0,0,0,0,0,0,0,0,0,0,0,0,0,0,0,0,0,0,0,0,0,0,1729,1730,1731,1465,1466,1467,1465,1466,1467,1465,3221227337,3221227336,3221227335,0,0,0,0,0,0,0,0,0,0,0,0,0,0,0,0,0,0,0,0,0,0,0,0,0,0,0,0,0,0,0,0,0,0,0,0,0,0,0,0,0,0,0,0,0,0,0,0,0,0,0,0,0,0,0,0,0,0,0,0,0,0,0,0,0,0,0,0,
0,0,0,0,0,0,0,0,0,0,0,0,0,0,0,0,0,0,0,0,0,0,0,0,0,0,0,0,0,0,0,0,0,0,0,0,0,0,0,0,0,0,0,0,0,0,0,0,0,0,0,0,0,0,0,0,0,0,0,0,0,0,0,0,0,0,0,0,0,1796,1797,1798,1465,1466,1467,1465,1466,1467,1465,3221227270,3221227269,3221227268,0,0,0,0,0,0,0,0,0,0,0,0,0,0,0,0,0,0,0,0,0,0,0,0,0,0,0,0,0,0,0,0,0,0,0,0,0,0,0,0,0,0,0,0,0,0,0,0,0,0,0,0,0,0,0,0,0,0,0,0,0,0,0,0,0,0,0,0,
0,0,0,0,0,0,0,0,0,0,0,0,0,0,0,0,0,0,0,0,0,0,0,0,0,0,0,0,0,0,0,0,0,0,0,0,0,0,0,0,0,0,0,0,0,0,0,0,0,0,0,0,0,0,0,0,0,0,0,0,0,0,0,0,0,0,0,0,0,1863,1864,1865,1465,1466,1467,1465,1466,1467,1465,3221227203,3221227202,3221227201,0,0,0,0,0,0,0,0,0,0,0,0,0,0,0,0,0,0,0,0,0,0,0,0,0,0,0,0,0,0,0,0,0,0,0,0,0,0,0,0,0,0,0,0,0,0,0,0,0,0,0,0,0,0,0,0,0,0,0,0,0,0,0,0,0,0,0,0,
0,0,0,0,0,0,0,0,0,0,0,0,0,0,0,0,0,0,0,0,0,0,0,0,0,0,0,0,0,0,0,0,0,0,0,0,0,0,0,0,0,0,0,0,0,0,0,0,0,0,0,0,0,0,0,0,0,0,0,0,0,0,0,0,0,0,0,0,0,1930,1931,1932,1465,1466,1467,1465,1466,1467,1465,3221227136,3221227135,3221227134,0,0,0,0,0,0,0,0,0,0,0,0,0,0,0,0,0,0,0,0,0,0,0,0,0,0,0,0,0,0,0,0,0,0,0,0,0,0,0,0,0,0,0,0,0,0,0,0,0,0,0,0,0,0,0,0,0,0,0,0,0,0,0,0,0,0,0,0,
0,0,0,0,0,0,0,0,0,0,0,0,0,0,0,0,0,0,0,0,0,0,0,0,0,0,0,0,0,0,0,0,0,0,0,0,0,0,0,0,0,0,0,0,0,0,0,0,0,0,0,0,0,0,0,0,0,0,0,0,0,0,0,0,0,0,0,0,0,1997,1998,1999,1465,1466,1467,1465,1466,1467,1465,3221227069,3221227068,3221227067,0,0,0,0,0,0,0,0,0,0,0,0,0,0,0,0,0,0,0,0,0,0,0,0,0,0,0,0,0,0,0,0,0,0,0,0,0,0,0,0,0,0,0,0,0,0,0,0,0,0,0,0,0,0,0,0,0,0,0,0,0,0,0,0,0,0,0,0,
0,0,0,0,0,0,0,0,0,0,0,0,0,0,0,0,0,0,0,0,0,0,0,0,0,0,0,0,0,0,0,0,0,0,0,0,0,0,0,0,0,0,0,0,0,0,0,0,0,0,0,0,0,0,0,0,0,0,0,0,0,0,0,0,0,0,0,0,0,2064,2065,2066,1465,1466,1467,1465,1466,1467,1465,3221227002,3221227001,3221227000,0,0,0,0,0,0,0,0,0,0,0,0,0,0,0,0,0,0,0,0,0,0,0,0,0,0,0,0,0,0,0,0,0,0,0,0,0,0,0,0,0,0,0,0,0,0,0,0,0,0,0,0,0,0,0,0,0,0,0,0,0,0,0,0,0,0,0,0,
0,0,0,0,0,0,0,0,0,0,0,0,0,0,0,0,0,0,0,0,0,0,0,0,0,0,0,0,0,0,0,0,0,0,0,0,0,0,0,0,0,0,0,0,0,0,0,0,0,0,0,0,0,0,0,0,0,0,0,0,0,0,0,0,0,0,0,0,0,2131,2132,2133,1465,1466,1467,1465,1466,1467,1465,3221226935,3221226934,3221226933,0,0,0,0,0,0,0,0,0,0,0,0,0,0,0,0,0,0,0,0,0,0,0,0,0,0,0,0,0,0,0,0,0,0,0,0,0,0,0,0,0,0,0,0,0,0,0,0,0,0,0,0,0,0,0,0,0,0,0,0,0,0,0,0,0,0,0,0,
0,0,0,0,0,0,0,0,0,0,0,0,0,0,0,0,0,0,0,0,0,0,0,0,0,0,0,0,0,0,0,0,0,0,0,0,0,0,0,0,0,0,0,0,0,0,0,0,0,0,0,0,0,0,0,0,0,0,0,0,0,0,0,0,0,0,0,0,0,1461,1462,1463,1465,1466,1467,1465,1466,1467,1465,3221227605,3221227604,3221227603,0,0,0,0,0,0,0,0,0,0,0,0,0,0,0,0,0,0,0,0,0,0,0,0,0,0,0,0,0,0,0,0,0,0,0,0,0,0,0,0,0,0,0,0,0,0,0,0,0,0,0,0,0,0,0,0,0,0,0,0,0,0,0,0,0,0,0,0,
0,0,0,0,0,0,0,0,0,0,0,0,0,0,0,0,0,0,0,0,0,0,0,0,0,0,0,0,0,0,0,0,0,0,0,0,0,0,0,0,0,0,0,0,0,0,0,0,0,0,0,0,0,0,0,0,0,0,0,0,0,0,0,0,0,0,0,0,0,1528,1529,1530,1465,1466,1467,1465,1466,1467,1465,3221227538,3221227537,3221227536,0,0,0,0,0,0,0,0,0,0,0,0,0,0,0,0,0,0,0,0,0,0,0,0,0,0,0,0,0,0,0,0,0,0,0,0,0,0,0,0,0,0,0,0,0,0,0,0,0,0,0,0,0,0,0,0,0,0,0,0,0,0,0,0,0,0,0,0,
0,0,0,0,0,0,0,0,0,0,0,0,0,0,0,0,0,0,0,0,0,0,0,0,0,0,0,0,0,0,0,0,0,0,0,0,0,0,0,0,0,0,0,0,0,0,0,0,0,0,0,0,0,0,0,0,0,0,0,0,0,0,0,0,0,0,0,0,0,1595,1596,1597,1465,1466,1467,1465,1466,1467,1465,3221227471,3221227470,3221227469,0,0,0,0,0,0,0,0,0,0,0,0,0,0,0,0,0,0,0,0,0,0,0,0,0,0,0,0,0,0,0,0,0,0,0,0,0,0,0,0,0,0,0,0,0,0,0,0,0,0,0,0,0,0,0,0,0,0,0,0,0,0,0,0,0,0,0,0,
0,0,0,0,0,0,0,0,0,0,0,0,0,0,0,0,0,0,0,0,0,0,0,0,0,0,0,0,0,0,0,0,0,0,0,0,0,0,0,0,0,0,0,0,0,0,0,0,0,0,0,0,0,0,0,0,0,0,0,0,0,0,0,0,0,0,0,0,0,1662,1663,1664,1465,1466,1467,1465,1466,1467,1465,3221227404,3221227403,3221227402,0,0,0,0,0,0,0,0,0,0,0,0,0,0,0,0,0,0,0,0,0,0,0,0,0,0,0,0,0,0,0,0,0,0,0,0,0,0,0,0,0,0,0,0,0,0,0,0,0,0,0,0,0,0,0,0,0,0,0,0,0,0,0,0,0,0,0,0,
0,0,0,0,0,0,0,0,0,0,0,0,0,0,0,0,0,0,0,0,0,0,0,0,0,0,0,0,0,0,0,0,0,0,0,0,0,0,0,0,0,0,0,0,0,0,0,0,0,0,0,0,0,0,0,0,0,0,0,0,0,0,0,0,0,0,0,0,0,1729,1730,1731,1465,1466,1467,1465,1466,1467,1465,3221227337,3221227336,3221227335,0,0,0,0,0,0,0,0,0,0,0,0,0,0,0,0,0,0,0,0,0,0,0,0,0,0,0,0,0,0,0,0,0,0,0,0,0,0,0,0,0,0,0,0,0,0,0,0,0,0,0,0,0,0,0,0,0,0,0,0,0,0,0,0,0,0,0,0,
0,0,0,0,0,0,0,0,0,0,0,0,0,0,0,0,0,0,0,0,0,0,0,0,0,0,0,0,0,0,0,0,0,0,0,0,0,0,0,0,0,0,0,0,0,0,0,0,0,0,0,0,0,0,0,0,0,0,0,0,0,0,0,0,0,0,0,0,0,1796,1797,1798,1465,1466,1467,1465,1466,1467,1465,3221227270,3221227269,3221227268,0,0,0,0,0,0,0,0,0,0,0,0,0,0,0,0,0,0,0,0,0,0,0,0,0,0,0,0,0,0,0,0,0,0,0,0,0,0,0,0,0,0,0,0,0,0,0,0,0,0,0,0,0,0,0,0,0,0,0,0,0,0,0,0,0,0,0,0,
0,0,0,0,0,0,0,0,0,0,0,0,0,0,0,0,0,0,0,0,0,0,0,0,0,0,0,0,0,0,0,0,0,0,0,0,0,0,0,0,0,0,0,0,0,0,0,0,0,0,0,0,0,0,0,0,0,0,0,0,0,0,0,0,0,0,0,0,0,1863,1864,1865,1465,1466,1467,1465,1466,1467,1465,3221227203,3221227202,3221227201,0,0,0,0,0,0,0,0,0,0,0,0,0,0,0,0,0,0,0,0,0,0,0,0,0,0,0,0,0,0,0,0,0,0,0,0,0,0,0,0,0,0,0,0,0,0,0,0,0,0,0,0,0,0,0,0,0,0,0,0,0,0,0,0,0,0,0,0,
0,0,0,0,0,0,0,0,0,0,0,0,0,0,0,0,0,0,0,0,0,0,0,0,0,0,0,0,0,0,0,0,0,0,0,0,0,0,0,0,0,0,0,0,0,0,0,0,0,0,0,0,0,0,0,0,0,0,0,0,0,0,0,0,0,0,0,0,0,1930,1931,1932,1465,1466,1467,1465,1466,1467,1465,3221227136,3221227135,3221227134,0,0,0,0,0,0,0,0,0,0,0,0,0,0,0,0,0,0,0,0,0,0,0,0,0,0,0,0,0,0,0,0,0,0,0,0,0,0,0,0,0,0,0,0,0,0,0,0,0,0,0,0,0,0,0,0,0,0,0,0,0,0,0,0,0,0,0,0,
0,0,0,0,0,0,0,0,0,0,0,0,0,0,0,0,0,0,0,0,0,0,0,0,0,0,0,0,0,0,0,0,0,0,0,0,0,0,0,0,0,0,0,0,0,0,0,0,0,0,0,0,0,0,0,0,0,0,0,0,0,0,0,0,0,0,0,0,0,1997,1998,1999,1465,1466,1467,1465,1466,1467,1465,3221227069,3221227068,3221227067,0,0,0,0,0,0,0,0,0,0,0,0,0,0,0,0,0,0,0,0,0,0,0,0,0,0,0,0,0,0,0,0,0,0,0,0,0,0,0,0,0,0,0,0,0,0,0,0,0,0,0,0,0,0,0,0,0,0,0,0,0,0,0,0,0,0,0,0,
0,0,0,0,0,0,0,0,0,0,0,0,0,0,0,0,0,0,0,0,0,0,0,0,0,0,0,0,0,0,0,0,0,0,0,0,0,0,0,0,0,0,0,0,0,0,0,0,0,0,0,0,0,0,0,0,0,0,0,0,0,0,0,0,0,0,0,0,0,2064,2065,2066,1465,1466,1467,1465,1466,1467,1465,3221227002,3221227001,3221227000,0,0,0,0,0,0,0,0,0,0,0,0,0,0,0,0,0,0,0,0,0,0,0,0,0,0,0,0,0,0,0,0,0,0,0,0,0,0,0,0,0,0,0,0,0,0,0,0,0,0,0,0,0,0,0,0,0,0,0,0,0,0,0,0,0,0,0,0,
0,0,0,0,0,0,0,0,0,0,0,0,0,0,0,0,0,0,0,0,0,0,0,0,0,0,0,0,0,0,0,0,0,0,0,0,0,0,0,0,0,0,0,0,0,0,0,0,0,0,0,0,0,0,0,0,0,0,0,0,0,0,0,0,0,0,0,0,0,2131,2132,2133,1465,1466,1467,1465,1466,1467,1465,3221226935,3221226934,3221226933,0,0,0,0,0,0,0,0,0,0,0,0,0,0,0,0,0,0,0,0,0,0,0,0,0,0,0,0,0,0,0,0,0,0,0,0,0,0,0,0,0,0,0,0,0,0,0,0,0,0,0,0,0,0,0,0,0,0,0,0,0,0,0,0,0,0,0,0,
0,0,0,0,0,0,0,0,0,0,0,0,0,0,0,0,0,0,0,0,0,0,0,0,0,0,0,0,0,0,0,0,0,0,0,0,0,0,0,0,0,0,0,0,0,0,0,0,0,0,0,0,0,0,0,0,0,0,0,0,0,0,0,0,0,0,0,0,0,1461,1462,1463,1465,1466,1467,1465,1466,1467,1465,3221227605,3221227604,3221227603,0,0,0,0,0,0,0,0,0,0,0,0,0,0,0,0,0,0,0,0,0,0,0,0,0,0,0,0,0,0,0,0,0,0,0,0,0,0,0,0,0,0,0,0,0,0,0,0,0,0,0,0,0,0,0,0,0,0,0,0,0,0,0,0,0,0,0,0,
0,0,0,0,0,0,0,0,0,0,0,0,0,0,0,0,0,0,0,0,0,0,0,0,0,0,0,0,0,0,0,0,0,0,0,0,0,0,0,0,0,0,0,0,0,0,0,0,0,0,0,0,0,0,0,0,0,0,0,0,0,0,0,0,0,0,0,0,0,1528,1529,1530,1465,1466,1467,1465,1466,1467,1465,3221227538,3221227537,3221227536,0,0,0,0,0,0,0,0,0,0,0,0,0,0,0,0,0,0,0,0,0,0,0,0,0,0,0,0,0,0,0,0,0,0,0,0,0,0,0,0,0,0,0,0,0,0,0,0,0,0,0,0,0,0,0,0,0,0,0,0,0,0,0,0,0,0,0,0,
0,0,0,0,0,0,0,0,0,0,0,0,0,0,0,0,0,0,0,0,0,0,0,0,0,0,0,0,0,0,0,0,0,0,0,0,0,0,0,0,0,0,0,0,0,0,0,0,0,0,0,0,0,0,0,0,0,0,0,0,0,0,0,0,0,0,0,0,0,1595,1596,1597,1465,1466,1467,1465,1466,1467,1465,3221227471,3221227470,3221227469,0,0,0,0,0,0,0,0,0,0,0,0,0,0,0,0,0,0,0,0,0,0,0,0,0,0,0,0,0,0,0,0,0,0,0,0,0,0,0,0,0,0,0,0,0,0,0,0,0,0,0,0,0,0,0,0,0,0,0,0,0,0,0,0,0,0,0,0,
0,0,0,0,0,0,0,0,0,0,0,0,0,0,0,0,0,0,0,0,0,0,0,0,0,0,0,0,0,0,0,0,0,0,0,0,0,0,0,0,0,0,0,0,0,0,0,0,0,0,0,0,0,0,0,0,0,0,0,0,0,0,0,0,0,0,0,0,0,1662,1663,1664,1465,1466,1467,1465,1466,1467,1465,3221227404,3221227403,3221227402,0,0,0,0,0,0,0,0,0,0,0,0,0,0,0,0,0,0,0,0,0,0,0,0,0,0,0,0,0,0,0,0,0,0,0,0,0,0,0,0,0,0,0,0,0,0,0,0,0,0,0,0,0,0,0,0,0,0,0,0,0,0,0,0,0,0,0,0,
0,0,0,0,0,0,0,0,0,0,0,0,0,0,0,0,0,0,0,0,0,0,0,0,0,0,0,0,0,0,0,0,0,0,0,0,0,0,0,0,0,0,0,0,0,0,0,0,0,0,0,0,0,0,0,0,0,0,0,0,0,0,0,0,0,0,0,0,0,1729,1730,1731,1465,1466,1467,1465,1466,1467,1465,3221227337,3221227336,3221227335,0,0,0,0,0,0,0,0,0,0,0,0,0,0,0,0,0,0,0,0,0,0,0,0,0,0,0,0,0,0,0,0,0,0,0,0,0,0,0,0,0,0,0,0,0,0,0,0,0,0,0,0,0,0,0,0,0,0,0,0,0,0,0,0,0,0,0,0,
0,0,0,0,0,0,0,0,0,0,0,0,0,0,0,0,0,0,0,0,0,0,0,0,0,0,0,0,0,0,0,0,0,0,0,0,0,0,0,0,0,0,0,0,0,0,0,0,0,0,0,0,0,0,0,0,0,0,0,0,0,0,0,0,0,0,0,0,0,1796,1797,1798,1465,1466,1467,1465,1466,1467,1465,3221227270,3221227269,3221227268,0,0,0,0,0,0,0,0,0,0,0,0,0,0,0,0,0,0,0,0,0,0,0,0,0,0,0,0,0,0,0,0,0,0,0,0,0,0,0,0,0,0,0,0,0,0,0,0,0,0,0,0,0,0,0,0,0,0,0,0,0,0,0,0,0,0,0,0,
0,0,0,0,0,0,0,0,0,0,0,0,0,0,0,0,0,0,0,0,0,0,0,0,0,0,0,0,0,0,0,0,0,0,0,0,0,0,0,0,0,0,0,0,0,0,0,0,0,0,0,0,0,0,0,0,0,0,0,0,0,0,0,0,0,0,0,0,0,1863,1864,1865,1465,1466,1467,1465,1466,1467,1465,3221227203,3221227202,3221227201,0,0,0,0,0,0,0,0,0,0,0,0,0,0,0,0,0,0,0,0,0,0,0,0,0,0,0,0,0,0,0,0,0,0,0,0,0,0,0,0,0,0,0,0,0,0,0,0,0,0,0,0,0,0,0,0,0,0,0,0,0,0,0,0,0,0,0,0,
0,0,0,0,0,0,0,0,0,0,0,0,0,0,0,0,0,0,0,0,0,0,0,0,0,0,0,0,0,0,0,0,0,0,0,0,0,0,0,0,0,0,0,0,0,0,0,0,0,0,0,0,0,0,0,0,0,0,0,0,0,0,0,0,0,0,0,0,0,1930,1931,1932,1465,1466,1467,1465,1466,1467,1465,3221227136,3221227135,3221227134,0,0,0,0,0,0,0,0,0,0,0,0,0,0,0,0,0,0,0,0,0,0,0,0,0,0,0,0,0,0,0,0,0,0,0,0,0,0,0,0,0,0,0,0,0,0,0,0,0,0,0,0,0,0,0,0,0,0,0,0,0,0,0,0,0,0,0,0,
0,0,0,0,0,0,0,0,0,0,0,0,0,0,0,0,0,0,0,0,0,0,0,0,0,0,0,0,0,0,0,0,0,0,0,0,0,0,0,0,0,0,0,0,0,0,0,0,0,0,0,0,0,0,0,0,0,0,0,0,0,0,0,0,0,0,0,0,0,1997,1998,1999,1465,1466,1467,1465,1466,1467,1465,3221227069,3221227068,3221227067,0,0,0,0,0,0,0,0,0,0,0,0,0,0,0,0,0,0,0,0,0,0,0,0,0,0,0,0,0,0,0,0,0,0,0,0,0,0,0,0,0,0,0,0,0,0,0,0,0,0,0,0,0,0,0,0,0,0,0,0,0,0,0,0,0,0,0,0,
0,0,0,0,0,0,0,0,0,0,0,0,0,0,0,0,0,0,0,0,0,0,0,0,0,0,0,0,0,0,0,0,0,0,0,0,0,0,0,0,0,0,0,0,0,0,0,0,0,0,0,0,0,0,0,0,0,0,0,0,0,0,0,0,0,0,0,0,0,2064,2065,2066,1465,1466,1467,1465,1466,1467,1465,3221227002,3221227001,3221227000,0,0,0,0,0,0,0,0,0,0,0,0,0,0,0,0,0,0,0,0,0,0,0,0,0,0,0,0,0,0,0,0,0,0,0,0,0,0,0,0,0,0,0,0,0,0,0,0,0,0,0,0,0,0,0,0,0,0,0,0,0,0,0,0,0,0,0,0,
0,0,0,0,0,0,0,0,0,0,0,0,0,0,0,0,0,0,0,0,0,0,0,0,0,0,0,0,0,0,0,0,0,0,0,0,0,0,0,0,0,0,0,0,0,0,0,0,0,0,0,0,0,0,0,0,0,1194,1195,1196,1197,1196,1197,1198,1199,1200,1198,1199,1200,1196,1529,1530,1465,1466,1467,1465,1466,1467,1465,3221227002,3221227001,1200,1196,1197,1198,1200,1197,1198,1199,1200,1201,1197,1198,1199,1200,1201,1202,1200,1201,1202,1197,1198,1199,1200,1201,1202,1197,1198,1199,1200,1201,1202,1197,1198,1199,1200,1201,1202,1197,1198,1199,1200,1201,1202,1197,1198,1199,1200,1201,1202,1197,1198,1199,1200,1201,1202,1197,1198,1199,1200,1201,1202,1202,1203,1204,1205,1206,0,0,0,
0,0,0,0,0,0,0,0,0,0,0,0,0,0,0,0,0,0,0,0,0,0,0,0,0,0,0,0,0,0,0,0,0,0,0,0,0,0,0,0,0,0,0,0,0,0,0,0,0,0,0,0,0,0,0,0,0,1261,1262,1263,1264,1263,1264,1265,1266,1267,1265,1266,1267,1263,1264,1265,1465,1466,1467,1465,1466,1467,1465,1265,1266,1267,1263,1264,1265,1267,1264,1265,1266,1267,1268,1264,1265,1266,1267,1268,1269,1267,1268,1269,1264,1265,1266,1267,1268,1269,1264,1265,1266,1267,1268,1269,1264,1265,1266,1267,1268,1269,1264,1265,1266,1267,1268,1269,1264,1265,1266,1267,1268,1269,1264,1265,1266,1267,1268,1269,1264,1265,1266,1267,1268,1269,1269,1270,1271,1272,1273,0,0,0,
0,0,0,0,0,0,0,0,0,0,0,0,0,0,0,0,0,0,0,0,0,0,0,0,0,0,0,0,0,0,0,0,0,0,0,0,0,0,0,0,0,0,0,0,0,0,0,0,0,0,0,0,0,0,0,0,0,1328,1329,1330,1331,1330,1331,1332,1333,1334,1332,1333,1334,1330,1331,1332,1465,1466,1467,1465,1466,1467,1465,1332,1333,1334,1330,1331,1332,1334,1331,1332,1333,1334,1335,1331,1332,1333,1334,1335,1336,1334,1335,1336,1331,1332,1333,1334,1335,1336,1331,1332,1333,1334,1335,1336,1331,1332,1333,1334,1335,1336,1331,1332,1333,1334,1335,1336,1331,1332,1333,1334,1335,1336,1331,1332,1333,1334,1335,1336,1331,1332,1333,1334,1335,1336,1336,1337,1338,1339,1340,0,0,0,
0,0,0,0,0,0,0,0,0,0,0,0,0,0,0,0,0,0,0,0,0,0,0,0,0,0,0,0,0,0,0,0,0,0,0,0,0,0,0,0,0,0,0,0,0,0,0,0,0,0,0,0,0,0,0,0,0,1395,1396,1465,1466,1467,1465,1466,1467,1465,1466,1467,1465,1466,1467,1465,1466,1467,1465,1466,1467,1465,1466,1467,1465,1466,1467,1465,1466,1467,1465,1466,1467,1465,1466,1467,1465,1466,1467,1465,1466,1467,1465,1466,1467,1465,1466,1467,1465,1466,1467,1465,1466,1467,1465,1466,1467,1465,1466,1467,1465,1466,1467,1465,1466,1467,1465,1466,1467,1465,1466,1467,1465,1466,1467,1465,1466,1467,1465,1466,1467,1465,1466,1467,1465,1466,1467,1465,1466,1406,1407,0,0,0,
0,0,0,0,0,0,0,0,0,0,0,0,0,0,0,0,0,0,0,0,0,0,0,0,0,0,0,0,0,0,0,0,0,0,0,0,0,0,0,0,0,0,0,0,0,0,0,0,0,0,0,0,0,0,0,0,0,1462,1463,1465,1466,1467,1465,1466,1467,1465,1466,1467,1465,1466,1467,1465,1466,1467,1465,1466,1467,1465,1466,1467,1465,1466,1467,1465,1466,1467,1465,1466,1467,1465,1466,1467,1465,1466,1467,1465,1466,1467,1465,1466,1467,1465,1466,1467,1465,1466,1467,1465,1466,1467,1465,1466,1467,1465,1466,1467,1465,1466,1467,1465,1466,1467,1465,1466,1467,1465,1466,1467,1465,1466,1467,1465,1466,1467,1465,1466,1467,1465,1466,1467,1465,1466,1467,1465,1466,1473,1474,0,0,0,
0,0,0,0,0,0,0,0,0,0,0,0,0,0,0,0,0,0,0,0,0,0,0,0,0,0,0,0,0,0,0,0,0,0,0,0,0,0,0,0,0,0,0,0,0,0,0,0,0,0,0,0,0,0,0,0,0,1395,1396,1465,1466,1467,1465,1466,1467,1465,1466,1467,1465,1466,1467,1465,1466,1467,1465,1466,1467,1465,1466,1467,1465,1466,1467,1465,1466,1467,1465,1466,1467,1465,1466,1467,1465,1466,1467,1465,1466,1467,1465,1466,1467,1465,1466,1467,1465,1466,1467,1465,1466,1467,1465,1466,1467,1465,1466,1467,1465,1466,1467,1465,1466,1467,1465,1466,1467,1465,1466,1467,1465,1466,1467,1465,1466,1467,1465,1466,1467,1465,1466,1467,1465,1466,1467,1465,1466,1473,1474,0,0,0,
0,0,0,0,0,0,0,0,0,0,0,0,0,0,0,0,0,0,0,0,0,0,0,0,0,0,0,0,0,0,0,0,0,0,0,0,0,0,0,0,0,0,0,0,0,0,0,0,0,0,0,0,0,0,0,0,0,1462,1463,1465,1466,1467,1465,1466,1467,1465,1466,1467,1465,1466,1467,1465,1466,1467,1465,1466,1467,1465,1466,1467,1465,1466,1467,1465,1466,1467,1465,1466,1467,1465,1466,1467,1465,1466,1467,1465,1466,1467,1465,1466,1467,1465,1466,1467,1465,1466,1467,1465,1466,1467,1465,1466,1467,1465,1466,1467,1465,1466,1467,1465,1466,1467,1465,1466,1467,1465,1466,1467,1465,1466,1467,1465,1466,1467,1465,1466,1467,1465,1466,1467,1465,1466,1467,1465,1466,1540,1541,0,0,0,
0,0,0,0,0,0,0,0,0,0,0,0,0,0,0,0,0,0,0,0,0,0,0,0,0,0,0,0,0,0,0,0,0,0,0,0,0,0,0,0,0,0,0,0,0,0,0,0,0,0,0,0,0,0,0,0,0,1529,1530,1465,1466,1467,1465,1466,1467,1465,1466,1467,1465,1466,1467,1465,1466,1467,1465,1466,1467,1465,1466,1467,1465,1466,1467,1465,1466,1467,1465,1466,1467,1465,1466,1467,1465,1466,1467,1465,1466,1467,1465,1466,1467,1465,1466,1467,1465,1466,1467,1465,1466,1467,1465,1466,1467,1465,1466,1467,1465,1466,1467,1465,1466,1467,1465,1466,1467,1465,1466,1467,1465,1466,1467,1465,1466,1467,1465,1466,1467,1465,1466,1467,1465,1466,1467,1465,1466,1473,1474,0,0,0,
0,0,0,0,0,0,0,0,0,0,0,0,0,0,0,0,0,0,0,0,0,0,0,0,0,0,0,0,0,0,0,0,0,0,0,0,0,0,0,0,0,0,0,0,0,0,0,0,0,0,0,0,0,0,0,0,0,1596,1597,1465,1466,1467,1465,1466,1467,1465,1466,1467,1465,1466,1467,1465,1466,1467,1465,1466,1467,1465,1466,1467,1465,1466,1467,1465,1466,1467,1465,1466,1467,1465,1466,1467,1465,1466,1467,1465,1466,1467,1465,1466,1467,1465,1466,1467,1465,1466,1467,1465,1466,1467,1465,1466,1467,1465,1466,1467,1465,1466,1467,1465,1466,1467,1465,1466,1467,1465,1466,1467,1465,1466,1467,1465,1466,1467,1465,1466,1467,1465,1466,1467,1465,1466,1467,1465,1466,1540,1541,0,0,0,
0,0,0,0,0,0,0,0,0,0,0,0,0,0,0,0,0,0,0,0,0,0,0,0,0,0,0,0,0,0,0,0,0,0,0,0,0,0,0,0,0,0,0,0,0,0,0,0,0,0,0,0,0,0,0,0,0,1663,1664,1465,1466,1467,1465,1466,1467,1465,1466,1467,1465,1466,1467,1465,1466,1467,1465,1466,1467,1465,1466,1467,1465,1466,1467,1465,1466,1467,1465,1466,1467,1465,1466,1467,1465,1466,1467,1465,1466,1467,1465,1466,1467,1465,1466,1467,1465,1466,1467,1465,1466,1467,1465,1466,1467,1465,1466,1467,1465,1466,1467,1465,1466,1467,1465,1466,1467,1465,1466,1467,1465,1466,1467,1465,1466,1467,1465,1466,1467,1465,1466,1467,1465,1466,1467,1465,1466,1473,1474,0,0,0,
0,0,0,0,0,0,0,0,0,0,0,0,0,0,0,0,0,0,0,0,0,0,0,0,0,0,0,0,0,0,0,0,0,0,0,0,0,0,0,0,0,0,0,0,0,0,0,0,0,0,0,0,0,0,0,0,0,1395,1396,1465,1466,1467,1465,1466,1467,1465,1466,1467,1465,1466,1467,1465,1466,1467,1465,1466,1467,1465,1466,1467,1465,1466,1467,1465,1466,1467,1465,1466,1467,1465,1466,1467,1465,1466,1467,1465,1466,1467,1465,1466,1467,1465,1466,1467,1465,1466,1467,1465,1466,1467,1465,1466,1467,1465,1466,1467,1465,1466,1467,1465,1466,1467,1465,1466,1467,1465,1466,1467,1465,1466,1467,1465,1466,1467,1465,1466,1467,1465,1466,1467,1465,1466,1467,1465,1466,1473,1474,0,0,0,
0,0,0,0,0,0,0,0,0,0,0,0,0,0,0,0,0,0,0,0,0,0,0,0,0,0,0,0,0,0,0,0,0,0,0,0,0,0,0,0,0,0,0,0,0,0,0,0,0,0,0,0,0,0,0,0,0,1462,1463,1465,1466,1467,1465,1466,1467,1465,1466,1467,1465,1466,1467,1465,1466,1467,1465,1466,1467,1465,1466,1467,1465,1466,1467,1465,1466,1467,1465,1466,1467,1465,1466,1467,1465,1466,1467,1465,1466,1467,1465,1466,1467,1465,1466,1467,1465,1466,1467,1465,1466,1467,1465,1466,1467,1465,1466,1467,1465,1466,1467,1465,1466,1467,1465,1466,1467,1465,1466,1467,1465,1466,1467,1465,1466,1467,1465,1466,1467,1465,1466,1467,1465,1466,1467,1465,1466,1540,1541,0,0,0,
0,0,0,0,0,0,0,0,0,0,0,0,0,0,0,0,0,0,0,0,0,0,0,0,0,0,0,0,0,0,0,0,0,0,0,0,0,0,0,0,0,0,0,0,0,0,0,0,0,0,0,0,0,0,0,0,0,1529,1530,1465,1466,1467,1465,1466,1467,1465,1466,1467,1465,1466,1467,1465,1466,1467,1465,1466,1467,1465,1466,1467,1465,1466,1467,1465,1466,1467,1465,1466,1467,1465,1466,1467,1465,1466,1467,1465,1466,1467,1465,1466,1467,1465,1466,1467,1465,1466,1467,1465,1466,1467,1465,1466,1467,1465,1466,1467,1465,1466,1467,1465,1466,1467,1465,1466,1467,1465,1466,1467,1465,1466,1467,1465,1466,1467,1465,1466,1467,1465,1466,1467,1465,1466,1467,1465,1466,1473,1474,0,0,0,
0,0,0,0,0,0,0,0,0,0,0,0,0,0,0,0,0,0,0,0,0,0,0,0,0,0,0,0,0,0,0,0,0,0,0,0,0,0,0,0,0,0,0,0,0,0,0,0,0,0,0,0,0,0,0,0,0,1596,1597,1465,1466,1467,1465,1466,1467,5569,5570,5571,5572,5569,5570,5571,5572,5569,5570,5571,5572,1465,1466,1467,1465,1466,1467,1465,1466,1467,1465,1466,1467,1465,1466,1467,1465,1466,1467,1465,1466,1467,1465,1466,1467,1465,1466,1467,1465,1466,1467,1465,1466,1467,1465,1466,1467,1465,1466,1467,1465,1466,1467,1465,1466,1467,1465,1466,1467,1465,1466,1467,1465,1466,1467,1465,1466,1467,1465,1466,1467,1465,1466,1467,1465,1466,1467,1465,1466,1540,1541,0,0,0,
0,0,0,0,0,0,0,0,0,0,0,0,0,0,0,0,0,0,0,0,0,0,0,0,0,0,0,0,0,0,0,0,0,0,0,0,0,0,0,0,0,0,0,0,0,0,0,0,0,0,0,0,0,0,0,0,0,1663,1664,1465,1466,1467,1465,1466,1467,1465,1466,1467,1465,1466,1467,1465,1466,1467,1465,1466,1467,1465,1466,1467,1465,1466,1467,1465,1466,1467,1465,1466,1467,1465,1466,1467,1465,1466,1467,1465,1466,1467,1465,1466,1467,1465,1466,1467,1465,1466,1467,1465,1466,1467,1465,1466,1467,1465,1466,1467,1465,1466,1467,1465,1466,1467,1465,1466,1467,1465,1466,1467,1465,1466,1467,1465,1466,1467,1465,1466,1467,1465,1466,1467,1465,1466,1467,1465,1466,1473,1474,0,0,0,
0,0,0,0,0,0,0,0,0,0,0,0,0,0,0,0,0,0,0,0,0,0,0,0,0,0,0,0,0,0,0,0,0,0,0,0,0,0,0,0,0,0,0,0,0,0,0,0,0,0,0,0,0,0,0,0,0,1395,1396,1465,1466,1467,1465,1466,1467,1465,1466,1467,1465,1466,1467,1465,1466,1467,1465,1466,1467,1465,1466,1467,1465,1466,1467,1465,1466,1467,1465,1466,1467,1465,1466,1467,1465,1466,1467,1465,1466,1467,1465,1466,1467,1465,1466,1467,1465,1466,1467,1465,1466,1467,1465,1466,1467,1465,1466,1467,1465,1466,1467,1465,1466,1467,1465,1466,1467,1465,1466,1467,1465,1466,1467,1465,1466,1467,1465,1466,1467,1465,1466,1467,1465,1466,1467,1465,1466,1540,1541,0,0,0,
0,0,0,0,0,0,0,0,0,0,0,0,0,0,0,0,0,0,0,0,0,0,0,0,0,0,0,0,0,0,0,0,0,0,0,0,0,0,0,0,0,0,0,0,0,0,0,0,0,0,0,0,0,0,0,0,0,1462,1463,1465,1466,1467,1465,1466,1467,1465,1466,1467,1465,1466,1467,1465,1466,1467,1465,1466,1467,1465,1466,1467,1465,1466,1467,1465,1466,1467,1465,1466,1467,1465,1466,1467,1465,1466,1467,1465,1466,1467,1465,1466,1467,1465,1466,1467,1465,1466,1467,1465,1466,1467,1465,1466,1467,1465,1466,1467,1465,1466,1467,1465,1466,1467,1465,1466,1467,1465,1466,1467,1465,1466,1467,1465,5569,5570,5571,5572,5569,5570,5571,5572,1465,1466,1467,1465,1466,1473,1474,0,0,0,
0,0,0,0,0,0,0,0,0,0,0,0,0,0,0,0,0,0,0,0,0,0,0,0,0,0,0,0,0,0,0,0,0,0,0,0,0,0,0,0,0,0,0,0,0,0,0,0,0,0,0,0,0,0,0,0,0,1529,1530,1465,1466,1467,1465,1466,1467,1465,1466,1467,1465,1466,1467,1465,1466,1467,1465,1466,1467,1465,1466,1467,1465,1466,1467,1465,1466,1467,1465,1466,1467,1465,1466,1467,1465,1466,1467,1465,1466,1467,1465,1466,1467,1465,1466,1467,1465,1466,1467,1465,1466,1467,1465,1466,1467,1465,1466,1467,1465,1466,1467,1465,1466,1467,1465,1466,1467,1465,1466,1467,1465,1466,1467,1465,1466,1467,1465,1466,1467,1465,1466,1467,1465,1466,1467,1465,1466,1540,1541,0,0,0,
0,0,0,0,0,0,0,0,0,0,0,0,0,0,0,0,0,0,0,0,0,0,0,0,0,0,0,0,0,0,0,0,0,0,0,0,0,0,0,0,0,0,0,0,0,0,0,0,0,0,0,0,0,0,0,0,0,1596,1597,1465,1466,1467,1465,1466,1467,1465,1466,1467,1465,1466,1467,1465,1466,1467,1465,1466,1467,1465,1466,1467,1465,1466,1467,1465,1466,1467,1465,1466,1467,1465,1466,1467,1465,1466,1467,1465,1466,1467,1465,1466,5569,5570,5571,5572,5569,5570,5571,5572,1466,1467,1465,1466,1467,1465,1466,1467,1465,1466,1467,1465,1466,1467,1465,1466,1467,1465,1466,1467,1465,1466,1467,1465,1466,1467,1465,1466,1467,1465,1466,1467,1465,1466,1467,1465,1466,1473,1474,0,0,0,
0,0,0,0,0,0,0,0,0,0,0,0,0,0,0,0,0,0,0,0,0,0,0,0,0,0,0,0,0,0,0,0,0,0,0,0,0,0,0,0,0,0,0,0,0,0,0,0,0,0,0,0,0,0,0,0,0,1663,1664,1465,1466,1467,1465,1466,1467,1465,1466,1467,1465,1466,1467,1465,1466,1467,1465,1466,1467,1465,1466,1467,1465,1466,1467,1465,1466,1467,1465,1466,1467,1465,1466,1467,1465,1466,1467,1465,1466,1467,1465,1466,1467,1465,1466,1467,1465,1466,1467,1465,1466,1467,1465,1466,1467,1465,1466,1467,1465,1466,1467,1465,1466,1467,1465,1466,1467,1465,1466,1467,1465,1466,1467,1465,1466,1467,1465,1466,1467,1465,1466,1467,1465,1466,1467,1465,1466,1540,1541,0,0,0,
0,0,0,0,0,0,0,0,0,0,0,0,0,0,0,0,0,0,0,0,0,0,0,0,0,0,0,0,0,0,0,0,0,0,0,0,0,0,0,0,0,0,0,0,0,0,0,0,0,0,0,0,0,0,0,0,0,1395,1396,1465,1466,1467,1465,1466,1467,1465,1466,1467,1465,1466,1467,1465,1466,1467,1465,1466,1467,1465,1466,1467,1465,1466,1467,1465,1466,1467,1465,1466,1467,1465,1466,1467,1465,1466,1467,1465,1466,1467,1465,1466,1467,1465,1466,1467,1465,1466,1467,1465,1466,1467,1465,1466,1467,1465,1466,1467,1465,1466,1467,1465,1466,1467,1465,1466,1467,1465,1466,1467,1465,1466,1467,1465,1466,1467,1465,1466,1467,1465,1466,1467,1465,1466,1467,1465,1466,1473,1474,0,0,0,
0,0,0,0,0,0,0,0,0,0,0,0,0,0,0,0,0,0,0,0,0,0,0,0,0,0,0,0,0,0,0,0,0,0,0,0,0,0,0,0,0,0,0,0,0,0,0,0,0,0,0,0,0,0,0,0,0,1462,1463,1465,1466,1467,1465,1466,1467,1465,1466,1467,1465,1466,1467,1465,1466,1467,1465,1466,1467,1465,1466,1467,1465,1466,1467,1465,1466,1467,1465,1466,1467,1465,1466,1467,1465,1466,1467,1465,1466,1467,1465,1466,1467,1465,1466,1467,1465,1466,1467,1465,1466,1467,1465,1466,1467,1465,1466,1467,1465,1466,1467,1465,1466,1467,1465,1466,1467,1465,1466,1467,1465,1466,1467,1465,1466,1467,1465,1466,1467,1465,1466,1467,1465,1466,1467,1465,1466,1540,1541,0,0,0,
0,0,0,0,0,0,0,0,0,0,0,0,0,0,0,0,0,0,0,0,0,0,0,0,0,0,0,0,0,0,0,0,0,0,0,0,0,0,0,0,0,0,0,0,0,0,0,0,0,0,0,0,0,0,0,0,0,1529,1530,1465,1466,1467,1465,1466,1467,1465,1466,1467,1465,1466,1467,1465,1466,1467,1465,1466,1467,1465,1466,1467,1465,1466,1467,1465,1466,1467,1465,1466,1467,1465,1466,1467,1465,1466,1467,1465,1466,1467,1465,1466,1467,1465,1466,1467,1465,1466,1467,1465,1466,1467,1465,1466,1467,1465,1466,1467,1465,1466,1467,1465,1466,1467,1465,1466,1467,1465,1466,1467,1465,1466,1467,1465,1466,1467,1465,1466,1467,1465,1466,1467,1465,1466,1467,1465,1466,1473,1474,0,0,0,
0,0,0,0,0,0,0,0,0,0,0,0,0,0,0,0,0,0,0,0,0,0,0,0,0,0,0,0,0,0,0,0,0,0,0,0,0,0,0,0,0,0,0,0,0,0,0,0,0,0,0,0,0,0,0,0,0,1596,1597,1465,1466,1467,1465,1466,1467,1465,1466,1467,1465,1466,1467,1465,1466,1467,1465,1466,1467,1465,1466,1467,1465,1466,1467,1465,1466,1467,1465,1466,1467,1465,1466,1467,1465,1466,1467,1465,1466,1467,1465,1466,1467,1465,1466,1467,1465,1466,1467,1465,1466,1467,1465,1466,1467,1465,1466,1467,1465,1466,1467,1465,1466,1467,1465,1466,1467,1465,1466,1467,1465,1466,1467,1465,1466,1467,1465,1466,1467,1465,1466,1467,1465,1466,1467,1465,1466,1540,1541,0,0,0,
0,0,0,0,0,0,0,0,0,0,0,0,0,0,0,0,0,0,0,0,0,0,0,0,0,0,0,0,0,0,0,0,0,0,0,0,0,0,0,0,0,0,0,0,0,0,0,0,0,0,0,0,0,0,0,0,0,1663,1664,1465,1466,1467,1465,1466,1467,1465,1466,1467,1465,1466,1467,1465,1466,1467,1465,1466,1467,1465,1466,1467,1465,1466,1467,1465,1466,1467,1465,1466,1467,1465,1466,1467,1465,1466,1467,1465,1466,1467,1465,1466,1467,1465,1466,1467,1465,1466,1467,1465,1466,1467,1465,1466,1467,1465,1466,1467,1465,1466,1467,1465,1466,1467,1465,1466,1467,1465,1466,1467,1465,1466,1467,1465,1466,1467,1465,1466,1467,1465,1466,1467,1465,1466,1467,1465,1466,1473,1474,0,0,0,
0,0,0,0,0,0,0,0,0,0,0,0,0,0,0,0,0,0,0,0,0,0,0,0,0,0,0,0,0,0,0,0,0,0,0,0,0,0,0,0,0,0,0,0,0,0,0,0,0,0,0,0,0,0,0,0,0,1395,1396,1465,1466,1467,1465,1466,1467,1465,1466,1467,1465,1466,1467,1465,1466,1467,1465,1466,1467,1465,1466,1467,1465,1466,1467,1465,1466,1467,1465,1466,1467,1465,1466,1467,1465,1466,1467,1465,1466,1467,1465,1466,1467,1465,1466,1467,1465,1466,1467,1465,1466,1467,1465,1466,1467,1465,1466,1467,1465,1466,1467,1465,1466,1467,1465,1466,1467,1465,1466,1467,1465,1466,1467,1465,1466,1467,1465,1466,1467,1465,1466,1467,1465,1466,1467,1465,1466,1540,1541,0,0,0,
0,0,0,0,0,0,0,0,0,0,0,0,0,0,0,0,0,0,0,0,0,0,0,0,0,0,0,0,0,0,0,0,0,0,0,0,0,0,0,0,0,0,0,0,0,0,0,0,0,0,0,0,0,0,0,0,0,1462,1463,1465,1466,1467,1465,1466,1467,1465,1466,1467,1465,1466,1467,1465,1466,1467,1465,1466,1467,1465,1466,1467,1465,1466,1467,1465,1466,1467,1465,1466,1467,1465,1466,1467,1465,1466,1467,1465,1466,1467,1465,1466,1467,1465,1466,1467,1465,1466,1467,1465,1466,1467,1465,1466,1467,1465,1466,1467,1465,1466,1467,1465,1466,1467,1465,1466,1467,1465,1466,1467,1465,1466,1467,1465,1466,1467,1465,1466,1467,1465,1466,1467,1465,1466,1467,1465,1466,1473,1474,0,0,0,
0,0,0,0,0,0,0,0,0,0,0,0,0,0,0,0,0,0,0,0,0,0,0,0,0,0,0,0,0,0,0,0,0,0,0,0,0,0,0,0,0,0,0,0,0,0,0,0,0,0,0,0,0,0,0,0,0,1529,1530,1465,1466,1467,1465,1466,1467,1465,1466,1467,1465,1466,1467,1465,1466,1467,1465,1466,1467,1465,1466,1467,1465,1466,1467,1465,1466,1467,1465,1466,1467,1465,1466,1467,1465,1466,1467,1465,1466,1467,1465,1466,1467,1465,1466,1467,1465,1466,1467,1465,1466,1467,1465,1466,1467,1465,1466,1467,1465,1466,1467,1465,1466,1467,1465,1466,1467,1465,1466,1467,1465,1466,1467,1465,1466,1467,1465,1466,1467,1465,1466,1467,1465,1466,1467,1465,1466,1540,1541,0,0,0,
0,0,0,0,0,0,0,0,0,0,0,0,0,0,0,0,0,0,0,0,0,0,0,0,0,0,0,0,0,0,0,0,0,0,0,0,0,0,0,0,0,0,0,0,0,0,0,0,0,0,0,0,0,0,0,0,0,1596,1597,1465,1466,1467,1465,1466,1467,1465,1466,1467,1465,1466,1467,1465,1466,1467,1465,1466,1467,1465,1466,1467,1465,1466,1467,1465,1466,1467,1465,1466,1467,1465,1466,1467,1465,1466,1467,1465,1466,1467,1465,1466,1467,1465,1466,1467,1465,1466,1467,1465,1466,1467,1465,1466,1467,1465,1466,1467,1465,1466,1467,1465,1466,1467,1465,1466,1467,1465,1466,1467,1465,1466,1467,1465,1466,1467,1465,1466,1467,1465,1466,1467,1465,1466,1467,1465,1466,1473,1474,0,0,0,
0,0,0,0,0,0,0,0,0,0,0,0,0,0,0,0,0,0,0,0,0,0,0,0,0,0,0,0,0,0,0,0,0,0,0,0,0,0,0,0,0,0,0,0,0,0,0,0,0,0,0,0,0,0,0,0,0,1663,1664,1465,1466,1467,1465,1466,1467,1465,1466,1467,1465,1466,1467,1465,1466,1467,1465,1466,1467,1465,1466,1467,1465,1466,1467,1465,1466,1467,1465,1466,1467,1465,1466,1467,1465,1466,1467,1465,1466,1467,1465,1466,1467,1465,1466,1467,1465,1466,1467,1465,1466,1467,1465,1466,1467,1465,1466,1467,1465,1466,1467,1465,1466,1467,1465,1466,1467,1465,1466,1467,1465,1466,1467,1465,1466,1467,1465,1466,1467,1465,1466,1467,1465,1466,1467,1465,1466,1540,1541,0,0,0,
0,0,0,0,0,0,0,0,0,0,0,0,0,0,0,0,0,0,0,0,0,0,0,0,0,0,0,0,0,0,0,0,0,0,0,0,0,0,0,0,0,0,0,0,0,0,0,0,0,0,0,0,0,0,0,0,0,1395,1396,1465,1466,1467,1465,1466,1467,1465,1466,1467,1465,1466,1467,1465,1466,1467,1465,1466,1467,1465,1466,1467,1465,1466,1467,1465,1466,1467,1465,1466,1467,1465,1466,1467,1465,1466,1467,1465,1466,1467,1465,1466,1467,1465,1466,1467,1465,1466,1467,1465,1466,1467,1465,1466,1467,1465,1466,1467,1465,1466,1467,1465,1466,1467,1465,1466,1467,1465,1466,1467,1465,1466,1467,1465,1466,1467,1465,1466,1467,1465,1466,1467,1465,1466,1467,1465,1466,1473,1474,0,0,0,
0,0,0,0,0,0,0,0,0,0,0,0,0,0,0,0,0,0,0,0,0,0,0,0,0,0,0,0,0,0,0,0,0,0,0,0,0,0,0,0,0,0,0,0,0,0,0,0,0,0,0,0,0,0,0,0,0,1462,1463,1465,1466,1467,1465,1466,1467,1465,1466,1467,1465,1466,1467,1465,1466,1467,1465,1466,1467,1465,1466,1467,1465,1466,1467,1465,1466,1467,1465,1466,1467,1465,1466,1467,1465,1466,1467,1465,1466,1467,1465,1466,1467,1465,1466,1467,1465,1466,1467,1465,1466,1467,1465,1466,1467,1465,1466,1467,1465,1466,1467,1465,1466,1467,1465,1466,1467,1465,1466,1467,1465,1466,1467,1465,1466,1467,1465,1466,1467,1465,1466,1467,1465,1466,1467,1465,1466,1540,1541,0,0,0,
0,0,0,0,0,0,0,0,0,0,0,0,0,0,0,0,0,0,0,0,0,0,0,0,0,0,0,0,0,0,0,0,0,0,0,0,0,0,0,0,0,0,0,0,0,0,0,0,0,0,0,0,0,0,0,0,0,1529,1530,1465,1466,1467,1465,1466,1467,1465,5569,5570,5571,5572,5569,5570,5571,5572,1465,1466,1467,1465,1466,1467,1465,1466,1467,1465,1466,1467,1465,1466,1467,1465,1466,1467,1465,1466,1467,1465,1466,1467,1465,1466,1467,1465,1466,1467,1465,1466,1467,1465,1466,1467,1465,1466,1467,1465,1466,1467,1465,1466,1467,1465,1466,1467,1465,1466,1467,1465,1466,1467,1465,1466,1467,1465,1466,1467,1465,1466,1467,1465,1466,1467,1465,1466,1467,1465,1466,1473,1474,0,0,0,
0,0,0,0,0,0,0,0,0,0,0,0,0,0,0,0,0,0,0,0,0,0,0,0,0,0,0,0,0,0,0,0,0,0,0,0,0,0,0,0,0,0,0,0,0,0,0,0,0,0,0,0,0,0,0,0,0,1596,1597,1465,1466,1467,1465,1466,1467,1465,1466,1467,1465,1466,1467,1465,1466,1467,1465,1466,1467,1465,1466,1467,1465,1466,1467,1465,1466,1467,1465,1466,1467,1465,1466,1467,1465,1466,1467,1465,1466,1467,1465,1466,1467,1465,1466,1467,1465,1466,1467,1465,1466,1467,1465,1466,1467,1465,1466,1467,1465,1466,1467,1465,1466,1467,1465,1466,1467,1465,1466,1467,1465,1466,1467,1465,1466,1467,1465,1466,1467,1465,1466,1467,1465,1466,1467,1465,1466,1540,1541,0,0,0,
0,0,0,0,0,0,0,0,0,0,0,0,0,0,0,0,0,0,0,0,0,0,0,0,0,0,0,0,0,0,0,0,0,0,0,0,0,0,0,0,0,0,0,0,0,0,0,0,0,0,0,0,0,0,0,0,0,1663,1664,1465,1466,1467,1465,1466,1467,1465,1466,1467,1465,1466,1467,1465,1466,1467,1465,1466,1467,1465,1466,1467,1465,1466,1467,1465,1466,1467,1465,1466,1467,1465,1466,1467,5569,5570,5571,5572,5569,5570,5571,5572,1467,1465,1466,1467,1465,1466,1467,1465,1466,1467,1465,1466,1467,1465,1466,1467,1465,1466,1467,1465,1466,1467,1465,1466,1467,1465,1466,1467,1465,1466,1467,1465,1466,1467,1465,1466,1467,1465,1466,1467,1465,1466,1467,1465,1466,1473,1474,0,0,0,
0,0,0,0,0,0,0,0,0,0,0,0,0,0,0,0,0,0,0,0,0,0,0,0,0,0,0,0,0,0,0,0,0,0,0,0,0,0,0,0,0,0,0,0,0,0,0,0,0,0,0,0,0,0,0,0,0,1395,1396,1465,1466,1467,1465,1466,1467,1465,1466,1467,1465,1466,1467,1465,1466,1467,1465,1466,1467,1465,1466,1467,1465,1466,1467,1465,1466,1467,1465,1466,1467,1465,1466,1467,1465,1466,1467,1465,1466,1467,1465,1466,1467,1465,1466,1467,1465,1466,1467,1465,1466,1467,1465,1466,1467,1465,1466,1467,1465,1466,1467,1465,1466,1467,1465,1466,1467,1465,1466,1467,1465,1466,1467,1465,1466,1467,1465,1466,1467,1465,1466,1467,1465,1466,1467,1465,1466,1540,1541,0,0,0,
0,0,0,0,0,0,0,0,0,0,0,0,0,0,0,0,0,0,0,0,0,0,0,0,0,0,0,0,0,0,0,0,0,0,0,0,0,0,0,0,0,0,0,0,0,0,0,0,0,0,0,0,0,0,0,0,0,1462,1463,1465,1466,1467,1465,1466,1467,1465,1466,1467,1465,1466,1467,1465,1466,1467,1465,1466,1467,1465,1466,1467,1465,1466,1467,1465,1466,1467,1465,1466,1467,1465,1466,1467,1465,1466,1467,1465,1466,1467,1465,1466,1467,1465,1466,1467,1465,1466,1467,1465,1466,1467,1465,1466,1467,1465,1466,1467,1465,1466,1467,1465,1466,1467,1465,1466,1467,1465,1466,1467,1465,1466,1467,1465,1466,1467,1465,1466,1467,1465,1466,1467,1465,1466,1467,1465,1466,1473,1474,0,0,0,
0,0,0,0,0,0,0,0,0,0,0,0,0,0,0,0,0,0,0,0,0,0,0,0,0,0,0,0,0,0,0,0,0,0,0,0,0,0,0,0,0,0,0,0,0,0,0,0,0,0,0,0,0,0,0,0,0,1529,1530,1465,1466,1467,1465,1466,1467,1465,1466,1467,1465,1466,1467,1465,1466,1467,1465,1466,1467,1465,1466,1467,1465,1466,1467,1465,1466,1467,1465,1466,1467,1465,1466,1467,1465,1466,1467,1465,1466,1467,1465,1466,1467,1465,1466,1467,1465,1466,1467,1465,1466,1467,1465,1466,1467,1465,1466,1467,1465,1466,1467,1465,1466,1467,1465,1466,1467,1465,1466,1467,1465,1466,1467,1465,1466,1467,1465,1466,1467,1465,1466,1467,1465,1466,1467,1465,1466,1540,1541,0,0,0,
0,0,0,0,0,0,0,0,0,0,0,0,0,0,0,0,0,0,0,0,0,0,0,0,0,0,0,0,0,0,0,0,0,0,0,0,0,0,0,0,0,0,0,0,0,0,0,0,0,0,0,0,0,0,0,0,0,1596,1597,1465,1466,1467,1465,1466,1467,1465,1466,1467,1465,1466,1467,1465,1466,1467,1465,1466,1467,1465,1466,1467,1465,1466,1467,1465,1466,1467,1465,1466,1467,1465,1466,1467,1465,1466,1467,1465,1466,1467,1465,1466,1467,1465,1466,1467,1465,1466,1467,1465,1466,1467,1465,1466,1467,1465,1466,1467,1465,1466,1467,1465,1466,1467,1465,1466,1467,1465,1466,1467,1465,1466,1467,1465,1466,1467,1465,1466,1467,1465,1466,1467,1465,1466,1467,1465,1466,1473,1474,0,0,0,
0,0,0,0,0,0,0,0,0,0,0,0,0,0,0,0,0,0,0,0,0,0,0,0,0,0,0,0,0,0,0,0,0,0,0,0,0,0,0,0,0,0,0,0,0,0,0,0,0,0,0,0,0,0,0,0,0,1663,1664,1465,1466,1467,1465,1466,1467,1465,1466,1467,1465,1466,1467,1465,1466,1467,1465,1466,1467,1465,1466,1467,1465,1466,1467,1465,1466,1467,1465,1466,1467,1465,1466,1467,1465,1466,1467,1465,1466,1467,1465,1466,1467,1465,1466,1467,1465,1466,1467,1465,1466,1467,1465,1466,1467,1465,1466,1467,1465,1466,1467,1465,1466,5569,5570,5571,5572,5569,5570,5571,5572,1466,1467,1465,1466,1467,1465,1466,1467,1465,1466,1467,1465,1466,1467,1465,1466,1540,1541,0,0,0,
0,0,0,0,0,0,0,0,0,0,0,0,0,0,0,0,0,0,0,0,0,0,0,0,0,0,0,0,0,0,0,0,0,0,0,0,0,0,0,0,0,0,0,0,0,0,0,0,0,0,0,0,0,0,0,0,0,1395,1396,1465,1466,1467,1465,1466,1467,1465,1466,1467,1465,1466,1467,1465,1466,1467,1465,1466,1467,1465,1466,1467,1465,1466,1467,1465,1466,1467,1465,1466,1467,1465,1466,1467,1465,1466,1467,1465,1466,1467,1465,1466,1467,1465,1466,1467,1465,1466,1467,1465,1466,1467,1465,1466,1467,1465,1466,1467,1465,1466,1467,1465,1466,1467,1465,1466,1467,1465,1466,1467,1465,1466,1467,1465,1466,1467,1465,1466,1467,1465,1466,1467,1465,1466,1467,1465,1466,1473,1474,0,0,0,
0,0,0,0,0,0,0,0,0,0,0,0,0,0,0,0,0,0,0,0,0,0,0,0,0,0,0,0,0,0,0,0,0,0,0,0,0,0,0,0,0,0,0,0,0,0,0,0,0,0,0,0,0,0,0,0,0,1462,1463,1465,1466,1467,1465,1466,1467,1465,1466,1467,1465,1466,1467,1465,1466,1467,1465,1466,1467,1465,1466,1467,1465,1466,1467,1465,1466,1467,1465,1466,1467,1465,1466,1467,1465,1466,1467,1465,1466,1467,1465,1466,1467,1465,1466,1467,1465,1466,1467,1465,1466,1467,1465,1466,1467,1465,1466,1467,1465,1466,1467,1465,1466,1467,1465,1466,1467,1465,1466,1467,1465,1466,1467,1465,1466,1467,1465,1466,1467,1465,1466,1467,1465,1466,1467,1465,1466,1540,1541,0,0,0,
0,0,0,0,0,0,0,0,0,0,0,0,0,0,0,0,0,0,0,0,0,0,0,0,0,0,0,0,0,0,0,0,0,0,0,0,0,0,0,0,0,0,0,0,0,0,0,0,0,0,0,0,0,0,0,0,0,1529,1530,1465,1466,1467,1465,1466,1467,1465,1466,1467,1465,1466,1467,1465,1466,1467,1465,1466,1467,1465,1466,1467,1465,1466,1467,1465,1466,1467,1465,1466,1467,1465,1466,1467,1465,1466,1467,1465,1466,1467,1465,1466,1467,1465,1466,1467,1465,1466,1467,1465,1466,1467,1465,1466,1467,1465,1466,1467,1465,1466,1467,1465,1466,1467,1465,1466,1467,1465,1466,1467,1465,1466,1467,1465,1466,1467,1465,1466,1467,1465,1466,1467,1465,1466,1467,1465,1466,1473,1474,0,0,0,
0,0,0,0,0,0,0,0,0,0,0,0,0,0,0,0,0,0,0,0,0,0,0,0,0,0,0,0,0,0,0,0,0,0,0,0,0,0,0,0,0,0,0,0,0,0,0,0,0,0,0,0,0,0,0,0,0,1596,1597,1465,1466,1467,1465,1466,1467,1465,1466,1467,1465,1466,1467,1465,1466,1467,1465,1466,1467,1465,1466,1467,1465,1466,1467,1465,1466,1467,1465,1466,1467,1465,1466,1467,1465,1466,1467,1465,1466,1467,1465,1466,1467,1465,1466,1467,1465,1466,1467,1465,1466,1467,1465,1466,1467,1465,1466,1467,1465,1466,1467,1465,1466,1467,1465,1466,1467,1465,1466,1467,1465,1466,1467,1465,1466,1467,1465,1466,1467,1465,1466,1467,1465,1466,1467,1465,1466,1540,1541,0,0,0,
0,0,0,0,0,0,0,0,0,0,0,0,0,0,0,0,0,0,0,0,0,0,0,0,0,0,0,0,0,0,0,0,0,0,0,0,0,0,0,0,0,0,0,0,0,0,0,0,0,0,0,0,0,0,0,0,0,1663,1664,1465,1466,1467,1465,1466,1467,1465,1466,1467,1465,1466,1467,1465,1466,1467,1465,1466,1467,1465,1466,1467,1465,1466,1467,1465,1466,1467,1465,1466,1467,1465,1466,1467,1465,1466,1467,1465,1466,1467,1465,1466,1467,1465,1466,1467,1465,1466,1467,1465,1466,1467,1465,1466,1467,1465,1466,1467,1465,1466,1467,1465,1466,1467,1465,1466,1467,1465,1466,1467,1465,1466,1467,1465,1466,1467,1465,1466,1467,1465,1466,1467,1465,1466,1467,1465,1466,1473,1474,0,0,0,
0,0,0,0,0,0,0,0,0,0,0,0,0,0,0,0,0,0,0,0,0,0,0,0,0,0,0,0,0,0,0,0,0,0,0,0,0,0,0,0,0,0,0,0,0,0,0,0,0,0,0,0,0,0,0,0,0,1395,1396,1465,1466,1467,1465,1466,1467,1465,1466,1467,1465,1466,1467,1465,1466,1467,1465,1466,1467,1465,1466,1467,1465,1466,1467,1465,1466,1467,1465,1466,1467,1465,1466,1467,1465,1466,1467,1465,1466,1467,1465,1466,1467,1465,1466,1467,1465,1466,1467,1465,1466,1467,1465,1466,1467,1465,1466,1467,1465,1466,1467,1465,1466,1467,1465,1466,1467,1465,1466,1467,1465,1466,1467,1465,1466,1467,1465,1466,1467,1465,1466,1467,1465,1466,1467,1465,1466,1540,1541,0,0,0,
0,0,0,0,0,0,0,0,0,0,0,0,0,0,0,0,0,0,0,0,0,0,0,0,0,0,0,0,0,0,0,0,0,0,0,0,0,0,0,0,0,0,0,0,0,0,0,0,0,0,0,0,0,0,0,0,0,1462,1463,1465,1466,1467,1465,1466,1467,1465,1466,1467,1465,1466,1467,1465,1466,1467,1465,1466,1467,1465,1466,1467,1465,1466,1467,1465,1466,1467,1465,1466,1467,1465,1466,1467,1465,1466,1467,1465,1466,1467,1465,1466,1467,1465,1466,1467,1465,1466,1467,1465,1466,1467,1465,1466,1467,1465,1466,1467,1465,1466,1467,1465,1466,1467,1465,1466,1467,1465,1466,1467,1465,1466,1467,1465,1466,1467,1465,1466,1467,1465,1466,1467,1465,1466,1467,1465,1466,1473,1474,0,0,0,
0,0,0,0,0,0,0,0,0,0,0,0,0,0,0,0,0,0,0,0,0,0,0,0,0,0,0,0,0,0,0,0,0,0,0,0,0,0,0,0,0,0,0,0,0,0,0,0,0,0,0,0,0,0,0,0,0,1529,1530,1465,1466,1467,1465,1466,1467,1465,1466,1467,1465,1466,1467,1465,1466,1467,1465,1466,1467,1465,1466,1467,1465,1466,1467,1465,1466,1467,1465,1466,1467,1465,1466,1467,1465,1466,1467,1465,1466,1467,1465,1466,1467,1465,1466,1467,1465,1466,1467,1465,1466,1467,1465,1466,1467,1465,1466,1467,1465,1466,1467,1465,1466,1467,1465,1466,1467,1465,1466,1467,1465,1466,1467,1465,1466,1467,1465,1466,1467,1465,1466,1467,1465,1466,1467,1465,1466,1540,1541,0,0,0,
0,0,0,0,0,0,0,0,0,0,0,0,0,0,0,0,0,0,0,0,0,0,0,0,0,0,0,0,0,0,0,0,0,0,0,0,0,0,0,0,0,0,0,0,0,0,0,0,0,0,0,0,0,0,0,0,0,1596,1597,1465,1466,1467,1465,1466,1467,1465,1466,1467,1465,1466,1467,1465,1466,1467,1465,1466,1467,1465,1466,1467,1465,1466,1467,1465,1466,1467,1465,1466,1467,1465,1466,1467,1465,1466,1467,1465,1466,1467,1465,1466,1467,1465,1466,1467,1465,1466,1467,1465,1466,1467,1465,1466,1467,1465,1466,1467,1465,1466,1467,1465,1466,1467,1465,1466,1467,1465,1466,1467,1465,1466,1467,1465,1466,1467,1465,1466,1467,1465,1466,1467,1465,1466,1467,1465,1466,1473,1474,0,0,0,
0,0,0,0,0,0,0,0,0,0,0,0,0,0,0,0,0,0,0,0,0,0,0,0,0,0,0,0,0,0,0,0,0,0,0,0,0,0,0,0,0,0,0,0,0,0,0,0,0,0,0,0,0,0,0,0,0,1663,1664,1465,1466,1467,1465,1466,1467,1465,1466,1467,1465,1466,1467,1465,1466,1467,1465,1466,1467,1465,1466,1467,1465,1466,1467,1465,1466,1467,1465,1466,1467,1465,1466,1467,1465,1466,1467,1465,1466,1467,1465,1466,1467,1465,1466,1467,1465,1466,1467,1465,1466,1467,1465,1466,1467,1465,1466,1467,1465,1466,1467,1465,1466,1467,1465,1466,1467,1465,1466,1467,1465,1466,1467,1465,1466,1467,1465,1466,1467,1465,1466,1467,1465,1466,1467,1465,1466,1540,1541,0,0,0,
0,0,0,0,0,0,0,0,0,0,0,0,0,0,0,0,0,0,0,0,0,0,0,0,0,0,0,0,0,0,0,0,0,0,0,0,0,0,0,0,0,0,0,0,0,0,0,0,0,0,0,0,0,0,0,0,0,1395,1396,1465,1466,1467,1465,1466,1467,1465,1466,1467,1465,1466,1467,1465,1466,1467,1465,1466,1467,1465,1466,1467,1465,1466,1467,1465,1466,1467,1465,1466,1467,1465,5569,5570,5571,5572,5569,5570,5571,5572,1465,1466,1467,1465,1466,1467,1465,1466,1467,1465,1466,1467,1465,1466,1467,1465,1466,1467,1465,1466,1467,1465,1466,1467,1465,1466,1467,1465,1466,1467,1465,1466,1467,1465,1466,1467,1465,1466,1467,1465,1466,1467,1465,1466,1467,1465,1466,1473,1474,0,0,0,
0,0,0,0,0,0,0,0,0,0,0,0,0,0,0,0,0,0,0,0,0,0,0,0,0,0,0,0,0,0,0,0,0,0,0,0,0,0,0,0,0,0,0,0,0,0,0,0,0,0,0,0,0,0,0,0,0,1462,1463,1465,1466,1467,1465,1466,1467,1465,1466,1467,1465,1466,1467,1465,1466,1467,1465,1466,1467,1465,1466,1467,1465,1466,1467,1465,1466,1467,1465,1466,1467,1465,1466,1467,1465,1466,1467,1465,1466,1467,1465,1466,1467,1465,1466,1467,1465,1466,1467,1465,1466,1467,1465,1466,1467,1465,1466,1467,1465,1466,1467,1465,1466,1467,1465,1466,1467,1465,1466,1467,1465,1466,1467,1465,1466,1467,1465,1466,1467,1465,1466,1467,1465,1466,1467,1465,1466,1540,1541,0,0,0,
0,0,0,0,0,0,0,0,0,0,0,0,0,0,0,0,0,0,0,0,0,0,0,0,0,0,0,0,0,0,0,0,0,0,0,0,0,0,0,0,0,0,0,0,0,0,0,0,0,0,0,0,0,0,0,0,0,1529,1530,1465,1466,1467,1465,1466,1467,1465,1466,1467,1465,1466,1467,1465,1466,1467,1465,1466,1467,1465,1466,1467,1465,1466,1467,1465,1466,1467,1465,1466,1467,1465,1466,1467,1465,1466,1467,1465,1466,1467,1465,1466,1467,1465,1466,1467,1465,1466,1467,1465,1466,1467,1465,1466,1467,1465,1466,1467,1465,1466,1467,1465,1466,1467,1465,1466,1467,1465,1466,1467,1465,1466,1467,1465,1466,1467,1465,1466,1467,1465,1466,1467,1465,1466,1467,1465,1466,1473,1474,0,0,0,
0,0,0,0,0,0,0,0,0,0,0,0,0,0,0,0,0,0,0,0,0,0,0,0,0,0,0,0,0,0,0,0,0,0,0,0,0,0,0,0,0,0,0,0,0,0,0,0,0,0,0,0,0,0,0,0,0,1596,1597,1465,1466,1467,1465,1466,1467,1465,1466,1467,1465,1466,1467,1465,1466,1467,1465,1466,1467,1465,1466,1467,1465,1466,1467,1465,1466,1467,1465,1466,1467,1465,1466,1467,1465,1466,1467,1465,1466,1467,1465,1466,1467,1465,1466,1467,1465,1466,1467,1465,1466,1467,1465,1466,1467,1465,1466,1467,1465,1466,1467,1465,1466,1467,1465,1466,1467,1465,1466,1467,1465,1466,1467,1465,1466,1467,1465,1466,1467,1465,1466,1467,1465,1466,1467,1465,1466,1540,1541,0,0,0,
0,0,0,0,0,0,0,0,0,0,0,0,0,0,0,0,0,0,0,0,0,0,0,0,0,0,0,0,0,0,0,0,0,0,0,0,0,0,0,0,0,0,0,0,0,0,0,0,0,0,0,0,0,0,0,0,0,1663,1664,1465,1466,1467,1465,1466,1467,1465,1466,1467,1465,1466,1467,1465,1466,1467,1465,1466,1467,1465,1466,1467,1465,1466,1467,1465,1466,1467,1465,1466,1467,1465,1466,1467,1465,1466,1467,1465,1466,1467,1465,1466,1467,1465,1466,1467,1465,1466,1467,1465,1466,1467,1465,1466,1467,1465,1466,1467,1465,1466,1467,1465,1466,1467,1465,1466,1467,1465,1466,1467,1465,1466,1467,1465,1466,1467,1465,1466,1467,1465,1466,1467,1465,1466,1467,1465,1466,1473,1474,0,0,0,
0,0,0,0,0,0,0,0,0,0,0,0,0,0,0,0,0,0,0,0,0,0,0,0,0,0,0,0,0,0,0,0,0,0,0,0,0,0,0,0,0,0,0,0,0,0,0,0,0,0,0,0,0,0,0,0,0,1395,1396,1465,1466,1467,1465,1466,1467,1465,1466,1467,1465,1466,1467,1465,1466,1467,1465,1466,1467,1465,1466,1467,1465,1466,1467,1465,1466,1467,1465,1466,1467,1465,1466,1467,1465,1466,1467,1465,1466,1467,1465,1466,1467,1465,1466,1467,1465,1466,1467,1465,1466,1467,1465,1466,1467,1465,1466,1467,1465,1466,1467,1465,1466,1467,1465,1466,1467,1465,1466,1467,1465,1466,1467,1465,1466,1467,1465,1466,1467,1465,1466,1467,1465,1466,1467,1465,1466,1540,1541,0,0,0,
0,0,0,0,0,0,0,0,0,0,0,0,0,0,0,0,0,0,0,0,0,0,0,0,0,0,0,0,0,0,0,0,0,0,0,0,0,0,0,0,0,0,0,0,0,0,0,0,0,0,0,0,0,0,0,0,0,1462,1463,1465,1466,1467,1465,1466,1467,1465,1466,1467,1465,1466,1467,1465,1466,1467,1465,1466,1467,1465,1466,1467,1465,1466,1467,1465,1466,1467,1465,1466,1467,1465,1466,1467,1465,1466,1467,1465,1466,1467,1465,1466,1467,1465,1466,1467,1465,1466,1467,1465,1466,1467,1465,1466,1467,1465,1466,1467,1465,1466,1467,1465,1466,1467,1465,1466,1467,1465,1466,1467,1465,1466,1467,1465,1466,1467,1465,1466,1467,1465,1466,1467,1465,1466,1467,1465,1466,1473,1474,0,0,0,
0,0,0,0,0,0,0,0,0,0,0,0,0,0,0,0,0,0,0,0,0,0,0,0,0,0,0,0,0,0,0,0,0,0,0,0,0,0,0,0,0,0,0,0,0,0,0,0,0,0,0,0,0,0,0,0,0,1529,1530,1465,1466,1467,1465,1466,1467,1465,1466,1467,1465,1466,1467,1465,1466,1467,1465,1466,1467,1465,1466,1467,1465,1466,1467,1465,1466,1467,1465,1466,1467,1465,1466,1467,1465,1466,1467,1465,1466,1467,1465,1466,1467,1465,1466,1467,1465,1466,1467,1465,1466,1467,1465,1466,1467,1465,1466,1467,1465,1466,1467,1465,1466,1467,1465,1466,1467,1465,1466,1467,1465,1466,1467,1465,1466,1467,1465,1466,1467,1465,1466,1467,1465,1466,1467,1465,1466,1540,1541,0,0,0,
0,0,0,0,0,0,0,0,0,0,0,0,0,0,0,0,0,0,0,0,0,0,0,0,0,0,0,0,0,0,0,0,0,0,0,0,0,0,0,0,0,0,0,0,0,0,0,0,0,0,0,0,0,0,0,0,0,1596,1597,1465,1466,1467,1465,1466,1467,1465,1466,1467,1465,1466,1467,1465,1466,1467,1465,1466,1467,1465,1466,1467,1465,1466,1467,1465,1466,1467,1465,1466,1467,1465,1466,1467,1465,1466,1467,1465,1466,1467,1465,1466,1467,1465,1466,1467,1465,1466,1467,1465,1466,1467,1465,1466,1467,1465,1466,1467,1465,1466,1467,1465,1466,1467,1465,1466,1467,1465,1466,5569,5570,5571,5572,1465,1466,1467,1465,1466,1467,1465,1466,1467,1465,1466,1467,1465,1466,1473,1474,0,0,0,
0,0,0,0,0,0,0,0,0,0,0,0,0,0,0,0,0,0,0,0,0,0,0,0,0,0,0,0,0,0,0,0,0,0,0,0,0,0,0,0,0,0,0,0,0,0,0,0,0,0,0,0,0,0,0,0,0,1663,1664,1465,1466,1467,1465,1466,1467,1465,1466,1467,1465,1466,1467,1465,1466,1467,1465,1466,1467,1465,1466,1467,1465,1466,1467,1465,1466,1467,1465,1466,1467,1465,1466,1467,1465,1466,1467,1465,1466,1467,1465,1466,1467,1465,1466,1467,1465,1466,1467,1465,1466,1467,1465,1466,1467,1465,1466,1467,1465,1466,1467,1465,1466,1467,1465,1466,1467,1465,1466,1467,1465,1466,1467,1465,1466,1467,1465,1466,1467,1465,1466,1467,1465,1466,1467,1465,1466,1540,1541,0,0,0,
0,0,0,0,0,0,0,0,0,0,0,0,0,0,0,0,0,0,0,0,0,0,0,0,0,0,0,0,0,0,0,0,0,0,0,0,0,0,0,0,0,0,0,0,0,0,0,0,0,0,0,0,0,0,0,0,0,1395,1396,1465,1466,1467,1465,1466,1467,1465,1466,1467,1465,1466,1467,1465,1466,1467,1465,1466,1467,1465,1466,1467,1465,1466,1467,1465,1466,1467,1465,1466,1467,1465,1466,1467,1465,1466,1467,1465,1466,1467,1465,1466,1467,1465,1466,1467,1465,1466,1467,1465,1466,1467,1465,1466,1467,1465,1466,1467,1465,1466,1467,1465,1466,1467,1465,1466,1467,1465,1466,1467,1465,1466,1467,1465,1466,1467,1465,1466,1467,1465,1466,1467,1465,1466,1467,1465,1466,1473,1474,0,0,0,
0,0,0,0,0,0,0,0,0,0,0,0,0,0,0,0,0,0,0,0,0,0,0,0,0,0,0,0,0,0,0,0,0,0,0,0,0,0,0,0,0,0,0,0,0,0,0,0,0,0,0,0,0,0,0,0,0,1462,1463,1465,1466,1467,1465,1466,1467,1465,1466,1467,1465,1466,1467,1465,1466,1467,1465,1466,1467,1465,1466,1467,1465,1466,1467,1465,1466,1467,1465,1466,1467,1465,1466,1467,1465,1466,1467,1465,1466,1467,1465,1466,1467,1465,1466,1467,1465,1466,1467,1465,1466,1467,1465,1466,1467,1465,1466,1467,1465,1466,1467,1465,1466,1467,1465,1466,1467,1465,1466,1467,1465,1466,1467,1465,1466,1467,1465,1466,1467,1465,1466,1467,1465,1466,1467,1465,1466,1540,1541,0,0,0,
0,0,0,0,0,0,0,0,0,0,0,0,0,0,0,0,0,0,0,0,0,0,0,0,0,0,0,0,0,0,0,0,0,0,0,0,0,0,0,0,0,0,0,0,0,0,0,0,0,0,0,0,0,0,0,0,0,1529,1530,1465,1466,1467,1465,1466,1467,1465,1466,1467,1465,1466,1467,1465,1466,1467,1465,1466,1467,1465,1466,1467,1465,1466,1467,1465,1466,1467,1465,1466,1467,1465,1466,1467,1465,1466,1467,1465,1466,1467,1465,1466,1467,1465,1466,1467,1465,1466,1467,1465,1466,1467,1465,1466,1467,1465,1466,1467,1465,1466,1467,1465,1466,1467,1465,1466,1467,1465,1466,1467,1465,1466,1467,1465,1466,1467,1465,1466,1467,1465,1466,1467,1465,1466,1467,1465,1466,1473,1474,0,0,0,
0,0,0,0,0,0,0,0,0,0,0,0,0,0,0,0,0,0,0,0,0,0,0,0,0,0,0,0,0,0,0,0,0,0,0,0,0,0,0,0,0,0,0,0,0,0,0,0,0,0,0,0,0,0,0,0,0,1596,1597,1465,1466,1467,1465,1466,1467,1465,1466,1467,1465,1466,1467,1465,1466,1467,1465,1466,1467,1465,1466,1467,1465,1466,1467,1465,1466,1467,1465,1466,1467,1465,1466,1467,1465,1466,1467,1465,1466,1467,1465,1466,1467,1465,1466,1467,1465,1466,1467,1465,1466,1467,1465,1466,1467,1465,1466,1467,1465,1466,1467,1465,1466,1467,1465,1466,1467,1465,1466,1467,1465,1466,1467,1465,1466,1467,1465,1466,1467,1465,1466,1467,1465,1466,1467,1465,1466,1540,1541,0,0,0,
0,0,0,0,0,0,0,0,0,0,0,0,0,0,0,0,0,0,0,0,0,0,0,0,0,0,0,0,0,0,0,0,0,0,0,0,0,0,0,0,0,0,0,0,0,0,0,0,0,0,0,0,0,0,0,0,0,1663,1664,1465,1466,1467,1465,1466,1467,1465,1466,1467,1465,1466,1467,1465,1466,1467,1465,1466,1467,1465,1466,1467,1465,1466,1467,1465,1466,1467,1465,1466,1467,1465,1466,1467,1465,1466,1467,1465,1466,1467,1465,1466,1467,1465,1466,1467,1465,1466,1467,1465,1466,1467,1465,1466,1467,1465,1466,1467,1465,1466,1467,1465,1466,1467,1465,1466,1467,1465,1466,1467,1465,1466,1467,1465,1466,1467,1465,1466,1467,1465,1466,1467,1465,1466,1467,1465,1466,1473,1474,0,0,0,
0,0,0,0,0,0,0,0,0,0,0,0,0,0,0,0,0,0,0,0,0,0,0,0,0,0,0,0,0,0,0,0,0,0,0,0,0,0,0,0,0,0,0,0,0,0,0,0,0,0,0,0,0,0,0,0,0,1073743353,1073743354,1465,1466,1467,1465,1466,1467,1465,1466,1467,1465,1466,1467,1465,1466,1467,1465,1466,1467,1465,1466,1467,1465,1466,1467,1465,1466,1467,1465,1466,1467,1465,1466,1467,1465,1466,1467,1465,1466,1467,1465,1466,1467,1465,1466,1467,1465,1466,1467,1465,1466,1467,1465,1466,1467,1465,1466,1467,1465,1466,1467,1465,1466,1467,1465,1466,1467,1465,1466,1467,1465,1466,1467,1465,1466,1467,1465,1466,1467,1465,1466,1467,1465,1466,1467,1465,1466,1473,1474,0,0,0,
0,0,0,0,0,0,0,0,0,0,0,0,0,0,0,0,0,0,0,0,0,0,0,0,0,0,0,0,0,0,0,0,0,0,0,0,0,0,0,0,0,0,0,0,0,0,0,0,0,0,0,0,0,0,0,0,0,1073743286,1073743287,1465,1466,1467,1465,1466,1467,1465,1466,1467,1465,1466,1467,1465,1466,1467,1465,1466,1467,1465,1466,1467,1465,1466,1467,1465,1466,1467,1465,1466,1467,1465,1466,1467,1465,1466,1467,1465,1466,1467,1465,1466,1467,1465,1466,1467,1465,1466,1467,1465,1466,1467,1465,1466,1467,1465,1466,1467,1465,1466,1467,1465,1466,1467,1465,1466,1467,1465,1466,1467,1465,1466,1467,1465,1466,1467,1465,1466,1467,1465,1466,1467,1465,1466,1467,1465,1466,1073743297,1073743298,0,0,0,
0,0,0,0,0,0,0,0,0,0,0,0,0,0,0,0,0,0,0,0,0,0,0,0,0,0,0,0,0,0,0,0,0,0,0,0,0,0,0,0,0,0,0,0,0,0,0,0,0,0,0,0,0,0,0,0,0,1073743219,1073743220,1465,1466,1467,1465,1466,1467,1465,1466,1467,1465,1466,1467,1465,1466,1467,1465,1466,1467,1465,1466,1467,1465,1466,1467,1465,1466,1467,1465,1466,1467,1465,1466,1467,1465,1466,1467,1465,1466,1467,1465,1466,1467,1465,1466,1467,1465,1466,1467,1465,1466,1467,1465,1466,1467,1465,1466,1467,1465,1466,1467,1465,1466,1467,1465,1466,1467,1465,1466,1467,1465,1466,1467,1465,1466,1467,1465,1466,1467,1465,1466,1467,1465,1466,1467,1465,1466,1073743230,1073743231,0,0,0,
0,0,0,0,0,0,0,0,0,0,0,0,0,0,0,0,0,0,0,0,0,0,0,0,0,0,0,0,0,0,0,0,0,0,0,0,0,0,0,0,0,0,0,0,0,0,0,0,0,0,0,0,0,0,0,0,0,1073743152,1073743153,1073743154,1073743155,1073743155,1073743156,1073743157,1073743158,1073743159,1073743160,1073743155,1073743156,1073743157,1073743158,1073743159,1073743160,1073743155,1073743156,1073743157,1073743158,1073743159,1073743160,1073743155,1073743156,1073743157,1073743158,1073743159,1073743160,1073743155,1073743156,1073743157,1073743158,1073743159,1073743160,1073743155,1073743156,1073743157,1073743158,1073743159,1073743160,1073743155,1073743156,1073743157,1073743158,1073743159,1073743160,1073743155,1073743156,1073743157,1073743158,1073743159,1073743160,1073743155,1073743156,1073743157,1073743158,1073743159,1073743160,1073743155,1073743156,1073743157,1073743158,1073743159,1073743160,1073743155,1073743156,1073743157,1073743158,1073743159,1073743160,1073743155,1073743156,1073743157,1073743158,1073743159,1073743160,1073743158,1073743159,1073743160,1073743161,1073743158,1073743159,1073743160,1073743161,1073743158,1073743158,1073743161,1073743162,1073743163,1073743164,0,0,0,
0,0,0,0,0,0,0,0,0,0,0,0,0,0,0,0,0,0,0,0,0,0,0,0,0,0,0,0,0,0,0,0,0,0,0,0,0,0,0,0,0,0,0,0,0,0,0,0,0,0,0,0,0,0,0,0,0,1073743085,1073743086,1073743087,1073743088,1073743088,1073743089,1073743090,1073743091,1073743092,1073743093,1073743088,1073743089,1073743090,1073743091,1073743092,1073743093,1073743088,1073743089,1073743090,1073743091,1073743092,1073743093,1073743088,1073743089,1073743090,1073743091,1073743092,1073743093,1073743088,1073743089,1073743090,1073743091,1073743092,1073743093,1073743088,1073743089,1073743090,1073743091,1073743092,1073743093,1073743088,1073743089,1073743090,1073743091,1073743092,1073743093,1073743088,1073743089,1073743090,1073743091,1073743092,1073743093,1073743088,1073743089,1073743090,1073743091,1073743092,1073743093,1073743088,1073743089,1073743090,1073743091,1073743092,1073743093,1073743088,1073743089,1073743090,1073743091,1073743092,1073743093,1073743088,1073743089,1073743090,1073743091,1073743092,1073743093,1073743091,1073743092,1073743093,1073743094,1073743091,1073743092,1073743093,1073743094,1073743091,1073743091,1073743094,1073743095,1073743096,1073743097,0,0,0,
0,0,0,0,0,0,0,0,0,0,0,0,0,0,0,0,0,0,0,0,0,0,0,0,0,0,0,0,0,0,0,0,0,0,0,0,0,0,0,0,0,0,0,0,0,0,0,0,0,0,0,0,0,0,0,0,0,0,0,0,0,0,0,0,0,0,0,0,0,0,0,0,0,0,0,0,0,0,0,0,0,0,0,0,0,0,0,0,0,0,0,0,0,0,0,0,0,0,0,0,0,0,0,0,0,0,0,0,0,0,0,0,0,0,0,0,0,0,0,0,0,0,0,0,0,0,0,0,0,0,0,0,0,0,0,0,0,0,0,0,0,0,0,0,0,0,0,0,0,0,
0,0,0,0,0,0,0,0,0,0,0,0,0,0,0,0,0,0,0,0,0,0,0,0,0,0,0,0,0,0,0,0,0,0,0,0,0,0,0,0,0,0,0,0,0,0,0,0,0,0,0,0,0,0,0,0,0,0,0,0,0,0,0,0,0,0,0,0,0,0,0,0,0,0,0,0,0,0,0,0,0,0,0,0,0,0,0,0,0,0,0,0,0,0,0,0,0,0,0,0,0,0,0,0,0,0,0,0,0,0,0,0,0,0,0,0,0,0,0,0,0,0,0,0,0,0,0,0,0,0,0,0,0,0,0,0,0,0,0,0,0,0,0,0,0,0,0,0,0,0
</data>
 </layer>
 <layer id="17" name="wall_destructible" width="150" height="200">
  <properties>
   <property name="collision" type="bool" value="true"/>
   <property name="destructible" type="bool" value="true"/>
  </properties>
  <data encoding="csv">
0,0,0,0,0,0,0,0,0,0,0,0,0,0,0,0,0,0,0,0,0,0,0,0,0,0,0,0,0,0,0,0,0,0,0,0,0,0,0,0,0,0,0,0,0,0,0,0,0,0,0,0,0,0,0,0,0,0,0,0,0,0,0,0,0,0,0,0,0,0,0,0,0,0,0,0,0,0,0,0,0,0,0,0,0,0,0,0,0,0,0,0,0,0,0,0,0,0,0,0,0,0,0,0,0,0,0,0,0,0,0,0,0,0,0,0,0,0,0,0,0,0,0,0,0,0,0,0,0,0,0,0,0,0,0,0,0,0,0,0,0,0,0,0,0,0,0,0,0,0,
0,0,0,0,0,0,0,0,0,0,0,0,0,0,0,0,0,0,0,0,0,0,0,0,0,0,0,0,0,0,0,0,0,0,0,0,0,0,0,0,0,0,0,0,0,0,0,0,0,0,0,0,0,0,0,0,0,0,0,0,0,0,0,0,0,0,0,0,0,0,0,0,0,0,0,0,0,0,0,0,0,0,0,0,0,0,0,0,0,0,0,0,0,0,0,0,0,0,0,0,0,0,0,0,0,0,0,0,0,0,0,0,0,0,0,0,0,0,0,0,0,0,0,0,0,0,0,0,0,0,0,0,0,0,0,0,0,0,0,0,0,0,0,0,0,0,0,0,0,0,
0,0,0,0,0,0,0,0,0,0,0,0,0,0,0,0,0,0,0,0,0,0,0,0,0,0,0,0,0,0,0,0,0,0,0,0,0,0,0,0,0,0,0,0,0,0,0,0,0,0,0,0,0,0,0,0,0,0,0,0,0,0,0,0,0,0,0,0,0,0,0,0,0,0,0,0,0,0,0,0,0,0,0,0,0,0,0,0,0,0,0,0,0,0,0,0,0,0,0,0,0,0,0,0,0,0,0,0,0,0,0,0,0,0,0,0,0,0,0,0,0,0,0,0,0,0,0,0,0,0,0,0,0,0,0,0,0,0,0,0,0,0,0,0,0,0,0,0,0,0,
0,0,0,0,0,0,0,0,0,0,0,0,0,0,0,0,0,0,0,0,0,0,0,0,0,0,0,0,0,0,0,0,0,0,0,0,0,0,0,0,0,0,0,0,0,0,0,0,0,0,0,0,0,0,0,0,0,0,0,0,0,0,0,0,0,0,0,0,0,0,0,0,0,0,0,0,0,0,0,0,0,0,0,0,0,0,0,0,0,0,0,0,0,0,0,0,0,0,0,0,0,0,0,0,0,0,0,0,0,0,0,0,0,0,0,0,0,0,0,0,0,0,0,0,0,0,0,0,0,0,0,0,0,0,0,0,0,0,0,0,0,0,0,0,0,0,0,0,0,0,
0,0,0,0,0,0,0,0,0,0,0,0,0,0,0,0,0,0,0,0,0,0,0,0,0,0,0,0,0,0,0,0,0,0,0,0,0,0,0,0,0,0,0,0,0,0,0,0,0,0,0,0,0,0,0,0,0,0,0,0,0,0,0,0,0,0,0,0,0,0,0,0,0,0,0,0,0,0,0,0,0,0,0,0,0,0,0,0,0,0,0,0,0,0,0,0,0,0,0,0,0,0,0,0,0,0,0,0,0,0,0,0,0,0,0,0,0,0,0,0,0,0,0,0,0,0,0,0,0,0,0,0,0,0,0,0,0,0,0,0,0,0,0,0,0,0,0,0,0,0,
0,0,0,0,0,0,0,0,0,0,0,0,0,0,0,0,0,0,0,0,0,0,0,0,0,0,0,0,0,0,0,0,0,0,0,0,0,0,0,0,0,0,0,0,0,0,0,0,0,0,0,0,0,0,0,0,0,0,0,0,0,0,0,0,0,0,0,0,0,0,0,0,0,0,0,0,0,0,0,0,0,0,0,0,0,0,0,0,0,0,0,0,0,0,0,0,0,0,0,0,0,0,0,0,0,0,0,0,0,0,0,0,0,0,0,0,0,0,0,0,0,0,0,0,0,0,0,0,0,0,0,0,0,0,0,0,0,0,0,0,0,0,0,0,0,0,0,0,0,0,
0,0,0,0,0,0,0,0,0,0,0,0,0,0,0,0,0,0,0,0,0,0,0,0,0,0,0,0,0,0,0,0,0,0,0,0,0,0,0,0,0,0,0,0,0,0,0,0,0,0,0,0,0,0,0,0,0,0,0,0,0,0,0,0,0,0,0,0,0,0,0,0,0,0,0,0,0,0,0,0,0,0,0,0,0,0,0,0,0,0,0,0,0,0,0,0,0,0,0,0,0,0,0,0,0,0,0,0,0,0,0,0,0,0,0,0,0,0,0,0,0,0,0,0,0,0,0,0,0,0,0,0,0,0,0,0,0,0,0,0,0,0,0,0,0,0,0,0,0,0,
0,0,0,0,0,0,0,0,0,0,0,0,0,0,0,0,0,0,0,0,0,0,0,0,0,0,0,0,0,0,0,0,0,0,0,0,0,0,0,0,0,0,0,0,0,0,0,0,0,0,0,0,0,0,0,0,0,0,0,0,0,0,0,0,0,0,0,0,0,0,0,0,0,0,0,0,0,0,0,0,0,0,0,0,0,0,0,0,0,0,0,0,0,0,0,0,0,0,0,0,0,0,0,0,0,0,0,0,0,0,0,0,0,0,0,0,0,0,0,0,0,0,0,0,0,0,0,0,0,0,0,0,0,0,0,0,0,0,0,0,0,0,0,0,0,0,0,0,0,0,
0,0,0,0,0,0,0,0,0,0,0,0,0,0,0,0,0,0,0,0,0,0,0,0,0,0,0,0,0,0,0,0,0,0,0,0,0,0,0,0,0,0,0,0,0,0,0,0,0,0,0,0,0,0,0,0,0,0,0,0,0,0,0,0,0,0,0,0,0,0,0,0,0,0,0,0,0,0,0,0,0,0,0,0,0,0,0,0,0,0,0,0,0,0,0,0,0,0,0,0,0,0,0,0,0,0,0,0,0,0,0,0,0,0,0,0,0,0,0,0,0,0,0,0,0,0,0,0,0,0,0,0,0,0,0,0,0,0,0,0,0,0,0,0,0,0,0,0,0,0,
0,0,0,0,0,0,0,0,0,0,0,0,0,0,0,0,0,0,0,0,0,0,0,0,0,0,0,0,0,0,0,0,0,0,0,0,0,0,0,0,0,0,0,0,0,0,0,0,0,0,0,0,0,0,0,0,0,0,0,0,0,0,0,0,0,0,0,0,0,0,0,0,0,0,0,0,0,0,0,0,0,0,0,0,0,0,0,0,0,0,0,0,0,0,0,0,0,0,0,0,0,0,0,0,0,0,0,0,0,0,0,0,0,0,0,0,0,0,0,0,0,0,0,0,0,0,0,0,0,0,0,0,0,0,0,0,0,0,0,0,0,0,0,0,0,0,0,0,0,0,
0,0,0,0,0,0,0,0,0,0,0,0,0,0,0,0,0,0,0,0,0,0,0,0,0,0,0,0,0,0,0,0,0,0,0,0,0,0,0,0,0,0,0,0,0,0,0,0,0,0,0,0,0,0,0,0,0,0,0,0,0,0,0,0,0,0,0,0,0,0,0,0,0,0,0,0,0,0,0,0,0,0,0,0,0,0,0,0,0,0,0,0,0,0,0,0,0,0,0,0,0,0,0,0,0,0,0,0,0,0,0,0,0,0,0,0,0,0,0,0,0,0,0,0,0,0,0,0,0,0,0,0,0,0,0,0,0,0,0,0,0,0,0,0,0,0,0,0,0,0,
0,0,0,0,0,0,0,0,0,0,0,0,0,0,0,0,0,0,0,0,0,0,0,0,0,0,0,0,0,0,0,0,0,0,0,0,0,0,0,0,0,0,0,0,0,0,0,0,0,0,0,0,0,0,0,0,0,0,0,0,0,0,0,0,0,0,0,0,0,0,0,0,0,0,0,0,0,0,0,0,0,0,0,0,0,0,0,0,0,0,0,0,0,0,0,0,0,0,0,0,0,0,0,0,0,0,0,0,0,0,0,0,0,0,0,0,0,0,0,0,0,0,0,0,0,0,0,0,0,0,0,0,0,0,0,0,0,0,0,0,0,0,0,0,0,0,0,0,0,0,
0,0,0,0,0,0,0,0,0,0,0,0,0,0,0,0,0,0,0,0,0,0,0,0,0,0,0,0,0,0,0,0,0,0,0,0,0,0,0,0,0,0,0,0,0,0,0,0,0,0,0,0,0,0,0,0,0,0,0,0,0,0,0,0,0,0,0,0,0,0,0,0,0,0,0,0,0,0,0,0,0,0,0,0,0,0,0,0,0,0,0,0,0,0,0,0,0,0,0,0,0,0,0,0,0,0,0,0,0,0,0,0,0,0,0,0,0,0,0,0,0,0,0,0,0,0,0,0,0,0,0,0,0,0,0,0,0,0,0,0,0,0,0,0,0,0,0,0,0,0,
0,0,0,0,0,0,0,0,0,0,0,0,0,0,0,0,0,0,0,0,0,0,0,0,0,0,0,0,0,0,0,0,0,0,0,0,0,0,0,0,0,0,0,0,0,0,0,0,0,0,0,0,0,0,0,0,0,0,0,0,0,0,0,0,0,0,0,0,0,0,0,0,0,0,0,0,0,0,0,0,0,0,0,0,0,0,0,0,0,0,0,0,0,0,0,0,0,0,0,0,0,0,0,0,0,0,0,0,0,0,0,0,0,0,0,0,0,0,0,0,0,0,0,0,0,0,0,0,0,0,0,0,0,0,0,0,0,0,0,0,0,0,0,0,0,0,0,0,0,0,
0,0,0,0,0,0,0,0,0,0,0,0,0,0,0,0,0,0,0,0,0,0,0,0,0,0,0,0,0,0,0,0,0,0,0,0,0,0,0,0,0,0,0,0,0,0,0,0,0,0,0,0,0,0,0,0,0,0,0,0,0,0,0,0,0,0,0,0,0,0,0,0,0,0,0,0,0,0,0,0,0,0,0,0,0,0,0,0,0,0,0,0,0,0,0,0,0,0,0,0,0,0,0,0,0,0,0,0,0,0,0,0,0,0,0,0,0,0,0,0,0,0,0,0,0,0,0,0,0,0,0,0,0,0,0,0,0,0,0,0,0,0,0,0,0,0,0,0,0,0,
0,0,0,0,0,0,0,0,0,0,0,0,0,0,0,0,0,0,0,0,0,0,0,0,0,0,0,0,0,0,0,0,0,0,0,0,0,0,0,0,0,0,0,0,0,0,0,0,0,0,0,0,0,0,0,0,0,0,0,0,0,0,0,0,0,0,0,0,0,0,0,0,0,0,0,0,0,0,0,0,0,0,0,0,0,0,0,0,0,0,0,0,0,0,0,0,0,0,0,0,0,0,0,0,0,0,0,0,0,0,0,0,0,0,0,0,0,0,0,0,0,0,0,0,0,0,0,0,0,0,0,0,0,0,0,0,0,0,0,0,0,0,0,0,0,0,0,0,0,0,
0,0,0,0,0,0,0,0,0,0,0,0,0,0,0,0,0,0,0,0,0,0,0,0,0,0,0,0,0,0,0,0,0,0,0,0,0,0,0,0,0,0,0,0,0,0,0,0,0,0,0,0,0,0,0,0,0,0,0,0,0,0,0,0,0,0,0,0,0,0,0,0,0,0,0,0,0,0,0,0,0,0,0,0,0,0,0,0,0,0,0,0,0,0,0,0,0,0,0,0,0,0,0,0,0,0,0,0,0,0,0,0,0,0,0,0,0,0,0,0,0,0,0,0,0,0,0,0,0,0,0,0,0,0,0,0,0,0,0,0,0,0,0,0,0,0,0,0,0,0,
0,0,0,0,0,0,0,0,0,0,0,0,0,0,0,0,0,0,0,0,0,0,0,0,0,0,0,0,0,0,0,0,0,0,0,0,0,0,0,0,0,0,0,0,0,0,0,0,0,0,0,0,0,0,0,0,0,0,0,0,0,0,0,0,0,0,0,0,0,0,0,0,0,0,0,0,0,0,0,0,0,0,0,0,0,0,0,0,0,0,0,0,0,0,0,0,0,0,0,0,0,0,0,0,0,0,0,0,0,0,0,0,0,0,0,0,0,0,0,0,0,0,0,0,0,0,0,0,0,0,0,0,0,0,0,0,0,0,0,0,0,0,0,0,0,0,0,0,0,0,
0,0,0,0,0,0,0,0,0,0,0,0,0,0,0,0,0,0,0,0,0,0,0,0,0,0,0,0,0,0,0,0,0,0,0,0,0,0,0,0,0,0,0,0,0,0,0,0,0,0,0,0,0,0,0,0,0,0,0,0,0,0,0,0,0,0,0,0,0,0,0,0,0,0,0,0,0,0,0,0,0,0,0,0,0,0,0,0,0,0,0,0,0,0,0,0,0,0,0,0,0,0,0,0,0,0,0,0,0,0,0,0,0,0,0,0,0,0,0,0,0,0,0,0,0,0,0,0,0,0,0,0,0,0,0,0,0,0,0,0,0,0,0,0,0,0,0,0,0,0,
0,0,0,0,0,0,0,0,0,0,0,0,0,0,0,0,0,0,0,0,0,0,0,0,0,0,0,0,0,0,0,0,0,0,0,0,0,0,0,0,0,0,0,0,0,0,0,0,0,0,0,0,0,0,0,0,0,0,0,0,0,0,0,0,0,0,0,0,0,0,0,0,0,0,0,0,0,0,0,0,0,0,0,0,0,0,0,0,0,0,0,0,0,0,0,0,0,0,0,0,0,0,0,0,0,0,0,0,0,0,0,0,0,0,0,0,0,0,0,0,0,0,0,0,0,0,0,0,0,0,0,0,0,0,0,0,0,0,0,0,0,0,0,0,0,0,0,0,0,0,
0,0,0,0,0,0,0,0,0,0,0,0,0,0,0,0,0,0,0,0,0,0,0,0,0,0,0,0,0,0,0,0,0,0,0,0,0,0,0,0,0,0,0,0,0,0,0,0,0,0,0,0,0,0,0,0,0,0,0,0,0,0,0,0,0,0,0,0,0,0,0,0,0,0,0,0,0,0,0,0,0,0,0,0,0,0,0,0,0,0,0,0,0,0,0,0,0,0,0,0,0,0,0,0,0,0,0,0,0,0,0,0,0,0,0,0,0,0,0,0,0,0,0,0,0,0,0,0,0,0,0,0,0,0,0,0,0,0,0,0,0,0,0,0,0,0,0,0,0,0,
0,0,0,0,0,0,0,0,0,0,0,0,0,0,0,0,0,0,0,0,0,0,0,0,0,0,0,0,0,0,0,0,0,0,0,0,0,0,0,0,0,0,0,0,0,0,0,0,0,0,0,0,0,0,0,0,0,0,0,0,0,0,0,0,0,0,0,0,0,0,0,0,0,0,0,0,0,0,0,0,0,0,0,0,0,0,0,0,0,0,0,0,0,0,0,0,0,0,0,0,0,0,0,0,0,0,0,0,0,0,0,0,0,0,0,0,0,0,0,0,0,0,0,0,0,0,0,0,0,0,0,0,0,0,0,0,0,0,0,0,0,0,0,0,0,0,0,0,0,0,
0,0,0,0,0,0,0,0,0,0,0,0,0,0,0,0,0,0,0,0,0,0,0,0,0,0,0,0,0,0,0,0,0,0,0,0,0,0,0,0,0,0,0,0,0,0,0,0,0,0,0,0,0,0,0,0,0,0,0,0,0,0,0,0,0,0,0,0,0,0,0,0,0,0,0,0,0,0,0,0,0,0,0,0,0,0,0,0,0,0,0,0,0,0,0,0,0,0,0,0,0,0,0,0,0,0,0,0,0,0,0,0,0,0,0,0,0,0,0,0,0,0,0,0,0,0,0,0,0,0,0,0,0,0,0,0,0,0,0,0,0,0,0,0,0,0,0,0,0,0,
0,0,0,0,0,0,0,0,0,0,0,0,0,0,0,0,0,0,0,0,0,0,0,0,0,0,0,0,0,0,0,0,0,0,0,0,0,0,0,0,0,0,0,0,0,0,0,0,0,0,0,0,0,0,0,0,0,0,0,0,0,0,0,0,0,0,0,0,0,0,0,0,0,0,0,0,0,0,0,0,0,0,0,0,0,0,0,0,0,0,0,0,0,0,0,0,0,0,0,0,0,0,0,0,0,0,0,0,0,0,0,0,0,0,0,0,0,0,0,0,0,0,0,0,0,0,0,0,0,0,0,0,0,0,0,0,0,0,0,0,0,0,0,0,0,0,0,0,0,0,
0,0,0,0,0,0,0,0,0,0,0,0,0,0,0,0,0,0,0,0,0,0,0,0,0,0,0,0,0,0,0,0,0,0,0,0,0,0,0,0,0,0,0,0,0,0,0,0,0,0,0,0,0,0,0,0,0,0,0,0,0,0,0,0,0,0,0,0,0,0,0,0,0,0,0,0,0,0,0,0,0,0,0,0,0,0,0,0,0,0,0,0,0,0,0,0,0,0,0,0,0,0,0,0,0,0,0,0,0,0,0,0,0,0,0,0,0,0,0,0,0,0,0,0,0,0,0,0,0,0,0,0,0,0,0,0,0,0,0,0,0,0,0,0,0,0,0,0,0,0,
0,0,0,0,0,0,0,0,0,0,0,0,0,0,0,0,0,0,0,0,0,0,0,0,0,0,0,0,0,0,0,0,0,0,0,0,0,0,0,0,0,0,0,0,0,0,0,0,0,0,0,0,0,0,0,0,0,0,0,0,0,0,0,0,0,0,0,0,0,0,0,0,0,0,0,0,0,0,0,0,0,0,0,0,0,0,0,0,0,0,0,0,0,0,0,0,0,0,0,0,0,0,0,0,0,0,0,0,0,0,0,0,0,0,0,0,0,0,0,0,0,0,0,0,0,0,0,0,0,0,0,0,0,0,0,0,0,0,0,0,0,0,0,0,0,0,0,0,0,0,
0,0,0,0,0,0,0,0,0,0,0,0,0,0,0,0,0,0,0,0,0,0,0,0,0,0,0,0,0,0,0,0,0,0,0,0,0,0,0,0,0,0,0,0,0,0,0,0,0,0,0,0,0,0,0,0,0,0,0,0,0,0,0,0,0,0,0,0,0,0,0,0,0,0,0,0,0,0,0,0,0,0,0,0,0,0,0,0,0,0,0,0,0,0,0,0,0,0,0,0,0,0,0,0,0,0,0,0,0,0,0,0,0,0,0,0,0,0,0,0,0,0,0,0,0,0,0,0,0,0,0,0,0,0,0,0,0,0,0,0,0,0,0,0,0,0,0,0,0,0,
0,0,0,0,0,0,0,0,0,0,0,0,0,0,0,0,0,0,0,0,0,0,0,0,0,0,0,0,0,0,0,0,0,0,0,0,0,0,0,0,0,0,0,0,0,0,0,0,0,0,0,0,0,0,0,0,0,0,0,0,0,0,0,0,0,0,0,0,0,0,0,0,0,0,0,0,0,0,0,0,0,0,0,0,0,0,0,0,0,0,0,0,0,0,0,0,0,0,0,0,0,0,0,0,0,0,0,0,0,0,0,0,0,0,0,0,0,0,0,0,0,0,0,0,0,0,0,0,0,0,0,0,0,0,0,0,0,0,0,0,0,0,0,0,0,0,0,0,0,0,
0,0,0,0,0,0,0,0,0,0,0,0,0,0,0,0,0,0,0,0,0,0,0,0,0,0,0,0,0,0,0,0,0,0,0,0,0,0,0,0,0,0,0,0,0,0,0,0,0,0,0,0,0,0,0,0,0,0,0,0,0,0,0,0,0,0,0,0,0,0,0,0,0,0,0,0,0,0,0,0,0,0,0,0,0,0,0,0,0,0,0,0,0,0,0,0,0,0,0,0,0,0,0,0,0,0,0,0,0,0,0,0,0,0,0,0,0,0,0,0,0,0,0,0,0,0,0,0,0,0,0,0,0,0,0,0,0,0,0,0,0,0,0,0,0,0,0,0,0,0,
0,0,0,0,0,0,0,0,0,0,0,0,0,0,0,0,0,0,0,0,0,0,0,0,0,0,0,0,0,0,0,0,0,0,0,0,0,0,0,0,0,0,0,0,0,0,0,0,0,0,0,0,0,0,0,0,0,0,0,0,0,0,0,0,0,0,0,0,0,0,0,0,0,0,0,0,0,0,0,0,0,0,0,0,0,0,0,0,0,0,0,0,0,0,0,0,0,0,0,0,0,0,0,0,0,0,0,0,0,0,0,0,0,0,0,0,0,0,0,0,0,0,0,0,0,0,0,0,0,0,0,0,0,0,0,0,0,0,0,0,0,0,0,0,0,0,0,0,0,0,
0,0,0,0,0,0,0,0,0,0,0,0,0,0,0,0,0,0,0,0,0,0,0,0,0,0,0,0,0,0,0,0,0,0,0,0,0,0,0,0,0,0,0,0,0,0,0,0,0,0,0,0,0,0,0,0,0,0,0,0,0,0,0,0,0,0,0,0,0,0,0,0,0,0,0,0,0,0,0,0,0,0,0,0,0,0,0,0,0,0,0,0,0,0,0,0,0,0,0,0,0,0,0,0,0,0,0,0,0,0,0,0,0,0,0,0,0,0,0,0,0,0,0,0,0,0,0,0,0,0,0,0,0,0,0,0,0,0,0,0,0,0,0,0,0,0,0,0,0,0,
0,0,0,0,0,0,0,0,0,0,0,0,0,0,0,0,0,0,0,0,0,0,0,0,0,0,0,0,0,0,0,0,0,0,0,0,0,0,0,0,0,0,0,0,0,0,0,0,0,0,0,0,0,0,0,0,5318,5319,5318,5319,5318,5318,5319,0,0,0,0,0,0,0,0,0,0,0,0,0,0,0,0,0,0,0,0,0,0,0,0,0,0,0,0,0,0,0,0,0,0,0,0,0,0,0,0,0,0,0,0,0,0,0,0,0,0,0,0,0,0,0,0,0,0,0,0,0,0,0,0,0,0,0,0,0,0,0,0,0,0,0,0,0,0,0,0,0,0,0,0,0,0,0,
0,0,0,0,0,0,0,0,0,0,0,0,0,0,0,0,0,0,0,0,0,0,0,0,0,0,0,0,0,0,0,0,0,0,0,0,0,0,0,0,0,0,0,0,0,0,0,0,0,0,0,0,0,0,0,0,0,0,0,0,0,0,0,0,0,0,0,0,0,0,0,0,0,0,0,0,0,0,0,0,0,0,0,0,0,0,0,0,0,0,0,0,0,0,0,0,0,0,0,0,0,0,0,0,0,0,0,0,0,0,0,0,0,0,0,0,0,0,0,0,0,0,0,0,0,0,0,0,0,0,0,0,0,0,0,0,0,0,0,0,0,0,0,0,0,0,0,0,0,0,
0,0,0,0,0,0,0,0,0,0,0,0,0,0,0,0,0,0,0,0,0,0,0,0,0,0,0,0,0,0,0,0,0,0,0,0,0,0,0,0,0,0,0,0,0,0,0,0,0,0,0,0,0,0,0,0,0,0,0,0,0,0,0,0,0,0,0,0,0,0,0,0,0,0,0,0,0,0,0,0,0,0,0,0,0,0,0,0,0,0,0,0,0,0,0,0,0,0,0,0,0,0,0,0,0,0,0,0,0,0,0,0,0,0,0,0,0,0,0,0,0,0,0,0,0,0,0,0,0,0,0,0,0,0,0,0,0,0,0,0,0,0,0,0,0,0,0,0,0,0,
0,0,0,0,0,0,0,0,0,0,0,0,0,0,0,0,0,0,0,0,0,0,0,0,0,0,0,0,0,0,0,0,0,0,0,0,0,0,0,0,0,0,0,0,0,0,0,0,0,0,0,0,0,0,0,0,0,0,0,0,0,0,0,0,0,0,0,0,0,0,0,0,0,0,0,0,0,0,0,0,0,0,0,0,0,0,0,0,0,0,0,0,0,0,0,0,0,0,0,0,0,0,0,0,0,0,0,0,0,0,0,0,0,0,0,0,0,0,0,0,0,0,0,0,0,0,0,0,0,0,0,0,0,0,0,0,0,0,0,0,0,0,0,0,0,0,0,0,0,0,
0,0,0,0,0,0,0,0,0,0,0,0,0,0,0,0,0,0,0,0,0,0,0,0,0,0,0,0,0,0,0,0,0,0,0,0,0,0,0,0,0,0,0,0,0,0,0,0,0,0,0,0,0,0,0,0,0,0,0,0,0,0,0,0,0,0,0,0,0,0,0,0,0,0,0,0,0,0,0,0,0,0,0,0,0,0,0,0,0,0,0,0,0,0,0,0,0,0,0,0,0,0,0,0,0,0,0,0,0,0,0,0,0,0,0,0,0,0,0,0,0,0,0,0,0,0,0,0,0,0,0,0,0,0,0,0,0,0,0,0,0,0,0,0,0,0,0,0,0,0,
0,0,0,0,0,0,0,0,0,0,0,0,0,0,0,0,0,0,0,0,0,0,0,0,0,0,0,0,0,0,0,0,0,0,0,0,0,0,0,0,0,0,0,0,0,0,0,0,0,0,0,0,0,0,0,0,0,0,0,0,0,0,0,0,0,0,0,0,0,0,0,0,0,0,0,0,0,0,0,0,0,0,0,0,0,0,0,0,0,0,0,0,0,0,0,0,0,0,0,0,0,0,0,0,0,0,0,0,0,0,0,0,0,0,0,0,0,0,0,0,0,0,0,0,0,0,0,0,0,0,0,0,0,0,0,0,0,0,0,0,0,0,0,0,0,0,0,0,0,0,
0,0,0,0,0,0,0,0,0,0,0,0,0,0,0,0,0,0,0,0,0,0,0,0,0,0,0,0,0,0,0,0,0,0,0,0,0,0,0,0,0,0,0,0,0,0,0,0,0,0,0,0,0,0,0,0,0,0,0,0,0,0,0,0,0,0,0,0,0,0,0,0,0,0,0,0,0,0,0,0,0,0,0,0,0,0,0,0,0,0,0,0,0,0,0,0,0,0,0,0,0,0,0,0,0,0,0,0,0,0,0,0,0,0,0,0,0,0,0,0,0,0,0,0,0,0,0,0,0,0,0,0,0,0,0,0,0,0,0,0,0,0,0,0,0,0,0,0,0,0,
0,0,0,0,0,0,0,0,0,0,0,0,0,0,0,0,0,0,0,0,0,0,0,0,0,0,0,0,0,0,0,0,0,0,0,0,0,0,0,0,0,0,0,0,0,0,0,0,0,0,0,0,0,0,0,0,0,0,0,0,0,0,0,0,0,0,0,0,0,0,0,0,0,0,0,0,0,0,0,0,0,0,0,0,0,0,0,0,0,0,0,0,0,0,0,0,0,0,0,0,0,0,0,0,0,0,0,0,0,0,0,0,0,0,0,0,0,0,0,0,0,0,0,0,0,0,0,0,0,0,0,0,0,0,0,0,0,0,0,0,0,0,0,0,0,0,0,0,0,0,
0,0,0,0,0,0,0,0,0,0,0,0,0,0,0,0,0,0,0,0,0,0,0,0,0,0,0,0,0,0,0,0,0,0,0,0,0,0,0,0,0,0,0,0,0,0,0,0,0,0,0,0,0,0,0,0,0,0,0,0,0,0,0,0,0,0,0,0,0,0,0,0,0,0,0,0,0,0,0,0,0,0,0,0,0,0,0,0,0,0,0,0,0,0,0,0,0,0,0,0,0,0,0,0,0,0,0,0,0,0,0,0,0,0,0,0,0,0,0,0,0,0,0,0,0,0,0,0,0,0,0,0,0,0,0,0,0,0,0,0,0,0,0,0,0,0,0,0,0,0,
0,0,0,0,0,0,0,0,0,0,0,0,0,0,0,0,0,0,0,0,0,0,0,0,0,0,0,0,0,0,0,0,0,0,0,0,0,0,0,0,0,0,0,0,0,0,0,0,0,0,0,0,0,0,0,0,0,0,0,0,0,0,0,0,0,0,0,0,0,0,0,0,0,0,0,0,0,0,0,0,0,0,0,0,0,0,0,0,0,0,0,0,0,0,0,0,0,0,0,0,0,0,0,0,0,0,0,0,0,0,0,0,0,0,0,0,0,0,0,0,0,0,0,0,0,0,0,0,0,0,0,0,0,0,0,0,0,0,0,0,0,0,0,0,0,0,0,0,0,0,
0,0,0,0,0,0,0,0,0,0,0,0,0,0,0,0,0,0,0,0,0,0,0,0,0,0,0,0,0,0,0,0,0,0,0,0,0,0,0,0,0,0,0,0,0,0,0,0,0,0,0,0,0,0,0,0,0,0,0,0,0,0,0,0,0,0,0,0,0,0,0,0,0,0,0,0,0,0,0,0,0,0,0,0,0,0,0,0,0,0,0,0,0,0,0,0,0,0,0,0,0,0,0,0,0,0,0,0,0,0,0,0,0,0,0,0,0,0,0,0,0,0,0,0,0,0,0,0,0,0,0,0,0,0,0,0,0,0,0,0,0,0,0,0,0,0,0,0,0,0,
0,0,0,0,0,0,0,0,0,0,0,0,0,0,0,0,0,0,0,0,0,0,0,0,0,0,0,0,0,0,0,0,0,0,0,0,0,0,0,0,0,0,0,0,0,0,0,0,0,0,0,0,0,0,0,0,0,0,0,0,0,0,0,0,0,0,0,0,0,0,0,0,0,0,0,0,0,0,0,0,0,0,0,0,0,0,0,0,0,0,0,0,0,0,0,0,0,0,0,0,0,0,0,0,0,0,0,0,0,0,0,0,0,0,0,0,0,0,0,0,0,0,0,0,0,0,0,0,0,0,0,0,0,0,0,0,0,0,0,0,0,0,0,0,0,0,0,0,0,0,
0,0,0,0,0,0,0,0,0,0,0,0,0,0,0,0,0,0,0,0,0,0,0,0,0,0,0,0,0,0,0,0,0,0,0,0,0,0,0,0,0,0,0,0,0,0,0,0,0,0,0,0,0,0,0,0,0,0,0,0,0,0,0,0,0,0,0,0,0,0,0,0,0,0,0,0,0,0,0,0,0,0,0,0,0,0,0,0,0,0,0,0,0,0,0,0,0,0,0,0,0,0,0,0,0,0,0,0,0,0,0,0,0,0,0,0,0,0,0,0,0,0,0,0,0,0,0,0,0,0,0,0,0,0,0,0,0,0,0,0,0,0,0,0,0,0,0,0,0,0,
0,0,0,0,0,0,0,0,0,0,0,0,0,0,0,0,0,0,0,0,0,0,0,0,0,0,0,0,0,0,0,0,0,0,0,0,0,0,0,0,0,0,0,0,0,0,0,0,0,0,0,0,0,0,0,0,0,0,0,0,0,0,0,0,0,0,0,0,0,0,0,0,0,0,0,0,0,0,0,0,0,0,0,0,0,0,0,0,0,0,0,0,0,0,0,0,0,0,0,0,0,0,0,0,0,0,0,0,0,0,0,0,0,0,0,0,0,0,0,0,0,0,0,0,0,0,0,0,0,0,0,0,0,0,0,0,0,0,0,0,0,0,0,0,0,0,0,0,0,0,
0,0,0,0,0,0,0,0,0,0,0,0,0,0,0,0,0,0,0,0,0,0,0,0,0,0,0,0,0,0,0,0,0,0,0,0,0,0,0,0,0,0,0,0,0,0,0,0,0,0,0,0,0,0,0,0,0,0,0,0,0,0,0,0,0,0,0,0,0,0,0,0,0,0,0,0,0,0,0,0,0,0,0,0,0,0,0,0,0,0,0,0,0,0,0,0,0,0,0,0,0,0,0,0,0,0,0,0,0,0,0,0,0,0,0,0,0,0,0,0,0,0,0,0,0,0,0,0,0,0,0,0,0,0,0,0,0,0,0,0,0,0,0,0,0,0,0,0,0,0,
0,0,0,0,0,0,0,0,0,0,0,0,0,0,0,0,0,0,0,0,0,0,0,0,0,0,0,0,0,0,0,0,0,0,0,0,0,0,0,0,0,0,0,0,0,0,0,0,0,0,0,0,0,0,0,0,0,0,0,0,0,0,0,0,0,0,0,0,0,0,0,0,0,0,0,0,0,0,0,0,0,0,0,0,0,0,0,0,0,0,0,0,0,0,0,0,0,0,0,0,0,0,0,0,0,0,0,0,0,0,0,0,0,0,0,0,0,0,0,0,0,0,0,0,0,0,0,0,0,0,0,0,0,0,0,0,0,0,0,0,0,0,0,0,0,0,0,0,0,0,
0,0,0,0,0,0,0,0,0,0,0,0,0,0,0,0,0,0,0,0,0,0,0,0,0,0,0,0,0,0,0,0,0,0,0,0,0,0,0,0,0,0,0,0,0,0,0,0,0,0,0,0,0,0,0,0,0,0,0,0,0,0,0,0,0,0,0,0,0,0,0,0,0,0,0,0,0,0,0,0,0,0,0,0,0,0,0,0,0,0,0,0,0,0,0,0,0,0,0,0,0,0,0,0,0,0,0,0,0,0,0,0,0,0,0,0,0,0,0,0,0,0,0,0,0,0,0,0,0,0,0,0,0,0,0,0,0,0,0,0,0,0,0,0,0,0,0,0,0,0,
0,0,0,0,0,0,0,0,0,0,0,0,0,0,0,0,0,0,0,0,0,0,0,0,0,0,0,0,0,0,0,0,0,0,0,0,0,0,0,0,0,0,0,0,0,0,0,0,0,0,0,0,0,0,0,0,0,0,0,0,0,0,0,0,0,0,0,0,0,0,0,0,0,0,0,0,0,0,0,0,0,0,0,0,0,0,0,0,0,0,0,0,0,0,0,0,0,0,0,0,0,0,0,0,0,0,0,0,0,0,0,0,0,0,0,0,0,0,0,0,0,0,0,0,0,0,0,0,0,0,0,0,0,0,0,0,0,0,0,0,0,0,0,0,0,0,0,0,0,0,
0,0,0,0,0,0,0,0,0,0,0,0,0,0,0,0,0,0,0,0,0,0,0,0,0,0,0,0,0,0,0,0,0,0,0,0,0,0,0,0,0,0,0,0,0,0,0,0,0,0,0,0,0,0,0,0,0,0,0,0,0,0,0,0,0,0,0,0,0,0,0,0,0,0,0,0,0,0,0,0,0,0,0,0,0,0,0,0,0,0,0,0,0,0,0,0,0,0,0,0,0,0,0,0,0,0,0,0,0,0,0,0,0,0,0,0,0,0,0,0,0,0,0,0,0,0,0,0,0,0,0,0,0,0,0,0,0,0,0,0,0,0,0,0,0,0,0,0,0,0,
0,0,0,0,0,0,0,0,0,0,0,0,0,0,0,0,0,0,0,0,0,0,0,0,0,0,0,0,0,0,0,0,0,0,0,0,0,0,0,0,0,0,0,0,0,0,0,0,0,0,0,0,0,0,0,0,0,0,0,0,0,0,0,0,0,0,0,0,0,0,0,0,0,0,0,0,0,0,0,0,0,0,0,0,0,0,0,0,0,0,0,0,0,0,0,0,0,0,0,0,0,0,0,0,0,0,0,0,0,0,0,0,0,0,0,0,0,0,0,0,0,0,0,0,0,0,0,0,0,0,0,0,0,0,0,0,0,0,0,0,0,0,0,0,0,0,0,0,0,0,
0,0,0,0,0,0,0,0,0,0,0,0,0,0,0,0,0,0,0,0,0,0,0,0,0,0,0,0,0,0,0,0,0,0,0,0,0,0,0,0,0,0,0,0,0,0,0,0,0,0,0,0,0,0,0,0,0,0,0,0,0,0,0,0,0,0,0,0,0,0,0,0,0,0,0,0,0,0,0,0,0,0,0,0,0,0,0,0,0,0,0,0,0,0,0,0,0,0,0,0,0,0,0,0,0,0,0,0,0,0,0,0,0,0,0,0,0,0,0,0,0,0,0,0,0,0,0,0,0,0,0,0,0,0,0,0,0,0,0,0,0,0,0,0,0,0,0,0,0,0,
0,0,0,0,0,0,0,0,0,0,0,0,0,0,0,0,0,0,0,0,0,0,0,0,0,0,0,0,0,0,0,0,0,0,0,0,0,0,0,0,0,0,0,0,0,0,0,0,0,0,0,0,0,0,0,0,0,0,0,0,0,0,0,0,0,0,0,0,0,0,0,0,0,0,0,0,0,0,0,0,0,0,0,0,0,0,0,0,0,0,0,0,0,0,0,0,0,0,0,0,0,0,0,0,0,0,0,0,0,0,0,0,0,0,0,0,0,0,0,0,0,0,0,0,0,0,0,0,0,0,0,0,0,0,0,0,0,0,0,0,0,0,0,0,0,0,0,0,0,0,
0,0,0,0,0,0,0,0,0,0,0,0,0,0,0,0,0,0,0,0,0,0,0,0,0,0,0,0,0,0,0,0,0,0,0,0,0,0,0,0,0,0,0,0,0,0,0,0,0,0,0,0,0,0,0,0,0,0,0,0,0,0,0,0,0,0,0,0,0,0,0,0,0,0,0,0,0,0,0,0,0,0,0,0,0,0,0,0,0,0,0,0,0,0,0,0,0,0,0,0,0,0,0,0,0,0,0,0,0,0,0,0,0,0,0,0,0,0,0,0,0,0,0,0,0,0,0,0,0,0,0,0,0,0,0,0,0,0,0,0,0,0,0,0,0,0,0,0,0,0,
0,0,0,0,0,0,0,0,0,0,0,0,0,0,0,0,0,0,0,0,0,0,0,0,0,0,0,0,0,0,0,0,0,0,0,0,0,0,0,0,0,0,0,0,0,0,0,0,0,0,0,0,0,0,0,0,0,0,0,0,0,0,0,0,0,0,0,0,0,0,0,0,0,0,0,0,0,0,0,0,0,0,0,0,0,0,0,0,0,0,0,0,0,0,0,0,0,0,0,0,0,0,0,0,0,0,0,0,0,0,0,0,0,0,0,0,0,0,0,0,0,0,0,0,0,0,0,0,0,0,0,0,0,0,0,0,0,0,0,0,0,0,0,0,0,0,0,0,0,0,
0,0,0,0,0,0,0,0,0,0,0,0,0,0,0,0,0,0,0,0,0,0,0,0,0,0,0,0,0,0,0,0,0,0,0,0,0,0,0,0,0,0,0,0,0,0,0,0,0,0,0,0,0,0,0,0,0,0,0,0,0,0,0,0,0,0,0,0,0,0,0,0,0,0,0,0,0,0,0,0,0,0,0,0,0,0,0,0,0,0,0,0,0,0,0,0,0,0,0,0,0,0,0,0,0,0,0,0,0,0,0,0,0,0,0,0,0,0,0,0,0,0,0,0,0,0,0,0,0,0,0,0,0,0,0,0,0,0,0,0,0,0,0,0,0,0,0,0,0,0,
0,0,0,0,0,0,0,0,0,0,0,0,0,0,0,0,0,0,0,0,0,0,0,0,0,0,0,0,0,0,0,0,0,0,0,0,0,0,0,0,0,0,0,0,0,0,0,0,0,0,0,0,0,0,0,0,0,0,0,0,0,0,0,0,0,0,0,0,0,0,0,0,0,0,0,0,0,0,0,0,0,0,0,0,0,0,0,0,0,0,0,0,0,0,0,0,0,0,0,0,0,0,0,0,0,0,0,0,0,0,0,0,0,0,0,0,0,0,0,0,0,0,0,0,0,0,0,0,0,0,0,0,0,0,0,0,0,0,0,0,0,0,0,0,0,0,0,0,0,0,
0,0,0,0,0,0,0,0,0,0,0,0,0,0,0,0,0,0,0,0,0,0,0,0,0,0,0,0,0,0,0,0,0,0,0,0,0,0,0,0,0,0,0,0,0,0,0,0,0,0,0,0,0,0,0,0,0,0,0,0,0,0,0,0,0,0,0,0,0,0,0,0,0,0,0,0,0,0,0,0,0,0,0,0,0,0,0,0,0,0,0,0,0,0,0,0,0,0,0,0,0,0,0,0,0,0,0,0,0,0,0,0,0,0,0,0,0,0,0,0,0,0,0,0,0,0,0,0,0,0,0,0,0,0,0,0,0,0,0,0,0,0,0,0,0,0,0,0,0,0,
0,0,0,0,0,0,0,0,0,0,0,0,0,0,0,0,0,0,0,0,0,0,0,0,0,0,0,0,0,0,0,0,0,0,0,0,0,0,0,0,0,0,0,0,0,0,0,0,0,0,0,0,0,0,0,0,0,0,0,0,0,0,0,0,0,0,0,0,0,0,0,0,0,0,0,0,0,0,0,0,0,0,0,0,0,0,0,0,0,0,0,0,0,0,0,0,0,0,0,0,0,0,0,0,0,0,0,0,0,0,0,0,0,0,0,0,0,0,0,0,0,0,0,0,0,0,0,0,0,0,0,0,0,0,0,0,0,0,0,0,0,0,0,0,0,0,0,0,0,0,
0,0,0,0,0,0,0,0,0,0,0,0,0,0,0,0,0,0,0,0,0,0,0,0,0,0,0,0,0,0,0,0,0,0,0,0,0,0,0,0,0,0,0,0,0,0,0,0,0,0,0,0,0,0,0,0,0,0,0,0,0,0,0,0,0,0,0,0,0,0,0,0,0,0,0,0,0,0,0,0,0,0,0,0,0,0,0,0,0,0,0,0,0,0,0,0,0,0,0,0,0,0,0,0,0,0,0,0,0,0,0,0,0,0,0,0,0,0,0,0,0,0,0,0,0,0,0,0,0,0,0,0,0,0,0,0,0,0,0,0,0,0,0,0,0,0,0,0,0,0,
0,0,0,0,0,0,0,0,0,0,0,0,0,0,0,0,0,0,0,0,0,0,0,0,0,0,0,0,0,0,0,0,0,0,0,0,0,0,0,0,0,0,0,0,0,0,0,0,0,0,0,0,0,0,0,0,0,0,0,0,0,0,0,0,0,0,0,0,0,0,0,0,0,0,0,0,0,0,0,0,0,0,0,0,0,0,0,0,0,0,0,0,0,0,0,0,0,0,0,0,0,0,0,0,0,0,0,0,0,0,0,0,0,0,0,0,0,0,0,0,0,0,0,0,0,0,0,0,0,0,0,0,0,0,0,0,0,0,0,0,0,0,0,0,0,0,0,0,0,0,
0,0,0,0,0,0,0,0,0,0,0,0,0,0,0,0,0,0,0,0,0,0,0,0,0,0,0,0,0,0,0,0,0,0,0,0,0,0,0,0,0,0,0,0,0,0,0,0,0,0,0,0,0,0,0,0,0,0,0,0,0,0,0,0,0,0,0,0,0,0,0,0,0,0,0,0,0,0,0,0,0,0,0,0,0,0,0,0,0,0,0,0,0,0,0,0,0,0,0,0,0,0,0,0,0,0,0,0,0,0,0,0,0,0,0,0,0,0,0,0,0,0,0,0,0,0,0,0,0,0,0,0,0,0,0,0,0,0,0,0,0,0,0,0,0,0,0,0,0,0,
0,0,0,0,0,0,0,0,0,0,0,0,0,0,0,0,0,0,0,0,0,0,0,0,0,0,0,0,0,0,0,0,0,0,0,0,0,0,0,0,0,0,0,0,0,0,0,0,0,0,0,0,0,0,0,0,0,0,0,0,0,0,0,0,0,0,0,0,0,0,0,0,0,0,0,0,0,0,0,0,0,0,0,0,0,0,0,0,0,0,0,0,0,0,0,0,0,0,0,0,0,0,0,0,0,0,0,0,0,0,0,0,0,0,0,0,0,0,0,0,0,0,0,0,0,0,0,0,0,0,0,0,0,0,0,0,0,0,0,0,0,0,0,0,0,0,0,0,0,0,
0,0,0,0,0,0,0,0,0,0,0,0,0,0,0,0,0,0,0,0,0,0,0,0,0,0,0,0,0,0,0,0,0,0,0,0,0,0,0,0,0,0,0,0,0,0,0,0,0,0,0,0,0,0,0,0,0,0,0,0,0,0,0,0,0,0,0,0,0,0,0,0,0,0,0,0,0,0,0,0,0,0,0,0,0,0,0,0,0,0,0,0,0,0,0,0,0,0,0,0,0,0,0,0,0,0,0,0,0,0,0,0,0,0,0,0,0,0,0,0,0,0,0,0,0,0,0,0,0,0,0,0,0,0,0,0,0,0,0,0,0,0,0,0,0,0,0,0,0,0,
0,0,0,0,0,0,0,0,0,0,0,0,0,0,0,0,0,0,0,0,0,0,0,0,0,0,0,0,0,0,0,0,0,0,0,0,0,0,0,0,0,0,0,0,0,0,0,0,0,0,0,0,0,0,0,0,0,0,0,0,0,0,0,0,0,0,0,0,0,0,0,0,0,0,0,0,0,0,0,0,0,0,0,0,0,0,0,0,0,0,0,0,0,0,0,0,0,0,0,0,0,0,0,0,0,0,0,0,0,0,0,0,0,0,0,0,0,0,0,0,0,0,0,0,0,0,0,0,0,0,0,0,0,0,0,0,0,0,0,0,0,0,0,0,0,0,0,0,0,0,
0,0,0,0,0,0,0,0,0,0,0,0,0,0,0,0,0,0,0,0,0,0,0,0,0,0,0,0,0,0,0,0,0,0,0,0,0,0,0,0,0,0,0,0,0,0,0,0,0,0,0,0,0,0,0,0,0,0,0,0,0,0,0,0,0,0,0,0,0,0,0,0,0,0,0,0,0,0,0,0,0,0,0,0,0,0,0,0,0,0,0,0,0,0,0,0,0,0,0,0,0,0,0,0,0,0,0,0,0,0,0,0,0,0,0,0,0,0,0,0,0,0,0,0,0,0,0,0,0,0,0,0,0,0,0,0,0,0,0,0,0,0,0,0,0,0,0,0,0,0,
0,0,0,0,0,0,0,0,0,0,0,0,0,0,0,0,0,0,0,0,0,0,0,0,0,0,0,0,0,0,0,0,0,0,0,0,0,0,0,0,0,0,0,0,0,0,0,0,0,0,0,0,0,0,0,0,0,0,0,0,0,0,0,0,0,0,0,0,0,0,0,0,0,0,0,0,0,0,0,0,0,0,0,0,0,0,0,0,0,0,0,0,0,0,0,0,0,0,0,0,0,0,0,0,0,0,0,0,0,0,0,0,0,0,0,0,0,0,0,0,0,0,0,0,0,0,0,0,0,0,0,0,0,0,0,0,0,0,0,0,0,0,0,0,0,0,0,0,0,0,
0,0,0,0,0,0,0,0,0,0,0,0,0,0,0,0,0,0,0,0,0,0,0,0,0,0,0,0,0,0,0,0,0,0,0,0,0,0,0,0,0,0,0,0,0,0,0,0,0,0,0,0,0,0,0,0,0,0,0,0,0,0,0,0,0,0,0,0,0,0,0,0,0,0,0,0,0,0,0,0,0,0,0,0,0,0,0,0,0,0,0,0,0,0,0,0,0,0,0,0,0,0,0,0,0,0,0,0,0,0,0,0,0,0,0,0,0,0,0,0,0,0,0,0,0,0,0,0,0,0,0,0,0,0,0,0,0,0,0,0,0,0,0,0,0,0,0,0,0,0,
0,0,0,0,0,0,0,0,0,0,0,0,0,0,0,0,0,0,0,0,0,0,0,0,0,0,0,0,0,0,0,0,0,0,0,0,0,0,0,0,0,0,0,0,0,0,0,0,0,0,0,0,0,0,0,0,0,0,0,0,0,0,0,0,0,0,0,0,0,0,0,0,0,0,0,0,0,0,0,0,0,0,0,0,0,0,0,0,0,0,0,0,0,0,0,0,0,0,0,0,0,0,0,0,0,0,0,0,0,0,0,0,0,0,0,0,0,0,0,0,0,0,0,0,0,0,0,0,0,0,0,0,0,0,0,0,0,0,0,0,0,0,0,0,0,0,0,0,0,0,
0,0,0,0,0,0,0,0,0,0,0,0,0,0,0,0,0,0,0,0,0,0,0,0,0,0,0,0,0,0,0,0,0,0,0,0,0,0,0,0,0,0,0,0,0,0,0,0,0,0,0,0,0,0,0,0,0,0,0,0,0,0,0,0,0,0,0,0,0,0,0,0,0,0,0,0,0,0,0,0,0,0,0,0,0,0,0,0,0,0,0,0,0,0,0,0,0,0,0,0,0,0,0,0,0,0,0,0,0,0,0,0,0,0,0,0,0,0,0,0,0,0,0,0,0,0,0,0,0,0,0,0,0,0,0,0,0,0,0,0,0,0,0,0,0,0,0,0,0,0,
0,0,0,0,0,0,0,0,0,0,0,0,0,0,0,0,0,0,0,0,0,0,0,0,0,0,0,0,0,0,0,0,0,0,0,0,0,0,0,0,0,0,0,0,0,0,0,0,0,0,0,0,0,0,0,0,0,0,0,0,0,0,0,0,0,0,0,0,0,0,0,0,0,0,0,0,0,0,0,0,0,0,0,0,0,0,0,0,0,0,0,0,0,0,0,0,0,0,0,0,0,0,0,0,0,0,0,0,0,0,0,0,0,0,0,0,0,0,0,0,0,0,0,0,0,0,0,0,0,0,0,0,0,0,0,0,0,0,0,0,0,0,0,0,0,0,0,0,0,0,
0,0,0,0,0,0,0,0,0,0,0,0,0,0,0,0,0,0,0,0,0,0,0,0,0,0,0,0,0,0,0,0,0,0,0,0,0,0,0,0,0,0,0,0,0,0,0,0,0,0,0,0,0,0,0,0,0,0,0,0,0,0,0,0,0,0,0,0,0,0,0,0,0,0,0,0,0,0,0,0,0,0,0,0,0,0,0,0,0,0,0,0,0,0,0,0,0,0,0,0,0,0,0,0,0,0,0,0,0,0,0,0,0,0,0,0,0,0,0,0,0,0,0,0,0,0,0,0,0,0,0,0,0,0,0,0,0,0,0,0,0,0,0,0,0,0,0,0,0,0,
0,0,0,0,0,0,0,0,0,0,0,0,0,0,0,0,0,0,0,0,0,0,0,0,0,0,0,0,0,0,0,0,0,0,0,0,0,0,0,0,0,0,0,0,0,0,0,0,0,0,0,0,0,0,0,0,0,0,0,0,0,0,0,0,0,0,0,0,0,0,0,0,0,0,0,0,0,0,0,0,0,0,0,0,0,0,0,0,0,0,0,0,0,0,0,0,0,0,0,0,0,0,0,0,0,0,0,0,0,0,0,0,0,0,0,0,0,0,0,0,0,0,0,0,0,0,0,0,0,0,0,0,0,0,0,0,0,0,0,0,0,0,0,0,0,0,0,0,0,0,
0,0,0,0,0,0,0,0,0,0,0,0,0,0,0,0,0,0,0,0,0,0,0,0,0,0,0,0,0,0,0,0,0,0,0,0,0,0,0,0,0,0,0,0,0,0,0,0,0,0,0,0,0,0,0,0,0,0,0,0,0,0,0,0,0,0,0,0,0,0,0,0,0,0,0,0,0,0,0,0,0,0,0,0,0,0,0,0,0,0,0,0,0,0,0,0,0,0,0,0,0,0,0,0,0,0,0,0,0,0,0,0,0,0,0,0,0,0,0,0,0,0,0,0,0,0,0,0,0,0,0,0,0,0,0,0,0,0,0,0,0,0,0,0,0,0,0,0,0,0,
0,0,0,0,0,0,0,0,0,0,0,0,0,0,0,0,0,0,0,0,0,0,0,0,0,0,0,0,0,0,0,0,0,0,0,0,0,0,0,0,0,0,0,0,0,0,0,0,0,0,0,0,0,0,0,0,0,0,0,0,0,0,0,0,0,0,0,0,0,0,0,0,0,0,0,0,0,0,0,0,0,0,0,0,0,0,0,0,0,0,0,0,0,0,0,0,0,0,0,0,0,0,0,0,0,0,0,0,0,0,0,0,0,0,0,0,0,0,0,0,0,0,0,0,0,0,0,0,0,0,0,0,0,0,0,0,0,0,0,0,0,0,0,0,0,0,0,0,0,0,
0,0,0,0,0,0,0,0,0,0,0,0,0,0,0,0,0,0,0,0,0,0,0,0,0,0,0,0,0,0,0,0,0,0,0,0,0,0,0,0,0,0,0,0,0,0,0,0,0,0,0,0,0,0,0,0,0,0,0,0,0,0,0,0,0,0,0,0,0,0,0,0,0,0,0,0,0,0,0,0,0,0,0,0,0,0,0,0,0,0,0,0,0,0,0,0,0,0,0,0,0,0,0,0,0,0,0,0,0,0,0,0,0,0,0,0,0,0,0,0,0,0,0,0,0,0,0,0,0,0,0,0,0,0,0,0,0,0,0,0,0,0,0,0,0,0,0,0,0,0,
0,0,0,0,0,0,0,0,0,0,0,0,0,0,0,0,0,0,0,0,0,0,0,0,0,0,0,0,0,0,0,0,0,0,0,0,0,0,0,0,0,0,0,0,0,0,0,0,0,0,0,0,0,0,0,0,0,0,0,0,0,0,0,0,0,0,0,0,0,0,0,0,0,0,0,0,0,0,0,0,0,0,0,0,0,0,0,0,0,0,0,0,0,0,0,0,0,0,0,0,0,0,0,0,0,0,0,0,0,0,0,0,0,0,0,0,0,0,0,0,0,0,0,0,0,0,0,0,0,0,0,0,0,0,0,0,0,0,0,0,0,0,0,0,0,0,0,0,0,0,
0,0,0,0,0,0,0,0,0,0,0,0,0,0,0,0,0,0,0,0,0,0,0,0,0,0,0,0,0,0,0,0,0,0,0,0,0,0,0,0,0,0,0,0,0,0,0,0,0,0,0,0,0,0,0,0,0,0,0,0,0,0,0,0,0,0,0,0,0,0,0,0,0,0,0,0,0,0,0,0,0,0,0,0,0,0,0,0,0,0,0,0,0,0,0,0,0,0,0,0,0,0,0,0,0,0,0,0,0,0,0,0,0,0,0,0,0,0,0,0,0,0,0,0,0,0,0,0,0,0,0,0,0,0,0,0,0,0,0,0,0,0,0,0,0,0,0,0,0,0,
0,0,0,0,0,0,0,0,0,0,0,0,0,0,0,0,0,0,0,0,0,0,0,0,0,0,0,0,0,0,0,0,0,0,0,0,0,0,0,0,0,0,0,0,0,0,0,0,0,0,0,0,0,0,0,0,0,0,0,0,0,0,0,0,0,0,0,0,0,0,0,0,0,0,0,0,0,0,0,0,0,0,0,0,0,0,0,0,0,0,0,0,0,0,0,0,0,0,0,0,0,0,0,0,0,0,0,0,0,0,0,0,0,0,0,0,0,0,0,0,0,0,0,0,0,0,0,0,0,0,0,0,0,0,0,0,0,0,0,0,0,0,0,0,0,0,0,0,0,0,
0,0,0,0,0,0,0,0,0,0,0,0,0,0,0,0,0,0,0,0,0,0,0,0,0,0,0,0,0,0,0,0,0,0,0,0,0,0,0,0,0,0,0,0,0,0,0,0,0,0,0,0,0,0,0,0,0,0,0,0,0,0,0,0,0,0,0,0,0,0,0,0,0,0,0,0,0,0,0,0,0,0,0,0,0,0,0,0,0,0,0,0,0,0,0,0,0,0,0,0,0,0,0,0,0,0,0,0,0,0,0,0,0,0,0,0,0,0,0,0,0,0,0,0,0,0,0,0,0,0,0,0,0,0,0,0,0,0,0,0,0,0,0,0,0,0,0,0,0,0,
0,0,0,0,0,0,0,0,0,0,0,0,0,0,0,0,0,0,0,0,0,0,0,0,0,0,0,0,0,0,0,0,0,0,0,0,0,0,0,0,0,0,0,0,0,0,0,0,0,0,0,0,0,0,0,0,0,0,0,0,0,0,0,0,0,0,0,0,0,0,0,0,0,0,0,0,0,0,0,0,0,0,0,0,0,0,0,0,0,0,0,0,0,0,0,0,0,0,0,0,0,0,0,0,0,0,0,0,0,0,0,0,0,0,0,0,0,0,0,0,0,0,0,0,0,0,0,0,0,0,0,0,0,0,0,0,0,0,0,0,0,0,0,0,0,0,0,0,0,0,
0,0,0,0,0,0,0,0,0,0,0,0,0,0,0,0,0,0,0,0,0,0,0,0,0,0,0,0,0,0,0,0,0,0,0,0,0,0,0,0,0,0,0,0,0,0,0,0,0,0,0,0,0,0,0,0,0,0,0,0,0,0,0,0,0,0,0,0,0,0,0,0,0,0,0,0,0,0,0,0,0,0,0,0,0,0,0,0,0,0,0,0,0,0,0,0,0,0,0,0,0,0,0,0,0,0,0,0,0,0,0,0,0,0,0,0,0,0,0,0,0,0,0,0,0,0,0,0,0,0,0,0,0,0,0,0,0,0,0,0,0,0,0,0,0,0,0,0,0,0,
0,0,0,0,0,0,0,0,0,0,0,0,0,0,0,0,0,0,0,0,0,0,0,0,0,0,0,0,0,0,0,0,0,0,0,0,0,0,0,0,0,0,0,0,0,0,0,0,0,0,0,0,0,0,0,0,0,0,0,0,0,0,0,0,0,0,0,0,0,0,0,0,0,0,0,0,0,0,0,0,0,0,0,0,0,0,0,0,0,0,0,0,0,0,0,0,0,0,0,0,0,0,0,0,0,0,0,0,0,0,0,0,0,0,0,0,0,0,0,0,0,0,0,0,0,0,0,0,0,0,0,0,0,0,0,0,0,0,0,0,0,0,0,0,0,0,0,0,0,0,
0,0,0,0,0,0,0,0,0,0,0,0,0,0,0,0,0,0,0,0,0,0,0,0,0,0,0,0,0,0,0,0,0,0,0,0,0,0,0,0,0,0,0,0,0,0,0,0,0,0,0,0,0,0,0,0,0,0,0,0,0,0,0,0,0,0,0,0,0,0,0,0,0,0,0,0,0,0,0,0,0,0,0,0,0,0,0,0,0,0,0,0,0,0,0,0,0,0,0,0,0,0,0,0,0,0,0,0,0,0,0,0,0,0,0,0,0,0,0,0,0,0,0,0,0,0,0,0,0,0,0,0,0,0,0,0,0,0,0,0,0,0,0,0,0,0,0,0,0,0,
0,0,0,0,0,0,0,0,0,0,0,0,0,0,0,0,0,0,0,0,0,0,0,0,0,0,0,0,0,0,0,0,0,0,0,0,0,0,0,0,0,0,0,0,0,0,0,0,0,0,0,0,0,0,0,0,0,0,0,0,0,0,0,0,0,0,0,0,0,0,0,0,0,0,0,0,0,0,0,0,0,0,0,0,0,0,0,0,0,0,0,0,0,0,0,0,0,0,0,0,0,0,0,0,0,0,0,0,0,0,0,0,0,0,0,0,0,0,0,0,0,0,0,0,0,0,0,0,0,0,0,0,0,0,0,0,0,0,0,0,0,0,0,0,0,0,0,0,0,0,
0,0,0,0,0,0,0,0,0,0,0,0,0,0,0,0,0,0,0,0,0,0,0,0,0,0,0,0,0,0,0,0,0,0,0,0,0,0,0,0,0,0,0,0,0,0,0,0,0,0,0,0,0,0,0,0,0,0,0,0,0,0,0,0,0,0,0,0,0,0,0,0,0,0,0,0,0,0,0,0,0,0,0,0,0,0,0,0,0,0,0,0,0,0,0,0,0,0,0,0,0,0,0,0,0,0,0,0,0,0,0,0,0,0,0,0,0,0,0,0,0,0,0,0,0,0,0,0,0,0,0,0,0,0,0,0,0,0,0,0,0,0,0,0,0,0,0,0,0,0,
0,0,0,0,0,0,0,0,0,0,0,0,0,0,0,0,0,0,0,0,0,0,0,0,0,0,0,0,0,0,0,0,0,0,0,0,0,0,0,0,0,0,0,0,0,0,0,0,0,0,0,0,0,0,0,0,0,0,0,0,0,0,0,0,0,0,0,0,0,0,0,0,0,0,0,0,0,0,0,0,0,0,0,0,0,0,0,0,0,0,0,0,0,0,0,0,0,0,0,0,0,0,0,0,0,0,0,0,0,0,0,0,0,0,0,0,0,0,0,0,0,0,0,0,0,0,0,0,0,0,0,0,0,0,0,0,0,0,0,0,0,0,0,0,0,0,0,0,0,0,
0,0,0,0,0,0,0,0,0,0,0,0,0,0,0,0,0,0,0,0,0,0,0,0,0,0,0,0,0,0,0,0,0,0,0,0,0,0,0,0,0,0,0,0,0,0,0,0,0,0,0,0,0,0,0,0,0,0,0,0,0,0,0,0,0,0,0,0,0,0,0,0,0,0,0,0,0,0,0,0,0,0,0,0,0,0,0,0,0,0,0,0,0,0,0,0,0,0,0,0,0,0,0,0,0,0,0,0,0,0,0,0,0,0,0,0,0,0,0,0,0,0,0,0,0,0,0,0,0,0,0,0,0,0,0,0,0,0,0,0,0,0,0,0,0,0,0,0,0,0,
0,0,0,0,0,0,0,0,0,0,0,0,0,0,0,0,0,0,0,0,0,0,0,0,0,0,0,0,0,0,0,0,0,0,0,0,0,0,0,0,0,0,0,0,0,0,0,0,0,0,0,0,0,0,0,0,0,0,0,0,0,0,0,0,0,0,0,0,0,0,0,0,0,0,0,0,0,0,0,0,0,0,0,0,0,0,0,0,0,0,0,0,0,0,0,0,0,0,0,0,0,0,0,0,0,0,0,0,0,0,0,0,0,0,0,0,0,0,0,0,0,0,0,0,0,0,0,0,0,0,0,0,0,0,0,0,0,0,0,0,0,0,0,0,0,0,0,0,0,0,
0,0,0,0,0,0,0,0,0,0,0,0,0,0,0,0,0,0,0,0,0,0,0,0,0,0,0,0,0,0,0,0,0,0,0,0,0,0,0,0,0,0,0,0,0,0,0,0,0,0,0,0,0,0,0,0,0,0,0,0,0,0,0,0,0,0,0,0,0,0,0,0,0,0,0,0,0,0,0,0,0,0,0,0,0,0,0,0,0,0,0,0,0,0,0,0,0,0,0,0,0,0,0,0,0,0,0,0,0,0,0,0,0,0,0,0,0,0,0,0,0,0,0,0,0,0,0,0,0,0,0,0,0,0,0,0,0,0,0,0,0,0,0,0,0,0,0,0,0,0,
0,0,0,0,0,0,0,0,0,0,0,0,0,0,0,0,0,0,0,0,0,0,0,0,0,0,0,0,0,0,0,0,0,0,0,0,0,0,0,0,0,0,0,0,0,0,0,0,0,0,0,0,0,0,0,0,0,0,0,0,0,0,0,0,0,0,0,0,0,0,0,0,0,0,0,0,0,0,0,0,0,0,0,0,0,0,0,0,0,0,0,0,0,0,0,0,0,0,0,0,0,0,0,0,0,0,0,0,0,0,0,0,0,0,0,0,0,0,0,0,0,0,0,0,0,0,0,0,0,0,0,0,0,0,0,0,0,0,0,0,0,0,0,0,0,0,0,0,0,0,
0,0,0,0,0,0,0,0,0,0,0,0,0,0,0,0,0,0,0,0,0,0,0,0,0,0,0,0,0,0,0,0,0,0,0,0,0,0,0,0,0,0,0,0,0,0,0,0,0,0,0,0,0,0,0,0,0,0,0,0,0,0,0,0,0,0,0,0,0,0,0,0,0,0,0,0,0,0,0,0,0,0,0,0,0,0,0,0,0,0,0,0,0,0,0,0,0,0,0,0,0,0,0,0,0,0,0,0,0,0,0,0,0,0,0,0,0,0,0,0,0,0,0,0,0,0,0,0,0,0,0,0,0,0,0,0,0,0,0,0,0,0,0,0,0,0,0,0,0,0,
0,0,0,0,0,0,0,0,0,0,0,0,0,0,0,0,0,0,0,0,0,0,0,0,0,0,0,0,0,0,0,0,0,0,0,0,0,0,0,0,0,0,0,0,0,0,0,0,0,0,0,0,0,0,0,0,0,0,0,0,0,0,0,0,0,0,0,0,0,0,0,0,0,0,0,0,0,0,0,0,0,0,0,0,0,0,0,0,0,0,0,0,0,0,0,0,0,0,0,0,0,0,0,0,0,0,0,0,0,0,0,0,0,0,0,0,0,0,0,0,0,0,0,0,0,0,0,0,0,0,0,0,0,0,0,0,0,0,0,0,0,0,0,0,0,0,0,0,0,0,
0,0,0,0,0,0,0,0,0,0,0,0,0,0,0,0,0,0,0,0,0,0,0,0,0,0,0,0,0,0,0,0,0,0,0,0,0,0,0,0,0,0,0,0,0,0,0,0,0,0,0,0,0,0,0,0,0,0,0,0,0,0,0,0,0,0,0,0,0,0,0,0,0,0,0,0,0,0,0,0,0,0,0,0,0,0,0,0,0,0,0,0,0,0,0,0,0,0,0,0,0,0,0,0,0,0,0,0,0,0,0,0,0,0,0,0,0,0,0,0,0,0,0,0,0,0,0,0,0,0,0,0,0,0,0,0,0,0,0,0,0,0,0,0,0,0,0,0,0,0,
0,0,0,0,0,0,0,0,0,0,0,0,0,0,0,0,0,0,0,0,0,0,0,0,0,0,0,0,0,0,0,0,0,0,0,0,0,0,0,0,0,0,0,0,0,0,0,0,0,0,0,0,0,0,0,0,0,0,0,0,0,0,0,0,0,0,0,0,0,0,0,0,0,0,0,0,0,0,0,0,0,0,0,0,0,0,0,0,0,0,0,0,0,0,0,0,0,0,0,0,0,0,0,0,0,0,0,0,0,0,0,0,0,0,0,0,0,0,0,0,0,0,0,0,0,0,0,0,0,0,0,0,0,0,0,0,0,0,0,0,0,0,0,0,0,0,0,0,0,0,
0,0,0,0,0,0,0,0,0,0,0,0,0,0,0,0,0,0,0,0,0,0,0,0,0,0,0,0,0,0,0,0,0,0,0,0,0,0,0,0,0,0,0,0,0,0,0,0,0,0,0,0,0,0,0,0,0,0,0,0,0,0,0,0,0,0,0,0,0,0,0,0,0,0,0,0,0,0,0,0,0,0,0,0,0,0,0,0,0,0,0,0,0,0,0,0,0,0,0,0,0,0,0,0,0,0,0,0,0,0,0,0,0,0,0,0,0,0,0,0,0,0,0,0,0,0,0,0,0,0,0,0,0,0,0,0,0,0,0,0,0,0,0,0,0,0,0,0,0,0,
0,0,0,0,0,0,0,0,0,0,0,0,0,0,0,0,0,0,0,0,0,0,0,0,0,0,0,0,0,0,0,0,0,0,0,0,0,0,0,0,0,0,0,0,0,0,0,0,0,0,0,0,0,0,0,0,0,0,0,0,0,0,0,0,0,0,0,0,0,0,0,0,0,0,0,0,0,0,0,0,0,0,0,0,0,0,0,0,0,0,0,0,0,0,0,0,0,0,0,0,0,0,0,0,0,0,0,0,0,0,0,0,0,0,0,0,0,0,0,0,0,0,0,0,0,0,0,0,0,0,0,0,0,0,0,0,0,0,0,0,0,0,0,0,0,0,0,0,0,0,
0,0,0,0,0,0,0,0,0,0,0,0,0,0,0,0,0,0,0,0,0,0,0,0,0,0,0,0,0,0,0,0,0,0,0,0,0,0,0,0,0,0,0,0,0,0,0,0,0,0,0,0,0,0,0,0,0,0,0,0,0,0,0,0,0,0,0,0,0,0,0,0,0,0,0,0,0,0,0,0,0,0,0,0,0,0,0,0,0,0,0,0,0,0,0,0,0,0,0,0,0,0,0,0,0,0,0,0,0,0,0,0,0,0,0,0,0,0,0,0,0,0,0,0,0,0,0,0,0,0,0,0,0,0,0,0,0,0,0,0,0,0,0,0,0,0,0,0,0,0,
0,0,0,0,0,0,0,0,0,0,0,0,0,0,0,0,0,0,0,0,0,0,0,0,0,0,0,0,0,0,0,0,0,0,0,0,0,0,0,0,0,0,0,0,0,0,0,0,0,0,0,0,0,0,0,0,0,0,0,0,0,0,0,0,0,0,0,0,0,0,0,0,0,0,0,0,0,0,0,0,0,0,0,0,0,0,0,0,0,0,0,0,0,0,0,0,0,0,0,0,0,0,0,0,0,0,0,0,0,0,0,0,0,0,0,0,0,0,0,0,0,0,0,0,0,0,0,0,0,0,0,0,0,0,0,0,0,0,0,0,0,0,0,0,0,0,0,0,0,0,
0,0,0,0,0,0,0,0,0,0,0,0,0,0,0,0,0,0,0,0,0,0,0,0,0,0,0,0,0,0,0,0,0,0,0,0,0,0,0,0,0,0,0,0,0,0,0,0,0,0,0,0,0,0,0,0,0,0,0,0,0,0,0,0,0,0,0,0,0,0,0,0,0,0,0,0,0,0,0,0,0,0,0,0,0,0,0,0,0,0,0,0,0,0,0,0,0,0,0,0,0,0,0,0,0,0,0,0,0,0,0,0,0,0,0,0,0,0,0,0,0,0,0,0,0,0,0,0,0,0,0,0,0,0,0,0,0,0,0,0,0,0,0,0,0,0,0,0,0,0,
0,0,0,0,0,0,0,0,0,0,0,0,0,0,0,0,0,0,0,0,0,0,0,0,0,0,0,0,0,0,0,0,0,0,0,0,0,0,0,0,0,0,0,0,0,0,0,0,0,0,0,0,0,0,0,0,0,0,0,0,0,0,0,0,0,0,0,0,0,0,0,0,0,0,0,0,0,0,0,0,0,0,0,0,0,0,0,0,0,0,0,0,0,0,0,0,0,0,0,0,0,0,0,0,0,0,0,0,0,0,0,0,0,0,0,0,0,0,0,0,0,0,0,0,0,0,0,0,0,0,0,0,0,0,0,0,0,0,0,0,0,0,0,0,0,0,0,0,0,0,
0,0,0,0,0,0,0,0,0,0,0,0,0,0,0,0,0,0,0,0,0,0,0,0,0,0,0,0,0,0,0,0,0,0,0,0,0,0,0,0,0,0,0,0,0,0,0,0,0,0,0,0,0,0,0,0,0,0,0,0,0,0,0,0,0,0,0,0,0,0,0,0,0,0,0,0,0,0,0,0,0,0,0,0,0,0,0,0,0,0,0,0,0,0,0,0,0,0,0,0,0,0,0,0,0,0,0,0,0,0,0,0,0,0,0,0,0,0,0,0,0,0,0,0,0,0,0,0,0,0,0,0,0,0,0,0,0,0,0,0,0,0,0,0,0,0,0,0,0,0,
0,0,0,0,0,0,0,0,0,0,0,0,0,0,0,0,0,0,0,0,0,0,0,0,0,0,0,0,0,0,0,0,0,0,0,0,0,0,0,0,0,0,0,0,0,0,0,0,0,0,0,0,0,0,0,0,0,0,0,0,0,0,0,0,0,0,0,0,0,0,0,0,0,0,0,0,0,0,0,0,0,0,0,0,0,0,0,0,0,0,0,0,0,0,0,0,0,0,0,0,0,0,0,0,0,0,0,0,0,0,0,0,0,0,0,0,0,0,0,0,0,0,0,0,0,0,0,0,0,0,0,0,0,0,0,0,0,0,0,0,0,0,0,0,0,0,0,0,0,0,
0,0,0,0,0,0,0,0,0,0,0,0,0,0,0,0,0,0,0,0,0,0,0,0,0,0,0,0,0,0,0,0,0,0,0,0,0,0,0,0,0,0,0,0,0,0,0,0,0,0,0,0,0,0,0,0,0,0,0,0,0,0,0,0,0,0,0,0,0,0,0,0,0,0,0,0,0,0,0,0,0,0,0,0,0,0,0,0,0,0,0,0,0,0,0,0,0,0,0,0,0,0,0,0,0,0,0,0,0,0,0,0,0,0,0,0,0,0,0,0,0,0,0,0,0,0,0,0,0,0,0,0,0,0,0,0,0,0,0,0,0,0,0,0,0,0,0,0,0,0,
0,0,0,0,0,0,0,0,0,0,0,0,0,0,0,0,0,0,0,0,0,0,0,0,0,0,0,0,0,0,0,0,0,0,0,0,0,0,0,0,0,0,0,0,0,0,0,0,0,0,0,0,0,0,0,0,0,0,0,0,0,0,0,0,0,0,0,0,0,0,0,0,0,0,0,0,0,0,0,0,0,0,0,0,0,0,0,0,0,0,0,0,0,0,0,0,0,0,0,0,0,0,0,0,0,0,0,0,0,0,0,0,0,0,0,0,0,0,0,0,0,0,0,0,0,0,0,0,0,0,0,0,0,0,0,0,0,0,0,0,0,0,0,0,0,0,0,0,0,0,
0,0,0,0,0,0,0,0,0,0,0,0,0,0,0,0,0,0,0,0,0,0,0,0,0,0,0,0,0,0,0,0,0,0,0,0,0,0,0,0,0,0,0,0,0,0,0,0,0,0,0,0,0,0,0,0,0,0,0,0,0,0,0,0,0,0,0,0,0,0,0,0,0,0,0,0,0,0,0,0,0,0,0,0,0,0,0,0,0,0,0,0,0,0,0,0,0,0,0,0,0,0,0,0,0,0,0,0,0,0,0,0,0,0,0,0,0,0,0,0,0,0,0,0,0,0,0,0,0,0,0,0,0,0,0,0,0,0,0,0,0,0,0,0,0,0,0,0,0,0,
0,0,0,0,0,0,0,0,0,0,0,0,0,0,0,0,0,0,0,0,0,0,0,0,0,0,0,0,0,0,0,0,0,0,0,0,0,0,0,0,0,0,0,0,0,0,0,0,0,0,0,0,0,0,0,0,0,0,0,0,0,0,0,0,0,0,0,0,0,0,0,0,0,0,0,0,0,0,0,0,0,0,0,0,0,0,0,0,0,0,0,0,0,0,0,0,0,0,0,0,0,0,0,0,0,0,0,0,0,0,0,0,0,0,0,0,0,0,0,0,0,0,0,0,0,0,0,0,0,0,0,0,0,0,0,0,0,0,0,0,0,0,0,0,0,0,0,0,0,0,
0,0,0,0,0,0,0,0,0,0,0,0,0,0,0,0,0,0,0,0,0,0,0,0,0,0,0,0,0,0,0,0,0,0,0,0,0,0,0,0,0,0,0,0,0,0,0,0,0,0,0,0,0,0,0,0,0,0,0,0,0,0,0,0,0,0,0,0,0,0,0,0,0,0,0,0,0,0,0,0,0,0,0,0,0,0,0,0,0,0,0,0,0,0,0,0,0,0,0,0,0,0,0,0,0,0,0,0,0,0,0,0,0,0,0,0,0,0,0,0,0,0,0,0,0,0,0,0,0,0,0,0,0,0,0,0,0,0,0,0,0,0,0,0,0,0,0,0,0,0,
0,0,0,0,0,0,0,0,0,0,0,0,0,0,0,0,0,0,0,0,0,0,0,0,0,0,0,0,0,0,0,0,0,0,0,0,0,0,0,0,0,0,0,0,0,0,0,0,0,0,0,0,0,0,0,0,0,0,0,0,0,0,0,0,0,0,0,0,0,0,0,0,0,0,0,0,0,0,0,0,0,0,0,0,0,0,0,0,0,0,0,0,0,0,0,0,0,0,0,0,0,0,0,0,0,0,0,0,0,0,0,0,0,0,0,0,0,0,0,0,0,0,0,0,0,0,0,0,0,0,0,0,0,0,0,0,0,0,0,0,0,0,0,0,0,0,0,0,0,0,
0,0,0,0,0,0,0,0,0,0,0,0,0,0,0,0,0,0,0,0,0,0,0,0,0,0,0,0,0,0,0,0,0,0,0,0,0,0,0,0,0,0,0,0,0,0,0,0,0,0,0,0,0,0,0,0,0,0,0,0,0,0,0,0,0,0,0,0,0,0,0,0,0,0,0,0,0,0,0,0,0,0,0,0,0,0,0,0,0,0,0,0,0,0,0,0,0,0,0,0,0,0,0,0,0,0,0,0,0,0,0,0,0,0,0,0,0,0,0,0,0,0,0,0,0,0,0,0,0,0,0,0,0,0,0,0,0,0,0,0,0,0,0,0,0,0,0,0,0,0,
0,0,0,0,0,0,0,0,0,0,0,0,0,0,0,0,0,0,0,0,0,0,0,0,0,0,0,0,0,0,0,0,0,0,0,0,0,0,0,0,0,0,0,0,0,0,0,0,0,0,0,0,0,0,0,0,0,0,0,0,0,0,0,0,0,0,0,0,0,0,0,0,0,0,0,0,0,0,0,0,0,0,0,0,0,0,0,0,0,0,0,0,0,0,0,0,0,0,0,0,0,0,0,0,0,0,0,0,0,0,0,0,0,0,0,0,0,0,0,0,0,0,0,0,0,0,0,0,0,0,0,0,0,0,0,0,0,0,0,0,0,0,0,0,0,0,0,0,0,0,
0,0,0,0,0,0,0,0,0,0,0,0,0,0,0,0,0,0,0,0,0,0,0,0,0,0,0,0,0,0,0,0,0,0,0,0,0,0,0,0,0,0,0,0,0,0,0,0,0,0,0,0,0,0,0,0,0,0,0,0,0,0,0,0,0,0,0,0,0,0,0,0,0,0,0,0,0,0,0,0,0,0,0,0,0,0,0,0,0,0,0,0,0,0,0,0,0,0,0,0,0,0,0,0,0,0,0,0,0,0,0,0,0,0,0,0,0,0,0,0,0,0,0,0,0,0,0,0,0,0,0,0,0,0,0,0,0,0,0,0,0,0,0,0,0,0,0,0,0,0,
0,0,0,0,0,0,0,0,0,0,0,0,0,0,0,0,0,0,0,0,0,0,0,0,0,0,0,0,0,0,0,0,0,0,0,0,0,0,0,0,0,0,0,0,0,0,0,0,0,0,0,0,0,0,0,0,0,0,0,0,0,0,0,0,0,0,0,0,0,0,0,0,0,0,0,0,0,0,0,0,0,0,0,0,0,0,0,0,0,0,0,0,0,0,0,0,0,0,0,0,0,0,0,0,0,0,0,0,0,0,0,0,0,0,0,0,0,0,0,0,0,0,0,0,0,0,0,0,0,0,0,0,0,0,0,0,0,0,0,0,0,0,0,0,0,0,0,0,0,0,
0,0,0,0,0,0,0,0,0,0,0,0,0,0,0,0,0,0,0,0,0,0,0,0,0,0,0,0,0,0,0,0,0,0,0,0,0,0,0,0,0,0,0,0,0,0,0,0,0,0,0,0,0,0,0,0,0,0,0,0,0,0,0,0,0,0,0,0,0,0,0,0,0,0,0,0,0,0,0,0,0,0,0,0,0,0,0,0,0,0,0,0,0,0,0,0,0,0,0,0,0,0,0,0,0,0,0,0,0,0,0,0,0,0,0,0,0,0,0,0,0,0,0,0,0,0,0,0,0,0,0,0,0,0,0,0,0,0,0,0,0,0,0,0,0,0,0,0,0,0,
0,0,0,0,0,0,0,0,0,0,0,0,0,0,0,0,0,0,0,0,0,0,0,0,0,0,0,0,0,0,0,0,0,0,0,0,0,0,0,0,0,0,0,0,0,0,0,0,0,0,0,0,0,0,0,0,0,0,0,0,0,0,0,0,0,0,0,0,0,0,0,0,0,0,0,0,0,0,0,0,0,0,0,0,0,0,0,0,0,0,0,0,0,0,0,0,0,0,0,0,0,0,0,0,0,0,0,0,0,0,0,0,0,0,0,0,0,0,0,0,0,0,0,0,0,0,0,0,0,0,0,0,0,0,0,0,0,0,0,0,0,0,0,0,0,0,0,0,0,0,
0,0,0,0,0,0,0,0,0,0,0,0,0,0,0,0,0,0,0,0,0,0,0,0,0,0,0,0,0,0,0,0,0,0,0,0,0,0,0,0,0,0,0,0,0,0,0,0,0,0,0,0,0,0,0,0,0,0,0,0,0,0,0,0,0,0,0,0,0,0,0,0,0,0,0,0,0,0,0,0,0,0,0,0,0,0,0,0,0,0,0,0,0,0,0,0,0,0,0,0,0,0,0,0,0,0,0,0,0,0,0,0,0,0,0,0,0,0,0,0,0,0,0,0,0,0,0,0,0,0,0,0,0,0,0,0,0,0,0,0,0,0,0,0,0,0,0,0,0,0,
0,0,0,0,0,0,0,0,0,0,0,0,0,0,0,0,0,0,0,0,0,0,0,0,0,0,0,0,0,0,0,0,0,0,0,0,0,0,0,0,0,0,0,0,0,0,0,0,0,0,0,0,0,0,0,0,0,0,0,0,0,0,0,0,0,0,0,0,0,0,0,0,0,0,0,0,0,0,0,0,0,0,0,0,0,0,0,0,0,0,0,0,0,0,0,0,0,0,0,0,0,0,0,0,0,0,0,0,0,0,0,0,0,0,0,0,0,0,0,0,0,0,0,0,0,0,0,0,0,0,0,0,0,0,0,0,0,0,0,0,0,0,0,0,0,0,0,0,0,0,
0,0,0,0,0,0,0,0,0,0,0,0,0,0,0,0,0,0,0,0,0,0,0,0,0,0,0,0,0,0,0,0,0,0,0,0,0,0,0,0,0,0,0,0,0,0,0,0,0,0,0,0,0,0,0,0,0,0,0,0,0,0,0,0,0,0,0,0,0,0,0,0,0,0,0,0,0,0,0,0,0,0,0,0,0,0,0,0,0,0,0,0,0,0,0,0,0,0,0,0,0,0,0,0,0,0,0,0,0,0,0,0,0,0,0,0,0,0,0,0,0,0,0,0,0,0,0,0,0,0,0,0,0,0,0,0,0,0,0,0,0,0,0,0,0,0,0,0,0,0,
0,0,0,0,0,0,0,0,0,0,0,0,0,0,0,0,0,0,0,0,0,0,0,0,0,0,0,0,0,0,0,0,0,0,0,0,0,0,0,0,0,0,0,0,0,0,0,0,0,0,0,0,0,0,0,0,0,0,0,0,0,0,0,0,0,0,0,0,0,0,0,0,0,0,0,0,0,0,0,0,0,0,0,0,0,0,0,0,0,0,0,0,0,0,0,0,0,0,0,0,0,0,0,0,0,0,0,0,0,0,0,0,0,0,0,0,0,0,0,0,0,0,0,0,0,0,0,0,0,0,0,0,0,0,0,0,0,0,0,0,0,0,0,0,0,0,0,0,0,0,
0,0,0,0,0,0,0,0,0,0,0,0,0,0,0,0,0,0,0,0,0,0,0,0,0,0,0,0,0,0,0,0,0,0,0,0,0,0,0,0,0,0,0,0,0,0,0,0,0,0,0,0,0,0,0,0,0,0,0,0,0,0,0,0,0,0,0,0,0,0,0,0,0,0,0,0,0,0,0,0,0,0,0,0,0,0,0,0,0,0,0,0,0,0,0,0,0,0,0,0,0,0,0,0,0,0,0,0,0,0,0,0,0,0,0,0,0,0,0,0,0,0,0,0,0,0,0,0,0,0,0,0,0,0,0,0,0,0,0,0,0,0,0,0,0,0,0,0,0,0,
0,0,0,0,0,0,0,0,0,0,0,0,0,0,0,0,0,0,0,0,0,0,0,0,0,0,0,0,0,0,0,0,0,0,0,0,0,0,0,0,0,0,0,0,0,0,0,0,0,0,0,0,0,0,0,0,0,0,0,0,0,0,0,0,0,0,0,0,0,0,0,0,0,0,0,0,0,0,0,0,0,0,0,0,0,0,0,0,0,0,0,0,0,0,0,0,0,0,0,0,0,0,0,0,0,0,0,0,0,0,0,0,0,0,0,0,0,0,0,0,0,0,0,0,0,0,0,0,0,0,0,0,0,0,0,0,0,0,0,0,0,0,0,0,0,0,0,0,0,0,
0,0,0,0,0,0,0,0,0,0,0,0,0,0,0,0,0,0,0,0,0,0,0,0,0,0,0,0,0,0,0,0,0,0,0,0,0,0,0,0,0,0,0,0,0,0,0,0,0,0,0,0,0,0,0,0,0,0,0,0,0,0,0,0,0,0,0,0,0,0,0,0,0,0,0,0,0,0,0,0,0,0,0,0,0,0,0,0,0,0,0,0,0,0,0,0,0,0,0,0,0,0,0,0,0,0,0,0,0,0,0,0,0,0,0,0,0,0,0,0,0,0,0,0,0,0,0,0,0,0,0,0,0,0,0,0,0,0,0,0,0,0,0,0,0,0,0,0,0,0,
0,0,0,0,0,0,0,0,0,0,0,0,0,0,0,0,0,0,0,0,0,0,0,0,0,0,0,0,0,0,0,0,0,0,0,0,0,0,0,0,0,0,0,0,0,0,0,0,0,0,0,0,0,0,0,0,0,0,0,0,0,0,0,0,0,0,0,0,0,0,0,0,0,0,0,0,0,0,0,0,0,0,0,0,0,0,0,0,0,0,0,0,0,0,0,0,0,0,0,0,0,0,0,0,0,0,0,0,0,0,0,0,0,0,0,0,0,0,0,0,0,0,0,0,0,0,0,0,0,0,0,0,0,0,0,0,0,0,0,0,0,0,0,0,0,0,0,0,0,0,
0,0,0,0,0,0,0,0,0,0,0,0,0,0,0,0,0,0,0,0,0,0,0,0,0,0,0,0,0,0,0,0,0,0,0,0,0,0,0,0,0,0,0,0,0,0,0,0,0,0,0,0,0,0,0,0,0,0,0,0,0,0,0,0,0,0,0,0,0,0,0,0,0,0,0,0,0,0,0,0,0,0,0,0,0,0,0,0,0,0,0,0,0,0,0,0,0,0,0,0,0,0,0,0,0,0,0,0,0,0,0,0,0,0,0,0,0,0,0,0,0,0,0,0,0,0,0,0,0,0,0,0,0,0,0,0,0,0,0,0,0,0,0,0,0,0,0,0,0,0,
0,0,0,0,0,0,0,0,0,0,0,0,0,0,0,0,0,0,0,0,0,0,0,0,0,0,0,0,0,0,0,0,0,0,0,0,0,0,0,0,0,0,0,0,0,0,0,0,0,0,0,0,0,0,0,0,0,0,0,0,0,0,0,0,0,0,0,0,0,0,0,0,0,0,0,0,0,0,0,0,0,0,0,0,0,0,0,0,0,0,0,0,0,0,0,0,0,0,0,0,0,0,0,0,0,0,0,0,0,0,0,0,0,0,0,0,0,0,0,0,0,0,0,0,0,0,0,0,0,0,0,0,0,0,0,0,0,0,0,0,0,0,0,0,0,0,0,0,0,0,
0,0,0,0,0,0,0,0,0,0,0,0,0,0,0,0,0,0,0,0,0,0,0,0,0,0,0,0,0,0,0,0,0,0,0,0,0,0,0,0,0,0,0,0,0,0,0,0,0,0,0,0,0,0,0,0,0,0,0,0,0,0,0,0,0,0,0,0,0,0,0,0,0,0,0,0,0,0,0,0,0,0,0,0,0,0,0,0,0,0,0,0,0,0,0,0,0,0,0,0,0,0,0,0,0,0,0,0,0,0,0,0,0,0,0,0,0,0,0,0,0,0,0,0,0,0,0,0,0,0,0,0,0,0,0,0,0,0,0,0,0,0,0,0,0,0,0,0,0,0,
0,0,0,0,0,0,0,0,0,0,0,0,0,0,0,0,0,0,0,0,0,0,0,0,0,0,0,0,0,0,0,0,0,0,0,0,0,0,0,0,0,0,0,0,0,0,0,0,0,0,0,0,0,0,0,0,0,0,0,0,0,0,0,0,0,0,0,0,0,0,0,0,0,0,0,0,0,0,0,0,0,0,0,0,0,0,0,0,0,0,0,0,0,0,0,0,0,0,0,0,0,0,0,0,0,0,0,0,0,0,0,0,0,0,0,0,0,0,0,0,0,0,0,0,0,0,0,0,0,0,0,0,0,0,0,0,0,0,0,0,0,0,0,0,0,0,0,0,0,0,
0,0,0,0,0,0,0,0,0,0,0,0,0,0,0,0,0,0,0,0,0,0,0,0,0,0,0,0,0,0,0,0,0,0,0,0,0,0,0,0,0,0,0,0,0,0,0,0,0,0,0,0,0,0,0,0,0,0,0,0,0,0,0,0,0,0,0,0,0,0,0,0,0,0,0,0,0,0,0,0,0,0,0,0,0,0,0,0,0,0,0,0,0,0,0,0,0,0,0,0,0,0,0,0,0,0,0,0,0,0,0,0,0,0,0,0,0,0,0,0,0,0,0,0,0,0,0,0,0,0,0,0,0,0,0,0,0,0,0,0,0,0,0,0,0,0,0,0,0,0,
0,0,0,0,0,0,0,0,0,0,0,0,0,0,0,0,0,0,0,0,0,0,0,0,0,0,0,0,0,0,0,0,0,0,0,0,0,0,0,0,0,0,0,0,0,0,0,0,0,0,0,0,0,0,0,0,0,0,0,0,0,0,0,0,0,0,0,0,0,0,0,0,0,0,0,0,0,0,0,0,0,0,0,0,0,0,0,0,0,0,0,0,0,0,0,0,0,0,0,0,0,0,0,0,0,0,0,0,0,0,0,0,0,0,0,0,0,0,0,0,0,0,0,0,0,0,0,0,0,0,0,0,0,0,0,0,0,0,0,0,0,0,0,0,0,0,0,0,0,0,
0,0,0,0,0,0,0,0,0,0,0,0,0,0,0,0,0,0,0,0,0,0,0,0,0,0,0,0,0,0,0,0,0,0,0,0,0,0,0,0,0,0,0,0,0,0,0,0,0,0,0,0,0,0,0,0,0,0,0,0,0,0,0,0,0,0,0,0,0,0,0,0,0,0,0,0,0,0,0,0,0,0,0,0,0,0,0,0,0,0,0,0,0,0,0,0,0,0,0,0,0,0,0,0,0,0,0,0,0,0,0,0,0,0,0,0,0,0,0,0,0,0,0,0,0,0,0,0,0,0,0,0,0,0,0,0,0,0,0,0,0,0,0,0,0,0,0,0,0,0,
0,0,0,0,0,0,0,0,0,0,0,0,0,0,0,0,0,0,0,0,0,0,0,0,0,0,0,0,0,0,0,0,0,0,0,0,0,0,0,0,0,0,0,0,0,0,0,0,0,0,0,0,0,0,0,0,0,0,0,0,0,0,0,0,0,0,0,0,0,0,0,0,5318,5319,5318,5319,5318,5319,5319,0,0,0,0,0,0,0,0,0,0,0,0,0,0,0,0,0,0,0,0,0,0,0,0,0,0,0,0,0,0,0,0,0,0,0,0,0,0,0,0,0,0,0,0,0,0,0,0,0,0,0,0,0,0,0,0,0,0,0,0,0,0,0,0,0,0,0,0,0,0,0,
0,0,0,0,0,0,0,0,0,0,0,0,0,0,0,0,0,0,0,0,0,0,0,0,0,0,0,0,0,0,0,0,0,0,0,0,0,0,0,0,0,0,0,0,0,0,0,0,0,0,0,0,0,0,0,0,0,0,0,0,0,0,0,0,0,0,0,0,0,0,0,0,0,0,0,0,0,0,0,0,0,0,0,0,0,0,0,0,0,0,0,0,0,0,0,0,0,0,0,0,0,0,0,0,0,0,0,0,0,0,0,0,0,0,0,0,0,0,0,0,0,0,0,0,0,0,0,0,0,0,0,0,0,0,0,0,0,0,0,0,0,0,0,0,0,0,0,0,0,0,
0,0,0,0,0,0,0,0,0,0,0,0,0,0,0,0,0,0,0,0,0,0,0,0,0,0,0,0,0,0,0,0,0,0,0,0,0,0,0,0,0,0,0,0,0,0,0,0,0,0,0,0,0,0,0,0,0,0,0,0,0,0,0,0,0,0,0,0,0,0,0,0,0,0,0,0,0,0,0,0,0,0,0,0,0,0,0,0,0,0,0,0,0,0,0,0,0,0,0,0,0,0,0,0,0,0,0,0,0,0,0,0,0,0,0,0,0,0,0,0,0,0,0,0,0,0,0,0,0,0,0,0,0,0,0,0,0,0,0,0,0,0,0,0,0,0,0,0,0,0,
0,0,0,0,0,0,0,0,0,0,0,0,0,0,0,0,0,0,0,0,0,0,0,0,0,0,0,0,0,0,0,0,0,0,0,0,0,0,0,0,0,0,0,0,0,0,0,0,0,0,0,0,0,0,0,0,0,0,0,0,0,0,0,0,0,0,0,0,0,0,0,0,0,0,0,0,0,0,0,0,0,0,0,0,0,0,0,0,0,0,0,0,0,0,0,0,0,0,0,0,0,0,0,0,0,0,0,0,0,0,0,0,0,0,0,0,0,0,0,0,0,0,0,0,0,0,0,0,0,0,0,0,0,0,0,0,0,0,0,0,0,0,0,0,0,0,0,0,0,0,
0,0,0,0,0,0,0,0,0,0,0,0,0,0,0,0,0,0,0,0,0,0,0,0,0,0,0,0,0,0,0,0,0,0,0,0,0,0,0,0,0,0,0,0,0,0,0,0,0,0,0,0,0,0,0,0,0,0,0,0,0,0,0,0,0,0,0,0,0,0,0,0,0,0,0,0,0,0,0,0,0,0,0,0,0,0,0,0,0,0,0,0,0,0,0,0,0,0,0,0,0,0,0,0,0,0,0,0,0,0,0,0,0,0,0,0,0,0,0,0,0,0,0,0,0,0,0,0,0,0,0,0,0,0,0,0,0,0,0,0,0,0,0,0,0,0,0,0,0,0,
0,0,0,0,0,0,0,0,0,0,0,0,0,0,0,0,0,0,0,0,0,0,0,0,0,0,0,0,0,0,0,0,0,0,0,0,0,0,0,0,0,0,0,0,0,0,0,0,0,0,0,0,0,0,0,0,0,0,0,0,0,0,0,0,0,0,0,0,0,0,0,0,0,0,0,0,0,0,0,0,0,0,0,0,0,0,0,0,0,0,0,0,0,0,0,0,0,0,0,0,0,0,0,0,0,0,0,0,0,0,0,0,0,0,0,0,0,0,0,0,0,0,0,0,0,0,0,0,0,0,0,0,0,0,0,0,0,0,0,0,0,0,0,0,0,0,0,0,0,0,
0,0,0,0,0,0,0,0,0,0,0,0,0,0,0,0,0,0,0,0,0,0,0,0,0,0,0,0,0,0,0,0,0,0,0,0,0,0,0,0,0,0,0,0,0,0,0,0,0,0,0,0,0,0,0,0,0,0,0,0,0,0,0,0,0,0,0,0,0,0,0,0,0,0,0,0,0,0,0,0,0,0,0,0,0,0,0,0,0,0,0,0,0,0,0,0,0,0,0,0,0,0,0,0,0,0,0,0,0,0,0,0,0,0,0,0,0,0,0,0,0,0,0,0,0,0,0,0,0,0,0,0,0,0,0,0,0,0,0,0,0,0,0,0,0,0,0,0,0,0,
0,0,0,0,0,0,0,0,0,0,0,0,0,0,0,0,0,0,0,0,0,0,0,0,0,0,0,0,0,0,0,0,0,0,0,0,0,0,0,0,0,0,0,0,0,0,0,0,0,0,0,0,0,0,0,0,0,0,0,0,0,0,0,0,0,0,0,0,0,0,0,0,0,0,0,0,0,0,0,0,0,0,0,0,0,0,0,0,0,0,0,0,0,0,0,0,0,0,0,0,0,0,0,0,0,0,0,0,0,0,0,0,0,0,0,0,0,0,0,0,0,0,0,0,0,0,0,0,0,0,0,0,0,0,0,0,0,0,0,0,0,0,0,0,0,0,0,0,0,0,
0,0,0,0,0,0,0,0,0,0,0,0,0,0,0,0,0,0,0,0,0,0,0,0,0,0,0,0,0,0,0,0,0,0,0,0,0,0,0,0,0,0,0,0,0,0,0,0,0,0,0,0,0,0,0,0,0,0,0,0,0,0,0,0,0,0,0,0,0,0,0,0,0,0,0,0,0,0,0,0,0,0,0,0,0,0,0,0,0,0,0,0,0,0,0,0,0,0,0,0,0,0,0,0,0,0,0,0,0,0,0,0,0,0,0,0,0,0,0,0,0,0,0,0,0,0,0,0,0,0,0,0,0,0,0,0,0,0,0,0,0,0,0,0,0,0,0,0,0,0,
0,0,0,0,0,0,0,0,0,0,0,0,0,0,0,0,0,0,0,0,0,0,0,0,0,0,0,0,0,0,0,0,0,0,0,0,0,0,0,0,0,0,0,0,0,0,0,0,0,0,0,0,0,0,0,0,0,0,0,0,0,0,0,0,0,0,0,0,0,0,0,0,0,0,0,0,0,0,0,0,0,0,0,0,0,0,0,0,0,0,0,0,0,0,0,0,0,0,0,0,0,0,0,0,0,0,0,0,0,0,0,0,0,0,0,0,0,0,0,0,0,0,0,0,0,0,0,0,0,0,0,0,0,0,0,0,0,0,0,0,0,0,0,0,0,0,0,0,0,0,
0,0,0,0,0,0,0,0,0,0,0,0,0,0,0,0,0,0,0,0,0,0,0,0,0,0,0,0,0,0,0,0,0,0,0,0,0,0,0,0,0,0,0,0,0,0,0,0,0,0,0,0,0,0,0,0,0,0,0,0,0,0,0,0,0,0,0,0,0,0,0,0,0,0,0,0,0,0,0,0,0,0,0,0,0,0,0,0,0,0,0,0,0,0,0,0,0,0,0,0,0,0,0,0,0,0,0,0,0,0,0,0,0,0,0,0,0,0,0,0,0,0,0,0,0,0,0,0,0,0,0,0,0,0,0,0,0,0,0,0,0,0,0,0,0,0,0,0,0,0,
0,0,0,0,0,0,0,0,0,0,0,0,0,0,0,0,0,0,0,0,0,0,0,0,0,0,0,0,0,0,0,0,0,0,0,0,0,0,0,0,0,0,0,0,0,0,0,0,0,0,0,0,0,0,0,0,0,0,0,0,0,0,0,0,0,0,0,0,0,0,0,0,0,0,0,0,0,0,0,0,0,0,0,0,0,0,0,0,0,0,0,0,0,0,0,0,0,0,0,0,0,0,0,0,0,0,0,0,0,0,0,0,0,0,0,0,0,0,0,0,0,0,0,0,0,0,0,0,0,0,0,0,0,0,0,0,0,0,0,0,0,0,0,0,0,0,0,0,0,0,
0,0,0,0,0,0,0,0,0,0,0,0,0,0,0,0,0,0,0,0,0,0,0,0,0,0,0,0,0,0,0,0,0,0,0,0,0,0,0,0,0,0,0,0,0,0,0,0,0,0,0,0,0,0,0,0,0,0,0,0,0,0,0,0,0,0,0,0,0,0,0,0,0,0,0,0,0,0,0,0,0,0,0,0,0,0,0,0,0,0,0,0,0,0,0,0,0,0,0,0,0,0,0,0,0,0,0,0,0,0,0,0,0,0,0,0,0,0,0,0,0,0,0,0,0,0,0,0,0,0,0,0,0,0,0,0,0,0,0,0,0,0,0,0,0,0,0,0,0,0,
0,0,0,0,0,0,0,0,0,0,0,0,0,0,0,0,0,0,0,0,0,0,0,0,0,0,0,0,0,0,0,0,0,0,0,0,0,0,0,0,0,0,0,0,0,0,0,0,0,0,0,0,0,0,0,0,0,0,0,0,0,0,0,0,0,0,0,0,0,0,0,0,0,0,0,0,0,0,0,0,0,0,0,0,0,0,0,0,0,0,0,0,0,0,0,0,0,0,0,0,0,0,0,0,0,0,0,0,0,0,0,0,0,0,0,0,0,0,0,0,0,0,0,0,0,0,0,0,0,0,0,0,0,0,0,0,0,0,0,0,0,0,0,0,0,0,0,0,0,0,
0,0,0,0,0,0,0,0,0,0,0,0,0,0,0,0,0,0,0,0,0,0,0,0,0,0,0,0,0,0,0,0,0,0,0,0,0,0,0,0,0,0,0,0,0,0,0,0,0,0,0,0,0,0,0,0,0,0,0,0,0,0,0,0,0,0,0,0,0,0,0,0,0,0,0,0,0,0,0,0,0,0,0,0,0,0,0,0,0,0,0,0,0,0,0,0,0,0,0,0,0,0,0,0,0,0,0,0,0,0,0,0,0,0,0,0,0,0,0,0,0,0,0,0,0,0,0,0,0,0,0,0,0,0,0,0,0,0,0,0,0,0,0,0,0,0,0,0,0,0,
0,0,0,0,0,0,0,0,0,0,0,0,0,0,0,0,0,0,0,0,0,0,0,0,0,0,0,0,0,0,0,0,0,0,0,0,0,0,0,0,0,0,0,0,0,0,0,0,0,0,0,0,0,0,0,0,0,0,0,0,0,0,0,0,0,0,0,0,0,0,0,0,0,0,0,0,0,0,0,0,0,0,0,0,0,0,0,0,0,0,0,0,0,0,0,0,0,0,0,0,0,0,0,0,0,0,0,0,0,0,0,0,0,0,0,0,0,0,0,0,0,0,0,0,0,0,0,0,0,0,0,0,0,0,0,0,0,0,0,0,0,0,0,0,0,0,0,0,0,0,
0,0,0,0,0,0,0,0,0,0,0,0,0,0,0,0,0,0,0,0,0,0,0,0,0,0,0,0,0,0,0,0,0,0,0,0,0,0,0,0,0,0,0,0,0,0,0,0,0,0,0,0,0,0,0,0,0,0,0,0,0,0,0,0,0,0,0,0,0,0,0,0,0,0,0,0,0,0,0,0,0,0,0,0,0,0,0,0,0,0,0,0,0,0,0,0,0,0,0,0,0,0,0,0,0,0,0,0,0,0,0,0,0,0,0,0,0,0,0,0,0,0,0,0,0,0,0,0,0,0,0,0,0,0,0,0,0,0,0,0,0,0,0,0,0,0,0,0,0,0,
0,0,0,0,0,0,0,0,0,0,0,0,0,0,0,0,0,0,0,0,0,0,0,0,0,0,0,0,0,0,0,0,0,0,0,0,0,0,0,0,0,0,0,0,0,0,0,0,0,0,0,0,0,0,0,0,0,0,0,0,0,0,0,0,0,0,0,0,0,0,0,0,0,0,0,0,0,0,0,0,0,0,0,0,0,0,0,0,0,0,0,0,0,0,0,0,0,0,0,0,0,0,0,0,0,0,0,0,0,0,0,0,0,0,0,0,0,0,0,0,0,0,0,0,0,0,0,0,0,0,0,0,0,0,0,0,0,0,0,0,0,0,0,0,0,0,0,0,0,0,
0,0,0,0,0,0,0,0,0,0,0,0,0,0,0,0,0,0,0,0,0,0,0,0,0,0,0,0,0,0,0,0,0,0,0,0,0,0,0,0,0,0,0,0,0,0,0,0,0,0,0,0,0,0,0,0,0,0,0,0,0,0,0,0,0,0,0,0,0,0,0,0,0,0,0,0,0,0,0,0,0,0,0,0,0,0,0,0,0,0,0,0,0,0,0,0,0,0,0,0,0,0,0,0,0,0,0,0,0,0,0,0,0,0,0,0,0,0,0,0,0,0,0,0,0,0,0,0,0,0,0,0,0,0,0,0,0,0,0,0,0,0,0,0,0,0,0,0,0,0,
0,0,0,0,0,0,0,0,0,0,0,0,0,0,0,0,0,0,0,0,0,0,0,0,0,0,0,0,0,0,0,0,0,0,0,0,0,0,0,0,0,0,0,0,0,0,0,0,0,0,0,0,0,0,0,0,0,0,0,0,0,0,0,0,0,0,0,0,0,0,0,0,0,0,0,0,0,0,0,0,0,0,0,0,0,0,0,0,0,0,0,0,0,0,0,0,0,0,0,0,0,0,0,0,0,0,0,0,0,0,0,0,0,0,0,0,0,0,0,0,0,0,0,0,0,0,0,0,0,0,0,0,0,0,0,0,0,0,0,0,0,0,0,0,0,0,0,0,0,0,
0,0,0,0,0,0,0,0,0,0,0,0,0,0,0,0,0,0,0,0,0,0,0,0,0,0,0,0,0,0,0,0,0,0,0,0,0,0,0,0,0,0,0,0,0,0,0,0,0,0,0,0,0,0,0,0,0,0,0,0,0,0,0,0,0,0,0,0,0,0,0,0,0,0,0,0,0,0,0,0,0,0,0,0,0,0,0,0,0,0,0,0,0,0,0,0,0,0,0,0,0,0,0,0,0,0,0,0,0,0,0,0,0,0,0,0,0,0,0,0,0,0,0,0,0,0,0,0,0,0,0,0,0,0,0,0,0,0,0,0,0,0,0,0,0,0,0,0,0,0,
0,0,0,0,0,0,0,0,0,0,0,0,0,0,0,0,0,0,0,0,0,0,0,0,0,0,0,0,0,0,0,0,0,0,0,0,0,0,0,0,0,0,0,0,0,0,0,0,0,0,0,0,0,0,0,0,0,0,0,0,0,0,0,0,0,0,0,0,0,0,0,0,0,0,0,0,0,0,0,0,0,0,0,0,0,0,0,0,0,0,0,0,0,0,0,0,0,0,0,0,0,0,0,0,0,0,0,0,0,0,0,0,0,0,0,0,0,0,0,0,0,0,0,0,0,0,0,0,0,0,0,0,0,0,0,0,0,0,0,0,0,0,0,0,0,0,0,0,0,0,
0,0,0,0,0,0,0,0,0,0,0,0,0,0,0,0,0,0,0,0,0,0,0,0,0,0,0,0,0,0,0,0,0,0,0,0,0,0,0,0,0,0,0,0,0,0,0,0,0,0,0,0,0,0,0,0,0,0,0,0,0,0,0,0,0,0,0,0,0,0,0,0,0,0,0,0,0,0,0,0,0,0,0,0,0,0,0,0,0,0,0,0,0,0,0,0,0,0,0,0,0,0,0,0,0,0,0,0,0,0,0,0,0,0,0,0,0,0,0,0,0,0,0,0,0,0,0,0,0,0,0,0,0,0,0,0,0,0,0,0,0,0,0,0,0,0,0,0,0,0,
0,0,0,0,0,0,0,0,0,0,0,0,0,0,0,0,0,0,0,0,0,0,0,0,0,0,0,0,0,0,0,0,0,0,0,0,0,0,0,0,0,0,0,0,0,0,0,0,0,0,0,0,0,0,0,0,0,0,0,0,0,0,0,0,0,0,0,0,0,0,0,0,0,0,0,0,0,0,0,0,0,0,0,0,0,0,0,0,0,0,0,0,0,0,0,0,0,0,0,0,0,0,0,0,0,0,0,0,0,0,0,0,0,0,0,0,0,0,0,0,0,0,0,0,0,0,0,0,0,0,0,0,0,0,0,0,0,0,0,0,0,0,0,0,0,0,0,0,0,0,
0,0,0,0,0,0,0,0,0,0,0,0,0,0,0,0,0,0,0,0,0,0,0,0,0,0,0,0,0,0,0,0,0,0,0,0,0,0,0,0,0,0,0,0,0,0,0,0,0,0,0,0,0,0,0,0,0,0,0,0,0,0,0,0,0,0,0,0,0,0,0,0,0,0,0,0,0,0,0,0,0,0,0,0,0,0,0,0,0,0,0,0,0,0,0,0,0,0,0,0,0,0,0,0,0,0,0,0,0,0,0,0,0,0,0,0,0,0,0,0,0,0,0,0,0,0,0,0,0,0,0,0,0,0,0,0,0,0,0,0,0,0,0,0,0,0,0,0,0,0,
0,0,0,0,0,0,0,0,0,0,0,0,0,0,0,0,0,0,0,0,0,0,0,0,0,0,0,0,0,0,0,0,0,0,0,0,0,0,0,0,0,0,0,0,0,0,0,0,0,0,0,0,0,0,0,0,0,0,0,0,0,0,0,0,0,0,0,0,0,0,0,0,0,0,0,0,0,0,0,0,0,0,0,0,0,0,0,0,0,0,0,0,0,0,0,0,0,0,0,0,0,0,0,0,0,0,0,0,0,0,0,0,0,0,0,0,0,0,0,0,0,0,0,0,0,0,0,0,0,0,0,0,0,0,0,0,0,0,0,0,0,0,0,0,0,0,0,0,0,0,
0,0,0,0,0,0,0,0,0,0,0,0,0,0,0,0,0,0,0,0,0,0,0,0,0,0,0,0,0,0,0,0,0,0,0,0,0,0,0,0,0,0,0,0,0,0,0,0,0,0,0,0,0,0,0,0,0,0,0,0,0,0,0,0,0,0,0,0,0,0,0,0,0,0,0,0,0,0,0,0,0,0,0,0,0,0,0,0,0,0,0,0,0,0,0,0,0,0,0,0,0,0,0,0,0,0,0,0,0,0,0,0,0,0,0,0,0,0,0,0,0,0,0,0,0,0,0,0,0,0,0,0,0,0,0,0,0,0,0,0,0,0,0,0,0,0,0,0,0,0,
0,0,0,0,0,0,0,0,0,0,0,0,0,0,0,0,0,0,0,0,0,0,0,0,0,0,0,0,0,0,0,0,0,0,0,0,0,0,0,0,0,0,0,0,0,0,0,0,0,0,0,0,0,0,0,0,0,0,0,0,0,0,0,0,0,0,0,0,0,0,0,0,0,0,0,0,0,0,0,0,0,0,0,0,0,0,0,0,0,0,0,0,0,0,0,0,0,0,0,0,0,0,0,0,0,0,0,0,0,0,0,0,0,0,0,0,0,0,0,0,0,0,0,0,0,0,0,0,0,0,0,0,0,0,0,0,0,0,0,0,0,0,0,0,0,0,0,0,0,0,
0,0,0,0,0,0,0,0,0,0,0,0,0,0,0,0,0,0,0,0,0,0,0,0,0,0,0,0,0,0,0,0,0,0,0,0,0,0,0,0,0,0,0,0,0,0,0,0,0,0,0,0,0,0,0,0,0,0,0,0,0,0,0,0,0,0,0,0,0,0,0,0,0,0,0,0,0,0,0,0,0,0,0,0,0,0,0,0,0,0,0,0,0,0,0,0,0,0,0,0,0,0,0,0,0,0,0,0,0,0,0,0,0,0,0,0,0,0,0,0,0,0,0,0,0,0,0,0,0,0,0,0,0,0,0,0,0,0,0,0,0,0,0,0,0,0,0,0,0,0,
0,0,0,0,0,0,0,0,0,0,0,0,0,0,0,0,0,0,0,0,0,0,0,0,0,0,0,0,0,0,0,0,0,0,0,0,0,0,0,0,0,0,0,0,0,0,0,0,0,0,0,0,0,0,0,0,0,0,0,0,0,0,0,0,0,0,0,0,0,0,0,0,0,0,0,0,0,0,0,0,0,0,0,0,0,0,0,0,0,0,0,0,0,0,0,0,0,0,0,0,0,0,0,0,0,0,0,0,0,0,0,0,0,0,0,0,0,0,0,0,0,0,0,0,0,0,0,0,0,0,0,0,0,0,0,0,0,0,0,0,0,0,0,0,0,0,0,0,0,0,
0,0,0,0,0,0,0,0,0,0,0,0,0,0,0,0,0,0,0,0,0,0,0,0,0,0,0,0,0,0,0,0,0,0,0,0,0,0,0,0,0,0,0,0,0,0,0,0,0,0,0,0,0,0,0,0,0,0,0,0,0,0,0,0,0,0,0,0,0,0,0,0,0,0,0,0,0,0,0,0,0,0,0,0,0,0,0,0,0,0,0,0,0,0,0,0,0,0,0,0,0,0,0,0,0,0,0,0,0,0,0,0,0,0,0,0,0,0,0,0,0,0,0,0,0,0,0,0,0,0,0,0,0,0,0,0,0,0,0,0,0,0,0,0,0,0,0,0,0,0,
0,0,0,0,0,0,0,0,0,0,0,0,0,0,0,0,0,0,0,0,0,0,0,0,0,0,0,0,0,0,0,0,0,0,0,0,0,0,0,0,0,0,0,0,0,0,0,0,0,0,0,0,0,0,0,0,0,0,0,0,0,0,0,0,0,0,0,0,0,0,0,0,0,0,0,0,0,0,0,0,0,0,0,0,0,0,0,0,0,0,0,0,0,0,0,0,0,0,0,0,0,0,0,0,0,0,0,0,0,0,0,0,0,0,0,0,0,0,0,0,0,0,0,0,0,0,0,0,0,0,0,0,0,0,0,0,0,0,0,0,0,0,0,0,0,0,0,0,0,0,
0,0,0,0,0,0,0,0,0,0,0,0,0,0,0,0,0,0,0,0,0,0,0,0,0,0,0,0,0,0,0,0,0,0,0,0,0,0,0,0,0,0,0,0,0,0,0,0,0,0,0,0,0,0,0,0,0,0,0,0,0,0,0,0,0,0,0,0,0,0,0,0,0,0,0,0,0,0,0,0,0,0,0,0,0,0,0,0,0,0,0,0,0,0,0,0,0,0,0,0,0,0,0,0,0,0,0,0,0,0,0,0,0,0,0,0,0,0,0,0,0,0,0,0,0,0,0,0,0,0,0,0,0,0,0,0,0,0,0,0,0,0,0,0,0,0,0,0,0,0,
0,0,0,0,0,0,0,0,0,0,0,0,0,0,0,0,0,0,0,0,0,0,0,0,0,0,0,0,0,0,0,0,0,0,0,0,0,0,0,0,0,0,0,0,0,0,0,0,0,0,0,0,0,0,0,0,0,0,0,0,0,0,0,0,0,0,0,0,0,0,0,0,0,0,0,0,0,0,0,0,0,0,0,0,0,0,0,0,0,0,0,0,0,0,0,0,0,0,0,0,0,0,0,0,0,0,0,0,0,0,0,0,0,0,0,0,0,0,0,0,0,0,0,0,0,0,0,0,0,0,0,0,0,0,0,0,0,0,0,0,0,0,0,0,0,0,0,0,0,0,
0,0,0,0,0,0,0,0,0,0,0,0,0,0,0,0,0,0,0,0,0,0,0,0,0,0,0,0,0,0,0,0,0,0,0,0,0,0,0,0,0,0,0,0,0,0,0,0,0,0,0,0,0,0,0,0,0,0,0,0,0,0,0,0,0,0,0,0,0,0,0,0,0,0,0,0,0,0,0,0,0,0,0,0,0,0,0,0,0,0,0,0,0,0,0,0,0,0,0,0,0,0,0,0,0,0,0,0,0,0,0,0,0,0,0,0,0,0,0,0,0,0,0,0,0,0,0,0,0,0,0,0,0,0,0,0,0,0,0,0,0,0,0,0,0,0,0,0,0,0,
0,0,0,0,0,0,0,0,0,0,0,0,0,0,0,0,0,0,0,0,0,0,0,0,0,0,0,0,0,0,0,0,0,0,0,0,0,0,0,0,0,0,0,0,0,0,0,0,0,0,0,0,0,0,0,0,0,0,0,0,0,0,0,0,0,0,0,0,0,0,0,0,0,0,0,0,0,0,0,0,0,0,0,0,0,0,0,0,0,0,0,0,0,0,0,0,0,0,0,0,0,0,0,0,0,0,0,0,0,0,0,0,0,0,0,0,0,0,0,0,0,0,0,0,0,0,0,0,0,0,0,0,0,0,0,0,0,0,0,0,0,0,0,0,0,0,0,0,0,0,
0,0,0,0,0,0,0,0,0,0,0,0,0,0,0,0,0,0,0,0,0,0,0,0,0,0,0,0,0,0,0,0,0,0,0,0,0,0,0,0,0,0,0,0,0,0,0,0,0,0,0,0,0,0,0,0,0,0,0,0,0,0,0,0,0,0,0,0,0,0,0,0,0,0,0,0,0,0,0,0,0,0,0,0,0,0,0,0,0,0,0,0,0,0,0,0,0,0,0,0,0,0,0,0,0,0,0,0,0,0,0,0,0,0,0,0,0,0,0,0,0,0,0,0,0,0,0,0,0,0,0,0,0,0,0,0,0,0,0,0,0,0,0,0,0,0,0,0,0,0,
0,0,0,0,0,0,0,0,0,0,0,0,0,0,0,0,0,0,0,0,0,0,0,0,0,0,0,0,0,0,0,0,0,0,0,0,0,0,0,0,0,0,0,0,0,0,0,0,0,0,0,0,0,0,0,0,0,0,0,0,0,0,0,0,0,0,0,0,0,0,0,0,0,0,0,0,0,0,0,0,0,0,0,0,0,0,0,0,0,0,0,0,0,0,0,0,0,0,0,0,0,0,0,0,0,0,0,0,0,0,0,0,0,0,0,0,0,0,0,0,0,0,0,0,0,0,0,0,0,0,0,0,0,0,0,0,0,0,0,0,0,0,0,0,0,0,0,0,0,0,
0,0,0,0,0,0,0,0,0,0,0,0,0,0,0,0,0,0,0,0,0,0,0,0,0,0,0,0,0,0,0,0,0,0,0,0,0,0,0,0,0,0,0,0,0,0,0,0,0,0,0,0,0,0,0,0,0,0,0,0,0,0,0,0,0,0,0,0,0,0,0,0,0,0,0,0,0,0,0,0,0,0,0,0,0,0,0,0,0,0,0,0,0,0,0,0,0,0,0,0,0,0,0,0,0,0,0,0,0,0,0,0,0,0,0,0,0,0,0,0,0,0,0,0,0,0,0,0,0,0,0,0,0,0,0,0,0,0,0,0,0,0,0,0,0,0,0,0,0,0,
0,0,0,0,0,0,0,0,0,0,0,0,0,0,0,0,0,0,0,0,0,0,0,0,0,0,0,0,0,0,0,0,0,0,0,0,0,0,0,0,0,0,0,0,0,0,0,0,0,0,0,0,0,0,0,0,0,0,0,0,0,0,0,0,0,0,0,0,0,0,0,0,0,0,0,0,0,0,0,0,0,0,0,0,0,0,0,0,0,0,0,0,0,0,0,0,0,0,0,0,0,0,0,0,0,0,0,0,0,0,0,0,0,0,0,0,0,0,0,0,0,0,0,0,0,0,0,0,0,0,0,0,0,0,0,0,0,0,0,0,0,0,0,0,0,0,0,0,0,0,
0,0,0,0,0,0,0,0,0,0,0,0,0,0,0,0,0,0,0,0,0,0,0,0,0,0,0,0,0,0,0,0,0,0,0,0,0,0,0,0,0,0,0,0,0,0,0,0,0,0,0,0,0,0,0,0,0,0,0,0,0,0,0,0,0,0,0,0,0,0,0,0,0,0,0,0,0,0,0,0,0,0,0,0,0,0,0,0,0,0,0,0,0,0,0,0,0,0,0,0,0,0,0,0,0,0,0,0,0,0,0,0,0,0,0,0,0,0,0,0,0,0,0,0,0,0,0,0,0,0,0,0,0,0,0,0,0,0,0,0,0,0,0,0,0,0,0,0,0,0,
0,0,0,0,0,0,0,0,0,0,0,0,0,0,0,0,0,0,0,0,0,0,0,0,0,0,0,0,0,0,0,0,0,0,0,0,0,0,0,0,0,0,0,0,0,0,0,0,0,0,0,0,0,0,0,0,0,0,0,0,0,0,0,0,0,0,0,0,0,0,0,0,0,0,0,0,0,0,0,0,0,0,0,0,0,0,0,0,0,0,0,0,0,0,0,0,0,0,0,0,0,0,0,0,0,0,0,0,0,0,0,0,0,0,0,0,0,0,0,0,0,0,0,0,0,0,0,0,0,0,0,0,0,0,0,0,0,0,0,0,0,0,0,0,0,0,0,0,0,0,
0,0,0,0,0,0,0,0,0,0,0,0,0,0,0,0,0,0,0,0,0,0,0,0,0,0,0,0,0,0,0,0,0,0,0,0,0,0,0,0,0,0,0,0,0,0,0,0,0,0,0,0,0,0,0,0,0,0,0,0,0,0,0,0,0,0,0,0,0,0,0,0,0,0,0,0,0,0,0,0,0,0,0,0,0,0,0,0,0,0,0,0,0,0,0,0,0,0,0,0,0,0,0,0,0,0,0,0,0,0,0,0,0,0,0,0,0,0,0,0,0,0,0,0,0,0,0,0,0,0,0,0,0,0,0,0,0,0,0,0,0,0,0,0,0,0,0,0,0,0,
0,0,0,0,0,0,0,0,0,0,0,0,0,0,0,0,0,0,0,0,0,0,0,0,0,0,0,0,0,0,0,0,0,0,0,0,0,0,0,0,0,0,0,0,0,0,0,0,0,0,0,0,0,0,0,0,0,0,0,0,0,0,0,0,0,0,0,0,0,0,0,0,0,0,0,0,0,0,0,0,0,0,0,0,0,0,0,0,0,0,0,0,0,0,0,0,0,0,0,0,0,0,0,0,0,0,0,0,0,0,0,0,0,0,0,0,0,0,0,0,0,0,0,0,0,0,0,0,0,0,0,0,0,0,0,0,0,0,0,0,0,0,0,0,0,0,0,0,0,0,
0,0,0,0,0,0,0,0,0,0,0,0,0,0,0,0,0,0,0,0,0,0,0,0,0,0,0,0,0,0,0,0,0,0,0,0,0,0,0,0,0,0,0,0,0,0,0,0,0,0,0,0,0,0,0,0,0,0,0,0,0,0,0,0,0,0,0,0,0,0,0,0,0,0,0,0,0,0,0,0,0,0,0,0,0,0,0,0,0,0,0,0,0,0,0,0,0,0,0,0,0,0,0,0,0,0,0,0,0,0,0,0,0,0,0,0,0,0,0,0,0,0,0,0,0,0,0,0,0,0,0,0,0,0,0,0,0,0,0,0,0,0,0,0,0,0,0,0,0,0,
0,0,0,0,0,0,0,0,0,0,0,0,0,0,0,0,0,0,0,0,0,0,0,0,0,0,0,0,0,0,0,0,0,0,0,0,0,0,0,0,0,0,0,0,0,0,0,0,0,0,0,0,0,0,0,0,0,0,0,0,0,0,0,0,0,0,0,0,0,0,0,0,0,0,0,0,0,0,0,0,0,0,0,0,0,0,0,0,0,0,0,0,0,0,0,0,0,0,0,0,0,0,0,0,0,0,0,0,0,0,0,0,0,0,0,0,0,0,0,0,0,0,0,0,0,0,0,0,0,0,0,0,0,0,0,0,0,0,0,0,0,0,0,0,0,0,0,0,0,0,
0,0,0,0,0,0,0,0,0,0,0,0,0,0,0,0,0,0,0,0,0,0,0,0,0,0,0,0,0,0,0,0,0,0,0,0,0,0,0,0,0,0,0,0,0,0,0,0,0,0,0,0,0,0,0,0,0,0,0,0,0,0,0,0,0,0,0,0,0,0,0,0,0,0,0,0,0,0,0,0,0,0,0,0,0,0,0,0,0,0,0,0,0,0,0,0,0,0,0,0,0,0,0,0,0,0,0,0,0,0,0,0,0,0,0,0,0,0,0,0,0,0,0,0,0,0,0,0,0,0,0,0,0,0,0,0,0,0,0,0,0,0,0,0,0,0,0,0,0,0,
0,0,0,0,0,0,0,0,0,0,0,0,0,0,0,0,0,0,0,0,0,0,0,0,0,0,0,0,0,0,0,0,0,0,0,0,0,0,0,0,0,0,0,0,0,0,0,0,0,0,0,0,0,0,0,0,0,0,0,0,0,0,0,0,0,0,0,0,0,0,0,0,0,0,0,0,0,0,0,0,0,0,0,0,0,0,0,0,0,0,0,0,0,0,0,0,0,0,0,0,0,0,0,0,0,0,0,0,0,0,0,0,0,0,0,0,0,0,0,0,0,0,0,0,0,0,0,0,0,0,0,0,0,0,0,0,0,0,0,0,0,0,0,0,0,0,0,0,0,0,
0,0,0,0,0,0,0,0,0,0,0,0,0,0,0,0,0,0,0,0,0,0,0,0,0,0,0,0,0,0,0,0,0,0,0,0,0,0,0,0,0,0,0,0,0,0,0,0,0,0,0,0,0,0,0,0,0,0,0,0,0,0,0,0,0,0,0,0,0,0,0,0,0,0,0,0,0,0,0,0,0,0,0,0,0,0,0,0,0,0,0,0,0,0,0,0,0,0,0,0,0,0,0,0,0,0,0,0,0,0,0,0,0,0,0,0,0,0,0,0,0,0,0,0,0,0,0,0,0,0,0,0,0,0,0,0,0,0,0,0,0,0,0,0,0,0,0,0,0,0,
0,0,0,0,0,0,0,0,0,0,0,0,0,0,0,0,0,0,0,0,0,0,0,0,0,0,0,0,0,0,0,0,0,0,0,0,0,0,0,0,0,0,0,0,0,0,0,0,0,0,0,0,0,0,0,0,0,0,0,0,0,0,0,0,0,0,0,0,0,0,0,0,0,0,0,0,0,0,0,0,0,0,0,0,0,0,0,0,0,0,0,0,0,0,0,0,0,0,0,0,0,0,0,0,0,0,0,0,0,0,0,0,0,0,0,0,0,0,0,0,0,0,0,0,0,0,0,0,0,0,0,0,0,0,0,0,0,0,0,0,0,0,0,0,0,0,0,0,0,0,
0,0,0,0,0,0,0,0,0,0,0,0,0,0,0,0,0,0,0,0,0,0,0,0,0,0,0,0,0,0,0,0,0,0,0,0,0,0,0,0,0,0,0,0,0,0,0,0,0,0,0,0,0,0,0,0,0,0,0,0,0,0,0,0,0,0,0,0,0,0,0,0,0,0,0,0,0,0,0,0,0,0,0,0,0,0,0,0,0,0,0,0,0,0,0,0,0,0,0,0,0,0,0,0,0,0,0,0,0,0,0,0,0,0,0,0,0,0,0,0,0,0,0,0,0,0,0,0,0,0,0,0,0,0,0,0,0,0,0,0,0,0,0,0,0,0,0,0,0,0,
0,0,0,0,0,0,0,0,0,0,0,0,0,0,0,0,0,0,0,0,0,0,0,0,0,0,0,0,0,0,0,0,0,0,0,0,0,0,0,0,0,0,0,0,0,0,0,0,0,0,0,0,0,0,0,0,0,0,0,0,0,0,0,0,0,0,0,0,0,0,0,0,0,0,0,0,0,0,0,0,0,0,0,0,0,0,0,0,0,0,0,0,0,0,0,0,0,0,0,0,0,0,0,0,0,0,0,0,0,0,0,0,0,0,0,0,0,0,0,0,0,0,0,0,0,0,0,0,0,0,0,0,0,0,0,0,0,0,0,0,0,0,0,0,0,0,0,0,0,0,
0,0,0,0,0,0,0,0,0,0,0,0,0,0,0,0,0,0,0,0,0,0,0,0,0,0,0,0,0,0,0,0,0,0,0,0,0,0,0,0,0,0,0,0,0,0,0,0,0,0,0,0,0,0,0,0,0,0,0,0,0,0,0,0,0,0,0,0,0,0,0,0,0,0,0,0,0,0,0,0,0,0,0,0,0,0,0,0,0,0,0,0,0,0,0,0,0,0,0,0,0,0,0,0,0,0,0,0,0,0,0,0,0,0,0,0,0,0,0,0,0,0,0,0,0,0,0,0,0,0,0,0,0,0,0,0,0,0,0,0,0,0,0,0,0,0,0,0,0,0,
0,0,0,0,0,0,0,0,0,0,0,0,0,0,0,0,0,0,0,0,0,0,0,0,0,0,0,0,0,0,0,0,0,0,0,0,0,0,0,0,0,0,0,0,0,0,0,0,0,0,0,0,0,0,0,0,0,0,0,0,0,0,0,0,0,0,0,0,0,0,0,0,0,0,0,0,0,0,0,0,0,0,0,0,0,0,0,0,0,0,0,0,0,0,0,0,0,0,0,0,0,0,0,0,0,0,0,0,0,0,0,0,0,0,0,0,0,0,0,0,0,0,0,0,0,0,0,0,0,0,0,0,0,0,0,0,0,0,0,0,0,0,0,0,0,0,0,0,0,0,
0,0,0,0,0,0,0,0,0,0,0,0,0,0,0,0,0,0,0,0,0,0,0,0,0,0,0,0,0,0,0,0,0,0,0,0,0,0,0,0,0,0,0,0,0,0,0,0,0,0,0,0,0,0,0,0,0,0,0,0,0,0,0,0,0,0,0,0,0,0,0,0,0,0,0,0,0,0,0,0,0,0,0,0,0,0,0,0,0,0,0,0,0,0,0,0,0,0,0,0,0,0,0,0,0,0,0,0,0,0,0,0,0,0,0,0,0,0,0,0,0,0,0,0,0,0,0,0,0,0,0,0,0,0,0,0,0,0,0,0,0,0,0,0,0,0,0,0,0,0,
0,0,0,0,0,0,0,0,0,0,0,0,0,0,0,0,0,0,0,0,0,0,0,0,0,0,0,0,0,0,0,0,0,0,0,0,0,0,0,0,0,0,0,0,0,0,0,0,0,0,0,0,0,0,0,0,0,0,0,0,0,0,0,0,0,0,0,0,0,0,0,0,0,0,0,0,0,0,0,0,0,0,0,0,0,0,0,0,0,0,0,0,0,0,0,0,0,0,0,0,0,0,0,0,0,0,0,0,0,0,0,0,0,0,0,0,0,0,0,0,0,0,0,0,0,0,0,0,0,0,0,0,0,0,0,0,0,0,0,0,0,0,0,0,0,0,0,0,0,0,
0,0,0,0,0,0,0,0,0,0,0,0,0,0,0,0,0,0,0,0,0,0,0,0,0,0,0,0,0,0,0,0,0,0,0,0,0,0,0,0,0,0,0,0,0,0,0,0,0,0,0,0,0,0,0,0,0,0,0,0,0,0,0,0,0,0,0,0,0,0,0,0,0,0,0,0,0,0,0,0,0,0,0,0,0,0,0,0,0,0,0,0,0,0,0,0,0,0,0,0,0,0,0,0,0,0,0,0,0,0,0,0,0,0,0,0,0,0,0,0,0,0,0,0,0,0,0,0,0,0,0,0,0,0,0,0,0,0,0,0,0,0,0,0,0,0,0,0,0,0,
0,0,0,0,0,0,0,0,0,0,0,0,0,0,0,0,0,0,0,0,0,0,0,0,0,0,0,0,0,0,0,0,0,0,0,0,0,0,0,0,0,0,0,0,0,0,0,0,0,0,0,0,0,0,0,0,0,0,0,0,0,0,0,0,0,0,0,0,0,0,0,0,0,0,0,0,0,0,0,0,0,0,0,0,0,0,0,0,0,0,0,0,0,0,0,0,0,0,0,0,0,0,0,0,0,0,0,0,0,0,0,0,0,0,0,0,0,0,0,0,0,0,0,0,0,0,0,0,0,0,0,0,0,0,0,0,0,0,0,0,0,0,0,0,0,0,0,0,0,0,
0,0,0,0,0,0,0,0,0,0,0,0,0,0,0,0,0,0,0,0,0,0,0,0,0,0,0,0,0,0,0,0,0,0,0,0,0,0,0,0,0,0,0,0,0,0,0,0,0,0,0,0,0,0,0,0,0,0,0,0,0,0,0,0,0,0,0,0,0,0,0,0,0,0,0,0,0,0,0,0,0,0,0,0,0,0,0,0,0,0,0,0,0,0,0,0,0,0,0,0,0,0,0,0,0,0,0,0,0,0,0,0,0,0,0,0,0,0,0,0,0,0,0,0,0,0,0,0,0,0,0,0,0,0,0,0,0,0,0,0,0,0,0,0,0,0,0,0,0,0,
0,0,0,0,0,0,0,0,0,0,0,0,0,0,0,0,0,0,0,0,0,0,0,0,0,0,0,0,0,0,0,0,0,0,0,0,0,0,0,0,0,0,0,0,0,0,0,0,0,0,0,0,0,0,0,0,0,0,0,0,0,0,0,0,0,0,0,0,0,0,0,0,0,0,0,0,0,0,0,0,0,0,0,0,0,0,0,0,0,0,0,0,0,0,0,0,0,0,0,0,0,0,0,0,0,0,0,0,0,0,0,0,0,0,0,0,0,0,0,0,0,0,0,0,0,0,0,0,0,0,0,0,0,0,0,0,0,0,0,0,0,0,0,0,0,0,0,0,0,0,
0,0,0,0,0,0,0,0,0,0,0,0,0,0,0,0,0,0,0,0,0,0,0,0,0,0,0,0,0,0,0,0,0,0,0,0,0,0,0,0,0,0,0,0,0,0,0,0,0,0,0,0,0,0,0,0,0,0,0,0,0,0,0,0,0,0,0,0,0,0,0,0,0,0,0,0,0,0,0,0,0,0,0,0,0,0,0,0,0,0,0,0,0,0,0,0,0,0,0,0,0,0,0,0,0,0,0,0,0,0,0,0,0,0,0,0,0,0,0,0,0,0,0,0,0,0,0,0,0,0,0,0,0,0,0,0,0,0,0,0,0,0,0,0,0,0,0,0,0,0,
0,0,0,0,0,0,0,0,0,0,0,0,0,0,0,0,0,0,0,0,0,0,0,0,0,0,0,0,0,0,0,0,0,0,0,0,0,0,0,0,0,0,0,0,0,0,0,0,0,0,0,0,0,0,0,0,0,0,0,0,0,0,0,0,0,0,0,0,0,0,0,0,0,0,0,0,0,0,0,0,0,0,0,0,0,0,0,0,0,0,0,0,0,0,0,0,0,0,0,0,0,0,0,0,0,0,0,0,0,0,0,0,0,0,0,0,0,0,0,0,0,0,0,0,0,0,0,0,0,0,0,0,0,0,0,0,0,0,0,0,0,0,0,0,0,0,0,0,0,0,
0,0,0,0,0,0,0,0,0,0,0,0,0,0,0,0,0,0,0,0,0,0,0,0,0,0,0,0,0,0,0,0,0,0,0,0,0,0,0,0,0,0,0,0,0,0,0,0,0,0,0,0,0,0,0,0,0,0,0,0,0,0,0,0,0,0,0,0,0,0,0,0,0,0,0,0,0,0,0,0,0,0,0,0,0,0,0,0,0,0,0,0,0,0,0,0,0,0,0,0,0,0,0,0,0,0,0,0,0,0,0,0,0,0,0,0,0,0,0,0,0,0,0,0,0,0,0,0,0,0,0,0,0,0,0,0,0,0,0,0,0,0,0,0,0,0,0,0,0,0,
0,0,0,0,0,0,0,0,0,0,0,0,0,0,0,0,0,0,0,0,0,0,0,0,0,0,0,0,0,0,0,0,0,0,0,0,0,0,0,0,0,0,0,0,0,0,0,0,0,0,0,0,0,0,0,0,0,0,0,0,0,0,0,0,0,0,0,0,0,0,0,0,0,0,0,0,0,0,0,0,0,0,0,0,0,0,0,0,0,0,0,0,0,0,0,0,0,0,0,0,0,0,0,0,0,0,0,0,0,0,0,0,0,0,0,0,0,0,0,0,0,0,0,0,0,0,0,0,0,0,0,0,0,0,0,0,0,0,0,0,0,0,0,0,0,0,0,0,0,0,
0,0,0,0,0,0,0,0,0,0,0,0,0,0,0,0,0,0,0,0,0,0,0,0,0,0,0,0,0,0,0,0,0,0,0,0,0,0,0,0,0,0,0,0,0,0,0,0,0,0,0,0,0,0,0,0,0,0,0,0,0,0,0,0,0,0,0,0,0,0,0,0,0,0,0,0,0,0,0,0,0,0,0,0,0,0,0,0,0,0,0,0,0,0,0,0,0,0,0,0,0,0,0,0,0,0,0,0,0,0,0,0,0,0,0,0,0,0,0,0,0,0,0,0,0,0,0,0,0,0,0,0,0,0,0,0,0,0,0,0,0,0,0,0,0,0,0,0,0,0,
0,0,0,0,0,0,0,0,0,0,0,0,0,0,0,0,0,0,0,0,0,0,0,0,0,0,0,0,0,0,0,0,0,0,0,0,0,0,0,0,0,0,0,0,0,0,0,0,0,0,0,0,0,0,0,0,0,0,0,0,0,0,0,0,0,0,0,0,0,0,0,0,0,0,0,0,0,0,0,0,0,0,0,0,0,0,0,0,0,0,0,0,0,0,0,0,0,0,0,0,0,0,0,0,0,0,0,0,0,0,0,0,0,0,0,0,0,0,0,0,0,0,0,0,0,0,0,0,0,0,0,0,0,0,0,0,0,0,0,0,0,0,0,0,0,0,0,0,0,0,
0,0,0,0,0,0,0,0,0,0,0,0,0,0,0,0,0,0,0,0,0,0,0,0,0,0,0,0,0,0,0,0,0,0,0,0,0,0,0,0,0,0,0,0,0,0,0,0,0,0,0,0,0,0,0,0,0,0,0,0,0,0,0,0,0,0,0,0,0,0,0,0,0,0,0,0,0,0,0,0,0,0,0,0,0,0,0,0,0,0,0,0,0,0,0,0,0,0,0,0,0,0,0,0,0,0,0,0,0,0,0,0,0,0,0,0,0,0,0,0,0,0,0,0,0,0,0,0,0,0,0,0,0,0,0,0,0,0,0,0,0,0,0,0,0,0,0,0,0,0,
0,0,0,0,0,0,0,0,0,0,0,0,0,0,0,0,0,0,0,0,0,0,0,0,0,0,0,0,0,0,0,0,0,0,0,0,0,0,0,0,0,0,0,0,0,0,0,0,0,0,0,0,0,0,0,0,0,0,0,0,0,0,0,0,0,0,0,0,0,0,0,0,0,0,0,0,0,0,0,0,0,0,0,0,0,0,0,0,0,0,0,0,0,0,0,0,0,0,0,0,0,0,0,0,0,0,0,0,0,0,0,0,0,0,0,0,0,0,0,0,0,0,0,0,0,0,0,0,0,0,0,0,0,0,0,0,0,0,0,0,0,0,0,0,0,0,0,0,0,0,
0,0,0,0,0,0,0,0,0,0,0,0,0,0,0,0,0,0,0,0,0,0,0,0,0,0,0,0,0,0,0,0,0,0,0,0,0,0,0,0,0,0,0,0,0,0,0,0,0,0,0,0,0,0,0,0,0,0,0,0,0,0,0,0,0,0,0,0,0,0,0,0,0,0,0,0,0,0,0,0,0,0,0,0,0,0,0,0,0,0,0,0,0,0,0,0,0,0,0,0,0,0,0,0,0,0,0,0,0,0,0,0,0,0,0,0,0,0,0,0,0,0,0,0,0,0,0,0,0,0,0,0,0,0,0,0,0,0,0,0,0,0,0,0,0,0,0,0,0,0,
0,0,0,0,0,0,0,0,0,0,0,0,0,0,0,0,0,0,0,0,0,0,0,0,0,0,0,0,0,0,0,0,0,0,0,0,0,0,0,0,0,0,0,0,0,0,0,0,0,0,0,0,0,0,0,0,0,0,0,0,0,0,0,0,0,0,0,0,0,0,0,0,0,0,0,0,0,0,0,0,0,0,0,0,0,0,0,0,0,0,0,0,0,0,0,0,0,0,0,0,0,0,0,0,0,0,0,0,0,0,0,0,0,0,0,0,0,0,0,0,0,0,0,0,0,0,0,0,0,0,0,0,0,0,0,0,0,0,0,0,0,0,0,0,0,0,0,0,0,0
</data>
 </layer>
 <layer id="18" name="wall_win" width="150" height="200">
  <properties>
   <property name="collision" type="bool" value="true"/>
   <property name="destructible" type="bool" value="true"/>
  </properties>
  <data encoding="csv">
0,0,0,0,0,0,0,0,0,0,0,0,0,0,0,0,0,0,0,0,0,0,0,0,0,0,0,0,0,0,0,0,0,0,0,0,0,0,0,0,0,0,0,0,0,0,0,0,0,0,0,0,0,0,0,0,0,0,0,0,0,0,0,0,0,0,0,0,0,0,0,0,0,0,0,0,0,0,0,0,0,0,0,0,0,0,0,0,0,0,0,0,0,0,0,0,0,0,0,0,0,0,0,0,0,0,0,0,0,0,0,0,0,0,0,0,0,0,0,0,0,0,0,0,0,0,0,0,0,0,0,0,0,0,0,0,0,0,0,0,0,0,0,0,0,0,0,0,0,0,
0,0,0,0,0,0,0,0,0,0,0,0,0,0,0,0,0,0,0,0,0,0,0,0,0,0,0,0,0,0,0,0,0,0,0,0,0,0,0,0,0,0,0,0,0,0,0,0,0,0,0,0,0,0,0,0,0,0,0,0,0,0,0,0,0,0,0,0,0,0,0,0,0,0,0,0,0,0,0,0,0,0,0,0,0,0,0,0,0,0,0,0,0,0,0,0,0,0,0,0,0,0,0,0,0,0,0,0,0,0,0,0,0,0,0,0,0,0,0,0,0,0,0,0,0,0,0,0,0,0,0,0,0,0,0,0,0,0,0,0,0,0,0,0,0,0,0,0,0,0,
0,0,0,0,0,0,0,0,0,0,0,0,0,0,0,0,0,0,0,0,0,0,0,0,0,0,0,0,0,0,0,0,0,0,0,0,0,0,0,0,0,0,0,0,0,0,0,0,0,0,0,0,0,0,0,0,0,0,0,0,0,0,0,0,0,0,0,0,0,0,0,0,0,0,0,0,0,0,0,0,0,0,0,0,0,0,0,0,0,0,0,0,0,0,0,0,0,0,0,0,0,0,0,0,0,0,0,0,0,0,0,0,0,0,0,0,0,0,0,0,0,0,0,0,0,0,0,0,0,0,0,0,0,0,0,0,0,0,0,0,0,0,0,0,0,0,0,0,0,0,
0,0,0,0,0,0,0,0,0,0,0,0,0,0,0,0,0,0,0,0,0,0,0,0,0,0,0,0,0,0,0,0,0,0,0,0,0,0,0,0,0,0,0,0,0,0,0,0,0,0,0,0,0,0,0,0,0,0,0,0,0,0,0,0,0,0,0,0,0,0,0,0,0,0,0,0,0,0,0,0,0,0,0,0,0,0,0,0,0,0,0,0,0,0,0,0,0,0,0,0,0,0,0,0,0,0,0,0,0,0,0,0,0,0,0,0,0,0,0,0,0,0,0,0,0,0,0,0,0,0,0,0,0,0,0,0,0,0,0,0,0,0,0,0,0,0,0,0,0,0,
0,0,0,0,0,0,0,0,0,0,0,0,0,0,0,0,0,0,0,0,0,0,0,0,0,0,0,0,0,0,0,0,0,0,0,0,0,0,0,0,0,0,0,0,0,0,0,0,0,0,0,0,0,0,0,0,0,0,0,0,0,0,0,0,0,0,0,0,0,0,0,0,0,0,0,0,0,0,0,0,0,0,0,0,0,0,0,0,0,0,0,0,0,0,0,0,0,0,0,0,0,0,0,0,0,0,0,0,0,0,0,0,0,0,0,0,0,0,0,0,0,0,0,0,0,0,0,0,0,0,0,0,0,0,0,0,0,0,0,0,0,0,0,0,0,0,0,0,0,0,
0,0,0,0,0,0,0,0,0,0,0,0,0,0,0,0,0,0,0,0,0,0,0,0,0,0,0,0,0,0,0,0,0,0,0,0,0,0,0,0,0,0,0,0,0,0,0,0,0,0,0,0,0,0,0,0,0,0,0,0,0,0,0,0,0,0,0,0,0,0,0,0,0,0,0,0,0,0,0,0,0,0,0,0,0,0,0,0,0,0,0,0,0,0,0,0,0,0,0,0,0,0,0,0,0,0,0,0,0,0,0,0,0,0,0,0,0,0,0,0,0,0,0,0,0,0,0,0,0,0,0,0,0,0,0,0,0,0,0,0,0,0,0,0,0,0,0,0,0,0,
0,0,0,0,0,0,0,0,0,0,0,0,0,0,0,0,0,0,0,0,0,0,0,0,0,0,0,0,0,0,0,0,0,0,0,0,0,0,0,0,0,0,0,0,0,0,0,0,0,0,0,0,0,0,0,0,0,0,0,0,0,0,0,0,0,0,0,0,0,0,0,0,0,0,0,0,0,0,0,0,0,0,0,0,0,0,0,0,0,0,0,0,0,0,0,0,0,0,0,0,0,0,0,0,0,0,0,0,0,0,0,0,0,0,0,0,0,0,0,0,0,0,0,0,0,0,0,0,0,0,0,0,0,0,0,0,0,0,0,0,0,0,0,0,0,0,0,0,0,0,
0,0,0,0,0,0,0,0,0,0,0,0,0,0,0,0,0,0,0,0,0,0,0,0,0,0,0,0,0,0,0,0,0,0,0,0,0,0,0,0,0,0,0,0,0,0,0,0,0,0,0,0,0,0,0,0,0,0,0,0,0,0,0,0,0,0,0,0,0,0,0,0,0,0,0,0,0,0,0,0,0,0,0,0,0,0,0,0,0,0,0,0,0,0,0,0,0,0,0,0,0,0,0,0,0,0,0,0,0,0,0,0,0,0,0,0,0,0,0,0,0,0,0,0,0,0,0,0,0,0,0,0,0,0,0,0,0,0,0,0,0,0,0,0,0,0,0,0,0,0,
0,0,0,0,0,0,0,0,0,0,0,0,0,0,0,0,0,0,0,0,0,0,0,0,0,0,0,0,0,0,0,0,0,0,0,0,0,0,0,0,0,0,0,0,0,0,0,0,0,0,0,0,0,0,0,0,0,0,0,0,0,0,0,0,0,0,0,0,0,0,0,0,0,0,0,0,0,0,0,0,0,0,0,0,0,0,0,0,0,0,0,0,0,0,0,0,0,0,0,0,0,0,0,0,0,0,0,0,0,0,0,0,0,0,0,0,0,0,0,0,0,0,0,0,0,0,0,0,0,0,0,0,0,0,0,0,0,0,0,0,0,0,0,0,0,0,0,0,0,0,
0,0,0,0,0,0,0,0,0,0,0,0,0,0,0,0,0,0,0,0,0,0,0,0,0,0,0,0,0,0,0,0,0,0,0,0,0,0,0,0,0,0,0,0,0,0,0,0,0,0,0,0,0,0,0,0,0,0,0,0,0,0,0,0,0,0,0,0,0,0,0,0,0,0,0,0,0,0,0,0,0,0,0,0,0,0,0,0,0,0,0,0,0,0,0,0,0,0,0,0,0,0,0,0,0,0,0,0,0,0,0,0,0,0,0,0,0,0,0,0,0,0,0,0,0,0,0,0,0,0,0,0,0,0,0,0,0,0,0,0,0,0,0,0,0,0,0,0,0,0,
0,0,0,0,0,0,0,0,0,0,0,0,0,0,0,0,0,0,0,0,0,0,0,0,0,0,0,0,0,0,0,0,0,0,0,0,0,0,0,0,0,0,0,0,0,0,0,0,0,0,0,0,0,0,0,0,0,0,0,0,0,0,0,0,0,0,0,0,0,0,0,0,0,0,0,0,0,0,0,0,0,0,0,0,0,0,0,0,0,0,0,0,0,0,0,0,0,0,0,0,0,0,0,0,0,0,0,0,0,0,0,0,0,0,0,0,0,0,0,0,0,0,0,0,0,0,0,0,0,0,0,0,0,0,0,0,0,0,0,0,0,0,0,0,0,0,0,0,0,0,
0,0,0,0,0,0,0,0,0,0,0,0,0,0,0,0,0,0,0,0,0,0,0,0,0,0,0,0,0,0,0,0,0,0,0,0,0,0,0,0,0,0,0,0,0,0,0,0,0,0,0,0,0,0,0,0,0,0,0,0,0,0,0,0,0,0,0,0,0,0,0,0,0,0,0,0,0,0,0,0,0,0,0,0,0,0,0,0,0,0,0,0,0,0,0,0,0,0,0,0,0,0,0,0,0,0,0,0,0,0,0,0,0,0,0,0,0,0,0,0,0,0,0,0,0,0,0,0,0,0,0,0,0,0,0,0,0,0,0,0,0,0,0,0,0,0,0,0,0,0,
0,0,0,0,0,0,0,0,0,0,0,0,0,0,0,0,0,0,0,0,0,0,0,0,0,0,0,0,0,0,0,0,0,0,0,0,0,0,0,0,0,0,0,0,0,0,0,0,0,0,0,0,0,0,0,0,0,0,0,0,0,0,0,0,0,0,0,0,0,0,0,0,0,0,0,0,0,0,0,0,0,0,0,0,0,0,0,0,0,0,0,0,0,0,0,0,0,0,0,0,0,0,0,0,0,0,0,0,0,0,0,0,0,0,0,0,0,0,0,0,0,0,0,0,0,0,0,0,0,0,0,0,0,0,0,0,0,0,0,0,0,0,0,0,0,0,0,0,0,0,
0,0,0,0,0,0,0,0,0,0,0,0,0,0,0,0,0,0,0,0,0,0,0,0,0,0,0,0,0,0,0,0,0,0,0,0,0,0,0,0,0,0,0,0,0,0,0,0,0,0,0,0,0,0,0,0,0,0,0,0,0,0,0,0,0,0,0,0,0,0,0,0,0,0,0,0,0,0,0,0,0,0,0,0,0,0,0,0,0,0,0,0,0,0,0,0,0,0,0,0,0,0,0,0,0,0,0,0,0,0,0,0,0,0,0,0,0,0,0,0,0,0,0,0,0,0,0,0,0,0,0,0,0,0,0,0,0,0,0,0,0,0,0,0,0,0,0,0,0,0,
0,0,0,0,0,0,0,0,0,0,0,0,0,0,0,0,0,0,0,0,0,0,0,0,0,0,0,0,0,0,0,0,0,0,0,0,0,0,0,0,0,0,0,0,0,0,0,0,0,0,0,0,0,0,0,0,0,0,0,0,0,0,0,0,0,0,0,0,0,0,0,0,0,0,0,0,0,0,0,0,0,0,0,0,0,0,0,0,0,0,0,0,0,0,0,0,0,0,0,0,0,0,0,0,0,0,0,0,0,0,0,0,0,0,0,0,0,0,0,0,0,0,0,0,0,0,0,0,0,0,0,0,0,0,0,0,0,0,0,0,0,0,0,0,0,0,0,0,0,0,
0,0,0,0,0,0,0,0,0,0,0,0,0,0,0,0,0,0,0,0,0,0,0,0,0,0,0,0,0,0,0,0,0,0,0,0,0,0,0,0,0,0,0,0,0,0,0,0,0,0,0,0,0,0,0,0,0,0,0,0,0,0,0,0,0,0,0,0,0,0,0,0,0,0,0,0,0,0,0,0,0,0,0,0,0,0,0,0,0,0,0,0,0,0,0,0,0,0,0,0,0,0,0,0,0,0,0,0,0,0,0,0,0,0,0,0,0,0,0,0,0,0,0,0,0,0,0,0,0,0,0,0,0,0,0,0,0,0,0,0,0,0,0,0,0,0,0,0,0,0,
0,0,0,0,0,0,0,0,0,0,0,0,0,0,0,0,0,0,0,0,0,0,0,0,0,0,0,0,0,0,0,0,0,0,0,0,0,0,0,0,0,0,0,0,0,0,0,0,0,0,0,0,0,0,0,0,0,0,0,0,0,0,0,0,0,0,0,0,0,0,0,0,0,0,0,0,0,0,0,0,0,0,0,0,0,0,0,0,0,0,0,0,0,0,0,0,0,0,0,0,0,0,0,0,0,0,0,0,0,0,0,0,0,0,0,0,0,0,0,0,0,0,0,0,0,0,0,0,0,0,0,0,0,0,0,0,0,0,0,0,0,0,0,0,0,0,0,0,0,0,
0,0,0,0,0,0,0,0,0,0,0,0,0,0,0,0,0,0,0,0,0,0,0,0,0,0,0,0,0,0,0,0,0,0,0,0,0,0,0,0,0,0,0,0,0,0,0,0,0,0,0,0,0,0,0,0,0,0,0,0,0,0,0,0,0,0,0,0,0,0,0,0,0,0,0,0,0,0,0,0,0,0,0,0,0,0,0,0,0,0,0,0,0,0,0,0,0,0,0,0,0,0,0,0,0,0,0,0,0,0,0,0,0,0,0,0,0,0,0,0,0,0,0,0,0,0,0,0,0,0,0,0,0,0,0,0,0,0,0,0,0,0,0,0,0,0,0,0,0,0,
0,0,0,0,0,0,0,0,0,0,0,0,0,0,0,0,0,0,0,0,0,0,0,0,0,0,0,0,0,0,0,0,0,0,0,0,0,0,0,0,0,0,0,0,0,0,0,0,0,0,0,0,0,0,0,0,0,0,0,0,0,0,0,0,0,0,0,0,0,0,0,0,0,0,0,0,0,0,0,0,0,0,0,0,0,0,0,0,0,0,0,0,0,0,0,0,0,0,0,0,0,0,0,0,0,0,0,0,0,0,0,0,0,0,0,0,0,0,0,0,0,0,0,0,0,0,0,0,0,0,0,0,0,0,0,0,0,0,0,0,0,0,0,0,0,0,0,0,0,0,
0,0,0,0,0,0,0,0,0,0,0,0,0,0,0,0,0,0,0,0,0,0,0,0,0,0,0,0,0,0,0,0,0,0,0,0,0,0,0,0,0,0,0,0,0,0,0,0,0,0,0,0,0,0,0,0,0,0,0,0,0,0,0,0,0,0,0,0,0,0,0,0,0,0,0,0,0,0,0,0,0,0,0,0,0,0,0,0,0,0,0,0,0,0,0,0,0,0,0,0,0,0,0,0,0,0,0,0,0,0,0,0,0,0,0,0,0,0,0,0,0,0,0,0,0,0,0,0,0,0,0,0,0,0,0,0,0,0,0,0,0,0,0,0,0,0,0,0,0,0,
0,0,0,0,0,0,0,0,0,0,0,0,0,0,0,0,0,0,0,0,0,0,0,0,0,0,0,0,0,0,0,0,0,0,0,0,0,0,0,0,0,0,0,0,0,0,0,0,0,0,0,0,0,0,0,0,0,0,0,0,0,0,0,0,0,0,0,0,0,0,0,0,0,0,0,0,0,0,0,0,0,0,0,0,0,0,0,0,0,0,0,0,0,0,0,0,0,0,0,0,0,0,0,0,0,0,0,0,0,0,0,0,0,0,0,0,0,0,0,0,0,0,0,0,0,0,0,0,0,0,0,0,0,0,0,0,0,0,0,0,0,0,0,0,0,0,0,0,0,0,
0,0,0,0,0,0,0,0,0,0,0,0,0,0,0,0,0,0,0,0,0,0,0,0,0,0,0,0,0,0,0,0,0,0,0,0,0,0,0,0,0,0,0,0,0,0,0,0,0,0,0,0,0,0,0,0,0,0,0,0,0,0,0,0,0,0,0,0,0,0,0,0,0,0,0,0,0,0,0,0,0,0,0,0,0,0,0,0,0,0,0,0,0,0,0,0,0,0,0,0,0,0,0,0,0,0,0,0,0,0,0,0,0,0,0,0,0,0,0,0,0,0,0,0,0,0,0,0,0,0,0,0,0,0,0,0,0,0,0,0,0,0,0,0,0,0,0,0,0,0,
0,0,0,0,0,0,0,0,0,0,0,0,0,0,0,0,0,0,0,0,0,0,0,0,0,0,0,0,0,0,0,0,0,0,0,0,0,0,0,0,0,0,0,0,0,0,0,0,0,0,0,0,0,0,0,0,0,0,0,0,0,0,0,0,0,0,0,0,0,0,0,0,0,0,0,0,0,0,0,0,0,0,0,0,0,0,0,0,0,0,0,0,0,0,0,0,0,0,0,0,0,0,0,0,0,0,0,0,0,0,0,0,0,0,0,0,0,0,0,0,0,0,0,0,0,0,0,0,0,0,0,0,0,0,0,0,0,0,0,0,0,0,0,0,0,0,0,0,0,0,
0,0,0,0,0,0,0,0,0,0,0,0,0,0,0,0,0,0,0,0,0,0,0,0,0,0,0,0,0,0,0,0,0,0,0,0,0,0,0,0,0,0,0,0,0,0,0,0,0,0,0,0,0,0,0,0,0,0,0,0,0,0,0,0,0,0,0,0,0,0,0,0,0,0,0,0,0,0,0,0,0,0,0,0,0,0,0,0,0,0,0,0,0,0,0,0,0,0,0,0,0,0,0,0,0,0,0,0,0,0,0,0,0,0,0,0,0,0,0,0,0,0,0,0,0,0,0,0,0,0,0,0,0,0,0,0,0,0,0,0,0,0,0,0,0,0,0,0,0,0,
0,0,0,0,0,0,0,0,0,0,0,0,0,0,0,0,0,0,0,0,0,0,0,0,0,0,0,0,0,0,0,0,0,0,0,0,0,0,0,0,0,0,0,0,0,0,0,0,0,0,0,0,0,0,0,0,0,0,0,0,0,0,0,0,0,0,0,0,0,0,0,0,0,0,0,0,0,0,0,0,0,0,0,0,0,0,0,0,0,0,0,0,0,0,0,0,0,0,0,0,0,0,0,0,0,0,0,0,0,0,0,0,0,0,0,0,0,0,0,0,0,0,0,0,0,0,0,0,0,0,0,0,0,0,0,0,0,0,0,0,0,0,0,0,0,0,0,0,0,0,
0,0,0,0,0,0,0,0,0,0,0,0,0,0,0,0,0,0,0,0,0,0,0,0,0,0,0,0,0,0,0,0,0,0,0,0,0,0,0,0,0,0,0,0,0,0,0,0,0,0,0,0,0,0,0,0,0,0,0,0,0,0,0,0,0,0,0,0,0,0,0,0,0,0,0,0,0,0,0,0,0,0,0,0,0,0,0,0,0,0,0,0,0,0,0,0,0,0,0,0,0,0,0,0,0,0,0,0,0,0,0,0,0,0,0,0,0,0,0,0,0,0,0,0,0,0,0,0,0,0,0,0,0,0,0,0,0,0,0,0,0,0,0,0,0,0,0,0,0,0,
0,0,0,0,0,0,0,0,0,0,0,0,0,0,0,0,0,0,0,0,0,0,0,0,0,0,0,0,0,0,0,0,0,0,0,0,0,0,0,0,0,0,0,0,0,0,0,0,0,0,0,0,0,0,0,0,0,0,0,0,0,0,0,0,0,0,0,0,0,0,0,0,0,0,0,0,0,0,0,0,0,0,0,0,0,0,0,0,0,0,0,0,0,0,0,0,0,0,0,0,0,0,0,0,0,0,0,0,0,0,0,0,0,0,0,0,0,0,0,0,0,0,0,0,0,0,0,0,0,0,0,0,0,0,0,0,0,0,0,0,0,0,0,0,0,0,0,0,0,0,
0,0,0,0,0,0,0,0,0,0,0,0,0,0,0,0,0,0,0,0,0,0,0,0,0,0,0,0,0,0,0,0,0,0,0,0,0,0,0,0,0,0,0,0,0,0,0,0,0,0,0,0,0,0,0,0,0,0,0,0,0,0,0,0,0,0,0,0,0,0,0,0,0,0,0,0,0,0,0,0,0,0,0,0,0,0,0,0,0,0,0,0,0,0,0,0,0,0,0,0,0,0,0,0,0,0,0,0,0,0,0,0,0,0,0,0,0,0,0,0,0,0,0,0,0,0,0,0,0,0,0,0,0,0,0,0,0,0,0,0,0,0,0,0,0,0,0,0,0,0,
0,0,0,0,0,0,0,0,0,0,0,0,0,0,0,0,0,0,0,0,0,0,0,0,0,0,0,0,0,0,0,0,0,0,0,0,0,0,0,0,0,0,0,0,0,0,0,0,0,0,0,0,0,0,0,0,0,0,0,0,0,0,0,0,0,0,0,0,0,0,0,0,0,0,0,0,0,0,0,0,0,0,0,0,0,0,0,0,0,0,0,0,0,0,0,0,0,0,0,0,0,0,0,0,0,0,0,0,0,0,0,0,0,0,0,0,0,0,0,0,0,0,0,0,0,0,0,0,0,0,0,0,0,0,0,0,0,0,0,0,0,0,0,0,0,0,0,0,0,0,
0,0,0,0,0,0,0,0,0,0,0,0,0,0,0,0,0,0,0,0,0,0,0,0,0,0,0,0,0,0,0,0,0,0,0,0,0,0,0,0,0,0,0,0,0,0,0,0,0,0,0,0,0,0,0,0,0,0,0,0,0,0,0,0,0,0,0,0,0,0,0,0,0,0,0,0,0,0,0,0,0,0,0,0,0,0,0,0,0,0,0,0,0,0,0,0,0,0,0,0,0,0,0,0,0,0,0,0,0,0,0,0,0,0,0,0,0,0,0,0,0,0,0,0,0,0,0,0,0,0,0,0,0,0,0,0,0,0,0,0,0,0,0,0,0,0,0,0,0,0,
0,0,0,0,0,0,0,0,0,0,0,0,0,0,0,0,0,0,0,0,0,0,0,0,0,0,0,0,0,0,0,0,0,0,0,0,0,0,0,0,0,0,0,0,0,0,0,0,0,0,0,0,0,0,0,0,0,0,0,0,0,0,0,0,0,0,0,0,0,0,0,0,0,0,0,0,0,0,0,0,0,0,0,0,0,0,0,0,0,0,0,0,0,0,0,0,0,0,0,0,0,0,0,0,0,0,0,0,0,0,0,0,0,0,0,0,0,0,0,0,0,0,0,0,0,0,0,0,0,0,0,0,0,0,0,0,0,0,0,0,0,0,0,0,0,0,0,0,0,0,
0,0,0,0,0,0,0,0,0,0,0,0,0,0,0,0,0,0,0,0,0,0,0,0,0,0,0,0,0,0,0,0,0,0,0,0,0,0,0,0,0,0,0,0,0,0,0,0,0,0,0,0,0,0,0,0,0,0,0,0,0,0,0,0,0,0,0,0,0,0,0,0,0,0,0,0,0,0,0,0,0,0,0,0,0,0,0,0,0,0,0,0,0,0,0,0,0,0,0,0,0,0,0,0,0,0,0,0,0,0,0,0,0,0,0,0,0,0,0,0,0,0,0,0,0,0,0,0,0,0,0,0,0,0,0,0,0,0,0,0,0,0,0,0,0,0,0,0,0,0,
0,0,0,0,0,0,0,0,0,0,0,0,0,0,0,0,0,0,0,0,0,0,0,0,0,0,0,0,0,0,0,0,0,0,0,0,0,0,0,0,0,0,0,0,0,0,0,0,0,0,0,0,0,0,0,0,0,0,0,0,0,0,0,0,0,0,0,0,0,0,0,0,0,0,0,0,0,0,0,0,0,0,0,0,0,0,0,0,0,0,0,0,0,0,0,0,0,0,0,0,0,0,0,0,0,0,0,0,0,0,0,0,0,0,0,0,0,0,0,0,0,0,0,0,0,0,0,0,0,0,0,0,0,0,0,0,0,0,0,0,0,0,0,0,0,0,0,0,0,0,
0,0,0,0,0,0,0,0,0,0,0,0,0,0,0,0,0,0,0,0,0,0,0,0,0,0,0,0,0,0,0,0,0,0,0,0,0,0,0,0,0,0,0,0,0,0,0,0,0,0,0,0,0,0,0,0,0,0,0,0,0,0,0,0,0,0,0,0,0,0,0,0,0,0,0,0,0,0,0,0,0,0,0,0,0,0,0,0,0,0,0,0,0,0,0,0,0,0,0,0,0,0,0,0,0,0,0,0,0,0,0,0,0,0,0,0,0,0,0,0,0,0,0,0,0,0,0,0,0,0,0,0,0,0,0,0,0,0,0,0,0,0,0,0,0,0,0,0,0,0,
0,0,0,0,0,0,0,0,0,0,0,0,0,0,0,0,0,0,0,0,0,0,0,0,0,0,0,0,0,0,0,0,0,0,0,0,0,0,0,0,0,0,0,0,0,0,0,0,0,0,0,0,0,0,0,0,0,0,0,0,0,0,0,0,0,0,0,0,0,0,0,0,0,0,0,0,0,0,0,0,0,0,0,0,0,0,0,0,0,0,0,0,0,0,0,0,0,0,0,0,0,0,0,0,0,0,0,0,0,0,0,0,0,0,0,0,0,0,0,0,0,0,0,0,0,0,0,0,0,0,0,0,0,0,0,0,0,0,0,0,0,0,0,0,0,0,0,0,0,0,
0,0,0,0,0,0,0,0,0,0,0,0,0,0,0,0,0,0,0,0,0,0,0,0,0,0,0,0,0,0,0,0,0,0,0,0,0,0,0,0,0,0,0,0,0,0,0,0,0,0,0,0,0,0,0,0,0,0,0,0,0,0,0,0,0,0,0,0,0,0,0,0,0,0,0,0,0,0,0,0,0,0,0,0,0,0,0,0,0,0,0,0,0,0,0,0,0,0,0,0,0,0,0,0,0,0,0,0,0,0,0,0,0,0,0,0,0,0,0,0,0,0,0,0,0,0,0,0,0,0,0,0,0,0,0,0,0,0,0,0,0,0,0,0,0,0,0,0,0,0,
0,0,0,0,0,0,0,0,0,0,0,0,0,0,0,0,0,0,0,0,0,0,0,0,0,0,0,0,0,0,0,0,0,0,0,0,0,0,0,0,0,0,0,0,0,0,0,0,0,0,0,0,0,0,0,0,0,0,0,0,0,0,0,0,0,0,0,0,0,0,0,0,0,0,0,0,0,0,0,0,0,0,0,0,0,0,0,0,0,0,0,0,0,0,0,0,0,0,0,0,0,0,0,0,0,0,0,0,0,0,0,0,0,0,0,0,0,0,0,0,0,0,0,0,0,0,0,0,0,0,0,0,0,0,0,0,0,0,0,0,0,0,0,0,0,0,0,0,0,0,
0,0,0,0,0,0,0,0,0,0,0,0,0,0,0,0,0,0,0,0,0,0,0,0,0,0,0,0,0,0,0,0,0,0,0,0,0,0,0,0,0,0,0,0,0,0,0,0,0,0,0,0,0,0,0,0,0,0,0,0,0,0,0,0,0,0,0,0,0,0,0,0,0,0,0,0,0,0,0,0,0,0,0,0,0,0,0,0,0,0,0,0,0,0,0,0,0,0,0,0,0,0,0,0,0,0,0,0,0,0,0,0,0,0,0,0,0,0,0,0,0,0,0,0,0,0,0,0,0,0,0,0,0,0,0,0,0,0,0,0,0,0,0,0,0,0,0,0,0,0,
0,0,0,0,0,0,0,0,0,0,0,0,0,0,0,0,0,0,0,0,0,0,0,0,0,0,0,0,0,0,0,0,0,0,0,0,0,0,0,0,0,0,0,0,0,0,0,0,0,0,0,0,0,0,0,0,0,0,0,0,0,0,0,0,0,0,0,0,0,0,0,0,0,0,0,0,0,0,0,0,0,0,0,0,0,0,0,0,0,0,0,0,0,0,0,0,0,0,0,0,0,0,0,0,0,0,0,0,0,0,0,0,0,0,0,0,0,0,0,0,0,0,0,0,0,0,0,0,0,0,0,0,0,0,0,0,0,0,0,0,0,0,0,0,0,0,0,0,0,0,
0,0,0,0,0,0,0,0,0,0,0,0,0,0,0,0,0,0,0,0,0,0,0,0,0,0,0,0,0,0,0,0,0,0,0,0,0,0,0,0,0,0,0,0,0,0,0,0,0,0,0,0,0,0,0,0,0,0,0,0,0,0,0,0,0,0,0,0,0,0,0,0,0,0,0,0,0,0,0,0,0,0,0,0,0,0,0,0,0,0,0,0,0,0,0,0,0,0,0,0,0,0,0,0,0,0,0,0,0,0,0,0,0,0,0,0,0,0,0,0,0,0,0,0,0,0,0,0,0,0,0,0,0,0,0,0,0,0,0,0,0,0,0,0,0,0,0,0,0,0,
0,0,0,0,0,0,0,0,0,0,0,0,0,0,0,0,0,0,0,0,0,0,0,0,0,0,0,0,0,0,0,0,0,0,0,0,0,0,0,0,0,0,0,0,0,0,0,0,0,0,0,0,0,0,0,0,0,0,0,0,0,0,0,0,0,0,0,0,0,0,0,0,0,0,0,0,0,0,0,0,0,0,0,0,0,0,0,0,0,0,0,0,0,0,0,0,0,0,0,0,0,0,0,0,0,0,0,0,0,0,0,0,0,0,0,0,0,0,0,0,0,0,0,0,0,0,0,0,0,0,0,0,0,0,0,0,0,0,0,0,0,0,0,0,0,0,0,0,0,0,
0,0,0,0,0,0,0,0,0,0,0,0,0,0,0,0,0,0,0,0,0,0,0,0,0,0,0,0,0,0,0,0,0,0,0,0,0,0,0,0,0,0,0,0,0,0,0,0,0,0,0,0,0,0,0,0,0,0,0,0,0,0,0,0,0,0,0,0,0,0,0,0,0,0,0,0,0,0,0,0,0,0,0,0,0,0,0,0,0,0,0,0,0,0,0,0,0,0,0,0,0,0,0,0,0,0,0,0,0,0,0,0,0,0,0,0,0,0,0,0,0,0,0,0,0,0,0,0,0,0,0,0,0,0,0,0,0,0,0,0,0,0,0,0,0,0,0,0,0,0,
0,0,0,0,0,0,0,0,0,0,0,0,0,0,0,0,0,0,0,0,0,0,0,0,0,0,0,0,0,0,0,0,0,0,0,0,0,0,0,0,0,0,0,0,0,0,0,0,0,0,0,0,0,0,0,0,0,0,0,0,0,0,0,0,0,0,0,0,0,0,0,0,0,0,0,0,0,0,0,0,0,0,0,0,0,0,0,0,0,0,0,0,0,0,0,0,0,0,0,0,0,0,0,0,0,0,0,0,0,0,0,0,0,0,0,0,0,0,0,0,0,0,0,0,0,0,0,0,0,0,0,0,0,0,0,0,0,0,0,0,0,0,0,0,0,0,0,0,0,0,
0,0,0,0,0,0,0,0,0,0,0,0,0,0,0,0,0,0,0,0,0,0,0,0,0,0,0,0,0,0,0,0,0,0,0,0,0,0,0,0,0,0,0,0,0,0,0,0,0,0,0,0,0,0,0,0,0,0,0,0,0,0,0,0,0,0,0,0,0,0,0,0,0,0,0,0,0,0,0,0,0,0,0,0,0,0,0,0,0,0,0,0,0,0,0,0,0,0,0,0,0,0,0,0,0,0,0,0,0,0,0,0,0,0,0,0,0,0,0,0,0,0,0,0,0,0,0,0,0,0,0,0,0,0,0,0,0,0,0,0,0,0,0,0,0,0,0,0,0,0,
0,0,0,0,0,0,0,0,0,0,0,0,0,0,0,0,0,0,0,0,0,0,0,0,0,0,0,0,0,0,0,0,0,0,0,0,0,0,0,0,0,0,0,0,0,0,0,0,0,0,0,0,0,0,0,0,0,0,0,0,0,0,0,0,0,0,0,0,0,0,0,0,0,0,0,0,0,0,0,0,0,0,0,0,0,0,0,0,0,0,0,0,0,0,0,0,0,0,0,0,0,0,0,0,0,0,0,0,0,0,0,0,0,0,0,0,0,0,0,0,0,0,0,0,0,0,0,0,0,0,0,0,0,0,0,0,0,0,0,0,0,0,0,0,0,0,0,0,0,0,
0,0,0,0,0,0,0,0,0,0,0,0,0,0,0,0,0,0,0,0,0,0,0,0,0,0,0,0,0,0,0,0,0,0,0,0,0,0,0,0,0,0,0,0,0,0,0,0,0,0,0,0,0,0,0,0,0,0,0,0,0,0,0,0,0,0,0,0,0,0,0,0,0,0,0,0,0,0,0,0,0,0,0,0,0,0,0,0,0,0,0,0,0,0,0,0,0,0,0,0,0,0,0,0,0,0,0,0,0,0,0,0,0,0,0,0,0,0,0,0,0,0,0,0,0,0,0,0,0,0,0,0,0,0,0,0,0,0,0,0,0,0,0,0,0,0,0,0,0,0,
0,0,0,0,0,0,0,0,0,0,0,0,0,0,0,0,0,0,0,0,0,0,0,0,0,0,0,0,0,0,0,0,0,0,0,0,0,0,0,0,0,0,0,0,0,0,0,0,0,0,0,0,0,0,0,0,0,0,0,0,0,0,0,0,0,0,0,0,0,0,0,0,0,0,0,0,0,0,0,0,0,0,0,0,0,0,0,0,0,0,0,0,0,0,0,0,0,0,0,0,0,0,0,0,0,0,0,0,0,0,0,0,0,0,0,0,0,0,0,0,0,0,0,0,0,0,0,0,0,0,0,0,0,0,0,0,0,0,0,0,0,0,0,0,0,0,0,0,0,0,
0,0,0,0,0,0,0,0,0,0,0,0,0,0,0,0,0,0,0,0,0,0,0,0,0,0,0,0,0,0,0,0,0,0,0,0,0,0,0,0,0,0,0,0,0,0,0,0,0,0,0,0,0,0,0,0,0,0,0,0,0,0,0,0,0,0,0,0,0,0,0,0,0,0,0,0,0,0,0,0,0,0,0,0,0,0,0,0,0,0,0,0,0,0,0,0,0,0,0,0,0,0,0,0,0,0,0,0,0,0,0,0,0,0,0,0,0,0,0,0,0,0,0,0,0,0,0,0,0,0,0,0,0,0,0,0,0,0,0,0,0,0,0,0,0,0,0,0,0,0,
0,0,0,0,0,0,0,0,0,0,0,0,0,0,0,0,0,0,0,0,0,0,0,0,0,0,0,0,0,0,0,0,0,0,0,0,0,0,0,0,0,0,0,0,0,0,0,0,0,0,0,0,0,0,0,0,0,0,0,0,0,0,0,0,0,0,0,0,0,0,0,0,0,0,0,0,0,0,0,0,0,0,0,0,0,0,0,0,0,0,0,0,0,0,0,0,0,0,0,0,0,0,0,0,0,0,0,0,0,0,0,0,0,0,0,0,0,0,0,0,0,0,0,0,0,0,0,0,0,0,0,0,0,0,0,0,0,0,0,0,0,0,0,0,0,0,0,0,0,0,
0,0,0,0,0,0,0,0,0,0,0,0,0,0,0,0,0,0,0,0,0,0,0,0,0,0,0,0,0,0,0,0,0,0,0,0,0,0,0,0,0,0,0,0,0,0,0,0,0,0,0,0,0,0,0,0,0,0,0,0,0,0,0,0,0,0,0,0,0,0,0,0,0,0,0,0,0,0,0,0,0,0,0,0,0,0,0,0,0,0,0,0,0,0,0,0,0,0,0,0,0,0,0,0,0,0,0,0,0,0,0,0,0,0,0,0,0,0,0,0,0,0,0,0,0,0,0,0,0,0,0,0,0,0,0,0,0,0,0,0,0,0,0,0,0,0,0,0,0,0,
0,0,0,0,0,0,0,0,0,0,0,0,0,0,0,0,0,0,0,0,0,0,0,0,0,0,0,0,0,0,0,0,0,0,0,0,0,0,0,0,0,0,0,0,0,0,0,0,0,0,0,0,0,0,0,0,0,0,0,0,0,0,0,0,0,0,0,0,0,0,0,0,0,0,0,0,0,0,0,0,0,0,0,0,0,0,0,0,0,0,0,0,0,0,0,0,0,0,0,0,0,0,0,0,0,0,0,0,0,0,0,0,0,0,0,0,0,0,0,0,0,0,0,0,0,0,0,0,0,0,0,0,0,0,0,0,0,0,0,0,0,0,0,0,0,0,0,0,0,0,
0,0,0,0,0,0,0,0,0,0,0,0,0,0,0,0,0,0,0,0,0,0,0,0,0,0,0,0,0,0,0,0,0,0,0,0,0,0,0,0,0,0,0,0,0,0,0,0,0,0,0,0,0,0,0,0,0,0,0,0,0,0,0,0,0,0,0,0,0,0,0,0,0,0,0,0,0,0,0,0,0,0,0,0,0,0,0,0,0,0,0,0,0,0,0,0,0,0,0,0,0,0,0,0,0,0,0,0,0,0,0,0,0,0,0,0,0,0,0,0,0,0,0,0,0,0,0,0,0,0,0,0,0,0,0,0,0,0,0,0,0,0,0,0,0,0,0,0,0,0,
0,0,0,0,0,0,0,0,0,0,0,0,0,0,0,0,0,0,0,0,0,0,0,0,0,0,0,0,0,0,0,0,0,0,0,0,0,0,0,0,0,0,0,0,0,0,0,0,0,0,0,0,0,0,0,0,0,0,0,0,0,0,0,0,0,0,0,0,0,0,0,0,0,0,0,0,0,0,0,0,0,0,0,0,0,0,0,0,0,0,0,0,0,0,0,0,0,0,0,0,0,0,0,0,0,0,0,0,0,0,0,0,0,0,0,0,0,0,0,0,0,0,0,0,0,0,0,0,0,0,0,0,0,0,0,0,0,0,0,0,0,0,0,0,0,0,0,0,0,0,
0,0,0,0,0,0,0,0,0,0,0,0,0,0,0,0,0,0,0,0,0,0,0,0,0,0,0,0,0,0,0,0,0,0,0,0,0,0,0,0,0,0,0,0,0,0,0,0,0,0,0,0,0,0,0,0,0,0,0,0,0,0,0,0,0,0,0,0,0,0,0,0,0,0,0,0,0,0,0,0,0,0,0,0,0,0,0,0,0,0,0,0,0,0,0,0,0,0,0,0,0,0,0,0,0,0,0,0,0,0,0,0,0,0,0,0,0,0,0,0,0,0,0,0,0,0,0,0,0,0,0,0,0,0,0,0,0,0,0,0,0,0,0,0,0,0,0,0,0,0,
0,0,0,0,0,0,0,0,0,0,0,0,0,0,0,0,0,0,0,0,0,0,0,0,0,0,0,0,0,0,0,0,0,0,0,0,0,0,0,0,0,0,0,0,0,0,0,0,0,0,0,0,0,0,0,0,0,0,0,0,0,0,0,0,0,0,0,0,0,0,0,0,0,0,0,0,0,0,0,0,0,0,0,0,0,0,0,0,0,0,0,0,0,0,0,0,0,0,0,0,0,0,0,0,0,0,0,0,0,0,0,0,0,0,0,0,0,0,0,0,0,0,0,0,0,0,0,0,0,0,0,0,0,0,0,0,0,0,0,0,0,0,0,0,0,0,0,0,0,0,
0,0,0,0,0,0,0,0,0,0,0,0,0,0,0,0,0,0,0,0,0,0,0,0,0,0,0,0,0,0,0,0,0,0,0,0,0,0,0,0,0,0,0,0,0,0,0,0,0,0,0,0,0,0,0,0,0,0,0,0,0,0,0,0,0,0,0,0,0,0,0,0,0,0,0,0,0,0,0,0,0,0,0,0,0,0,0,0,0,0,0,0,0,0,0,0,0,0,0,0,0,0,0,0,0,0,0,0,0,0,0,0,0,0,0,0,0,0,0,0,0,0,0,0,0,0,0,0,0,0,0,0,0,0,0,0,0,0,0,0,0,0,0,0,0,0,0,0,0,0,
0,0,0,0,0,0,0,0,0,0,0,0,0,0,0,0,0,0,0,0,0,0,0,0,0,0,0,0,0,0,0,0,0,0,0,0,0,0,0,0,0,0,0,0,0,0,0,0,0,0,0,0,0,0,0,0,0,0,0,0,0,0,0,0,0,0,0,0,0,0,0,0,0,0,0,0,0,0,0,0,0,0,0,0,0,0,0,0,0,0,0,0,0,0,0,0,0,0,0,0,0,0,0,0,0,0,0,0,0,0,0,0,0,0,0,0,0,0,0,0,0,0,0,0,0,0,0,0,0,0,0,0,0,0,0,0,0,0,0,0,0,0,0,0,0,0,0,0,0,0,
0,0,0,0,0,0,0,0,0,0,0,0,0,0,0,0,0,0,0,0,0,0,0,0,0,0,0,0,0,0,0,0,0,0,0,0,0,0,0,0,0,0,0,0,0,0,0,0,0,0,0,0,0,0,0,0,0,0,0,0,0,0,0,0,0,0,0,0,0,0,0,0,0,0,0,0,0,0,0,0,0,0,0,0,0,0,0,0,0,0,0,0,0,0,0,0,0,0,0,0,0,0,0,0,0,0,0,0,0,0,0,0,0,0,0,0,0,0,0,0,0,0,0,0,0,0,0,0,0,0,0,0,0,0,0,0,0,0,0,0,0,0,0,0,0,0,0,0,0,0,
0,0,0,0,0,0,0,0,0,0,0,0,0,0,0,0,0,0,0,0,0,0,0,0,0,0,0,0,0,0,0,0,0,0,0,0,0,0,0,0,0,0,0,0,0,0,0,0,0,0,0,0,0,0,0,0,0,0,0,0,0,0,0,0,0,0,0,0,0,0,0,0,0,0,0,0,0,0,0,0,0,0,0,0,0,0,0,0,0,0,0,0,0,0,0,0,0,0,0,0,0,0,0,0,0,0,0,0,0,0,0,0,0,0,0,0,0,0,0,0,0,0,0,0,0,0,0,0,0,0,0,0,0,0,0,0,0,0,0,0,0,0,0,0,0,0,0,0,0,0,
0,0,0,0,0,0,0,0,0,0,0,0,0,0,0,0,0,0,0,0,0,0,0,0,0,0,0,0,0,0,0,0,0,0,0,0,0,0,0,0,0,0,0,0,0,0,0,0,0,0,0,0,0,0,0,0,0,0,0,0,0,0,0,0,0,0,0,0,0,0,0,0,0,0,0,0,0,0,0,0,0,0,0,0,0,0,0,0,0,0,0,0,0,0,0,0,0,0,0,0,0,0,0,0,0,0,0,0,0,0,0,0,0,0,0,0,0,0,0,0,0,0,0,0,0,0,0,0,0,0,0,0,0,0,0,0,0,0,0,0,0,0,0,0,0,0,0,0,0,0,
0,0,0,0,0,0,0,0,0,0,0,0,0,0,0,0,0,0,0,0,0,0,0,0,0,0,0,0,0,0,0,0,0,0,0,0,0,0,0,0,0,0,0,0,0,0,0,0,0,0,0,0,0,0,0,0,0,0,0,0,0,0,0,0,0,0,0,0,0,0,0,0,0,0,0,0,0,0,0,0,0,0,0,0,0,0,0,0,0,0,0,0,0,0,0,0,0,0,0,0,0,0,0,0,0,0,0,0,0,0,0,0,0,0,0,0,0,0,0,0,0,0,0,0,0,0,0,0,0,0,0,0,0,0,0,0,0,0,0,0,0,0,0,0,0,0,0,0,0,0,
0,0,0,0,0,0,0,0,0,0,0,0,0,0,0,0,0,0,0,0,0,0,0,0,0,0,0,0,0,0,0,0,0,0,0,0,0,0,0,0,0,0,0,0,0,0,0,0,0,0,0,0,0,0,0,0,0,0,0,0,0,0,0,0,0,0,0,0,0,0,0,0,0,0,0,0,0,0,0,0,0,0,0,0,0,0,0,0,0,0,0,0,0,0,0,0,0,0,0,0,0,0,0,0,0,0,0,0,0,0,0,0,0,0,0,0,0,0,0,0,0,0,0,0,0,0,0,0,0,0,0,0,0,0,0,0,0,0,0,0,0,0,0,0,0,0,0,0,0,0,
0,0,0,0,0,0,0,0,0,0,0,0,0,0,0,0,0,0,0,0,0,0,0,0,0,0,0,0,0,0,0,0,0,0,0,0,0,0,0,0,0,0,0,0,0,0,0,0,0,0,0,0,0,0,0,0,0,0,0,0,0,0,0,0,0,0,0,0,0,0,0,0,0,0,0,0,0,0,0,0,0,0,0,0,0,0,0,0,0,0,0,0,0,0,0,0,0,0,0,0,0,0,0,0,0,0,0,0,0,0,0,0,0,0,0,0,0,0,0,0,0,0,0,0,0,0,0,0,0,0,0,0,0,0,0,0,0,0,0,0,0,0,0,0,0,0,0,0,0,0,
0,0,0,0,0,0,0,0,0,0,0,0,0,0,0,0,0,0,0,0,0,0,0,0,0,0,0,0,0,0,0,0,0,0,0,0,0,0,0,0,0,0,0,0,0,0,0,0,0,0,0,0,0,0,0,0,0,0,0,0,0,0,0,0,0,0,0,0,0,0,0,0,0,0,0,0,0,0,0,0,0,0,0,0,0,0,0,0,0,0,0,0,0,0,0,0,0,0,0,0,0,0,0,0,0,0,0,0,0,0,0,0,0,0,0,0,0,0,0,0,0,0,0,0,0,0,0,0,0,0,0,0,0,0,0,0,0,0,0,0,0,0,0,0,0,0,0,0,0,0,
0,0,0,0,0,0,0,0,0,0,0,0,0,0,0,0,0,0,0,0,0,0,0,0,0,0,0,0,0,0,0,0,0,0,0,0,0,0,0,0,0,0,0,0,0,0,0,0,0,0,0,0,0,0,0,0,0,0,0,0,0,0,0,0,0,0,0,0,0,0,0,0,0,0,0,0,0,0,0,0,0,0,0,0,0,0,0,0,0,0,0,0,0,0,0,0,0,0,0,0,0,0,0,0,0,0,0,0,0,0,0,0,0,0,0,0,0,0,0,0,0,0,0,0,0,0,0,0,0,0,0,0,0,0,0,0,0,0,0,0,0,0,0,0,0,0,0,0,0,0,
0,0,0,0,0,0,0,0,0,0,0,0,0,0,0,0,0,0,0,0,0,0,0,0,0,0,0,0,0,0,0,0,0,0,0,0,0,0,0,0,0,0,0,0,0,0,0,0,0,0,0,0,0,0,0,0,0,0,0,0,0,0,0,0,0,0,0,0,0,0,0,0,0,0,0,0,0,0,0,0,0,0,0,0,0,0,0,0,0,0,0,0,0,0,0,0,0,0,0,0,0,0,0,0,0,0,0,0,0,0,0,0,0,0,0,0,0,0,0,0,0,0,0,0,0,0,0,0,0,0,0,0,0,0,0,0,0,0,0,0,0,0,0,0,0,0,0,0,0,0,
0,0,0,0,0,0,0,0,0,0,0,0,0,0,0,0,0,0,0,0,0,0,0,0,0,0,0,0,0,0,0,0,0,0,0,0,0,0,0,0,0,0,0,0,0,0,0,0,0,0,0,0,0,0,0,0,0,0,0,0,0,0,0,0,0,0,0,0,0,0,0,0,0,0,0,0,0,0,0,0,0,0,0,0,0,0,0,0,0,0,0,0,0,0,0,0,0,0,0,0,0,0,0,0,0,0,0,0,0,0,0,0,0,0,0,0,0,0,0,0,0,0,0,0,0,0,0,0,0,0,0,0,0,0,0,0,0,0,0,0,0,0,0,0,0,0,0,0,0,0,
0,0,0,0,0,0,0,0,0,0,0,0,0,0,0,0,0,0,0,0,0,0,0,0,0,0,0,0,0,0,0,0,0,0,0,0,0,0,0,0,0,0,0,0,0,0,0,0,0,0,0,0,0,0,0,0,0,0,0,0,0,0,0,0,0,0,0,0,0,0,0,0,0,0,0,0,0,0,0,0,0,0,0,0,0,0,0,0,0,0,0,0,0,0,0,0,0,0,0,0,0,0,0,0,0,0,0,0,0,0,0,0,0,0,0,0,0,0,0,0,0,0,0,0,0,0,0,0,0,0,0,0,0,0,0,0,0,0,0,0,0,0,0,0,0,0,0,0,0,0,
0,0,0,0,0,0,0,0,0,0,0,0,0,0,0,0,0,0,0,0,0,0,0,0,0,0,0,0,0,0,0,0,0,0,0,0,0,0,0,0,0,0,0,0,0,0,0,0,0,0,0,0,0,0,0,0,0,0,0,0,0,0,0,0,0,0,0,0,0,0,0,0,0,0,0,0,0,0,0,0,0,0,0,0,0,0,0,0,0,0,0,0,0,0,0,0,0,0,0,0,0,0,0,0,0,0,0,0,0,0,0,0,0,0,0,0,0,0,0,0,0,0,0,0,0,0,0,0,0,0,0,0,0,0,0,0,0,0,0,0,0,0,0,0,0,0,0,0,0,0,
0,0,0,0,0,0,0,0,0,0,0,0,0,0,0,0,0,0,0,0,0,0,0,0,0,0,0,0,0,0,0,0,0,0,0,0,0,0,0,0,0,0,0,0,0,0,0,0,0,0,0,0,0,0,0,0,0,0,0,0,0,0,0,0,0,0,0,0,0,0,0,0,0,0,0,0,0,0,0,0,0,0,0,0,0,0,0,0,0,0,0,0,0,0,0,0,0,0,0,0,0,0,0,0,0,0,0,0,0,0,0,0,0,0,0,0,0,0,0,0,0,0,0,0,0,0,0,0,0,0,0,0,0,0,0,0,0,0,0,0,0,0,0,0,0,0,0,0,0,0,
0,0,0,0,0,0,0,0,0,0,0,0,0,0,0,0,0,0,0,0,0,0,0,0,0,0,0,0,0,0,0,0,0,0,0,0,0,0,0,0,0,0,0,0,0,0,0,0,0,0,0,0,0,0,0,0,0,0,0,0,0,0,0,0,0,0,0,0,0,0,0,0,0,0,0,0,0,0,0,0,0,0,0,0,0,0,0,0,0,0,0,0,0,0,0,0,0,0,0,0,0,0,0,0,0,0,0,0,0,0,0,0,0,0,0,0,0,0,0,0,0,0,0,0,0,0,0,0,0,0,0,0,0,0,0,0,0,0,0,0,0,0,0,0,0,0,0,0,0,0,
0,0,0,0,0,0,0,0,0,0,0,0,0,0,0,0,0,0,0,0,0,0,0,0,0,0,0,0,0,0,0,0,0,0,0,0,0,0,0,0,0,0,0,0,0,0,0,0,0,0,0,0,0,0,0,0,0,0,0,0,0,0,0,0,0,0,0,0,0,0,0,0,0,0,0,0,0,0,0,0,0,0,0,0,0,0,0,0,0,0,0,0,0,0,0,0,0,0,0,0,0,0,0,0,0,0,0,0,0,0,0,0,0,0,0,0,0,0,0,0,0,0,0,0,0,0,0,0,0,0,0,0,0,0,0,0,0,0,0,0,0,0,0,0,0,0,0,0,0,0,
0,0,0,0,0,0,0,0,0,0,0,0,0,0,0,0,0,0,0,0,0,0,0,0,0,0,0,0,0,0,0,0,0,0,0,0,0,0,0,0,0,0,0,0,0,0,0,0,0,0,0,0,0,0,0,0,0,0,0,0,0,0,0,0,0,0,0,0,0,0,0,0,0,0,0,0,0,0,0,0,0,0,0,0,0,0,0,0,0,0,0,0,0,0,0,0,0,0,0,0,0,0,0,0,0,0,0,0,0,0,0,0,0,0,0,0,0,0,0,0,0,0,0,0,0,0,0,0,0,0,0,0,0,0,0,0,0,0,0,0,0,0,0,0,0,0,0,0,0,0,
0,0,0,0,0,0,0,0,0,0,0,0,0,0,0,0,0,0,0,0,0,0,0,0,0,0,0,0,0,0,0,0,0,0,0,0,0,0,0,0,0,0,0,0,0,0,0,0,0,0,0,0,0,0,0,0,0,0,0,0,0,0,0,0,0,0,0,0,0,0,0,0,0,0,0,0,0,0,0,0,0,0,0,0,0,0,0,0,0,0,0,0,0,0,0,0,0,0,0,0,0,0,0,0,0,0,0,0,0,0,0,0,0,0,0,0,0,0,0,0,0,0,0,0,0,0,0,0,0,0,0,0,0,0,0,0,0,0,0,0,0,0,0,0,0,0,0,0,0,0,
0,0,0,0,0,0,0,0,0,0,0,0,0,0,0,0,0,0,0,0,0,0,0,0,0,0,0,0,0,0,0,0,0,0,0,0,0,0,0,0,0,0,0,0,0,0,0,0,0,0,0,0,0,0,0,0,0,0,0,0,0,0,0,0,0,0,0,0,0,0,0,0,0,0,0,0,0,0,0,0,0,0,0,0,0,0,0,0,0,0,0,0,0,0,0,0,0,0,0,0,0,0,0,0,0,0,0,0,0,0,0,0,0,0,0,0,0,0,0,0,0,0,0,0,0,0,0,0,0,0,0,0,0,0,0,0,0,0,0,0,0,0,0,0,0,0,0,0,0,0,
0,0,0,0,0,0,0,0,0,0,0,0,0,0,0,0,0,0,0,0,0,0,0,0,0,0,0,0,0,0,0,0,0,0,0,0,0,0,0,0,0,0,0,0,0,0,0,0,0,0,0,0,0,0,0,0,0,0,0,0,0,0,0,0,0,0,0,0,0,0,0,0,0,0,0,0,0,0,0,0,0,0,0,0,0,0,0,0,0,0,0,0,0,0,0,0,0,0,0,0,0,0,0,0,0,0,0,0,0,0,0,0,0,0,0,0,0,0,0,0,0,0,0,0,0,0,0,0,0,0,0,0,0,0,0,0,0,0,0,0,0,0,0,0,0,0,0,0,0,0,
0,0,0,0,0,0,0,0,0,0,0,0,0,0,0,0,0,0,0,0,0,0,0,0,0,0,0,0,0,0,0,0,0,0,0,0,0,0,0,0,0,0,0,0,0,0,0,0,0,0,0,0,0,0,0,0,0,0,0,0,0,0,0,0,0,0,0,0,0,0,0,0,0,0,0,0,0,0,0,0,0,0,0,0,0,0,0,0,0,0,0,0,0,0,0,0,0,0,0,0,0,0,0,0,0,0,0,0,0,0,0,0,0,0,0,0,0,0,0,0,0,0,0,0,0,0,0,0,0,0,0,0,0,0,0,0,0,0,0,0,0,0,0,0,0,0,0,0,0,0,
0,0,0,0,0,0,0,0,0,0,0,0,0,0,0,0,0,0,0,0,0,0,0,0,0,0,0,0,0,0,0,0,0,0,0,0,0,0,0,0,0,0,0,0,0,0,0,0,0,0,0,0,0,0,0,0,0,0,0,0,0,0,0,0,0,0,0,0,0,0,0,0,0,0,0,0,0,0,0,0,0,0,0,0,0,0,0,0,0,0,0,0,0,0,0,0,0,0,0,0,0,0,0,0,0,0,0,0,0,0,0,0,0,0,0,0,0,0,0,0,0,0,0,0,0,0,0,0,0,0,0,0,0,0,0,0,0,0,0,0,0,0,0,0,0,0,0,0,0,0,
0,0,0,0,0,0,0,0,0,0,0,0,0,0,0,0,0,0,0,0,0,0,0,0,0,0,0,0,0,0,0,0,0,0,0,0,0,0,0,0,0,0,0,0,0,0,0,0,0,0,0,0,0,0,0,0,0,0,0,0,0,0,0,0,0,0,0,0,0,0,0,0,0,0,0,0,0,0,0,0,0,0,0,0,0,0,0,0,0,0,0,0,0,0,0,0,0,0,0,0,0,0,0,0,0,0,0,0,0,0,0,0,0,0,0,0,0,0,0,0,0,0,0,0,0,0,0,0,0,0,0,0,0,0,0,0,0,0,0,0,0,0,0,0,0,0,0,0,0,0,
0,0,0,0,0,0,0,0,0,0,0,0,0,0,0,0,0,0,0,0,0,0,0,0,0,0,0,0,0,0,0,0,0,0,0,0,0,0,0,0,0,0,0,0,0,0,0,0,0,0,0,0,0,0,0,0,0,0,0,0,0,0,0,0,0,0,0,0,0,0,0,0,0,0,0,0,0,0,0,0,0,0,0,0,0,0,0,0,0,0,0,0,0,0,0,0,0,0,0,0,0,0,0,0,0,0,0,0,0,0,0,0,0,0,0,0,0,0,0,0,0,0,0,0,0,0,0,0,0,0,0,0,0,0,0,0,0,0,0,0,0,0,0,0,0,0,0,0,0,0,
0,0,0,0,0,0,0,0,0,0,0,0,0,0,0,0,0,0,0,0,0,0,0,0,0,0,0,0,0,0,0,0,0,0,0,0,0,0,0,0,0,0,0,0,0,0,0,0,0,0,0,0,0,0,0,0,0,0,0,0,0,0,0,0,0,0,0,0,0,0,0,0,0,0,0,0,0,0,0,0,0,0,0,0,0,0,0,0,0,0,0,0,0,0,0,0,0,0,0,0,0,0,0,0,0,0,0,0,0,0,0,0,0,0,0,0,0,0,0,0,0,0,0,0,0,0,0,0,0,0,0,0,0,0,0,0,0,0,0,0,0,0,0,0,0,0,0,0,0,0,
0,0,0,0,0,0,0,0,0,0,0,0,0,0,0,0,0,0,0,0,0,0,0,0,0,0,0,0,0,0,0,0,0,0,0,0,0,0,0,0,0,0,0,0,0,0,0,0,0,0,0,0,0,0,0,0,0,0,0,0,0,0,0,0,0,0,0,0,0,0,0,0,0,0,0,0,0,0,0,0,0,0,0,0,0,0,0,0,0,0,0,0,0,0,0,0,0,0,0,0,0,0,0,0,0,0,0,0,0,0,0,0,0,0,0,0,0,0,0,0,0,0,0,0,0,0,0,0,0,0,0,0,0,0,0,0,0,0,0,0,0,0,0,0,0,0,0,0,0,0,
0,0,0,0,0,0,0,0,0,0,0,0,0,0,0,0,0,0,0,0,0,0,0,0,0,0,0,0,0,0,0,0,0,0,0,0,0,0,0,0,0,0,0,0,0,0,0,0,0,0,0,0,0,0,0,0,0,0,0,0,0,0,0,0,0,0,0,0,0,0,0,0,0,0,0,0,0,0,0,0,0,0,0,0,0,0,0,0,0,0,0,0,0,0,0,0,0,0,0,0,0,0,0,0,0,0,0,0,0,0,0,0,0,0,0,0,0,0,0,0,0,0,0,0,0,0,0,0,0,0,0,0,0,0,0,0,0,0,0,0,0,0,0,0,0,0,0,0,0,0,
0,0,0,0,0,0,0,0,0,0,0,0,0,0,0,0,0,0,0,0,0,0,0,0,0,0,0,0,0,0,0,0,0,0,0,0,0,0,0,0,0,0,0,0,0,0,0,0,0,0,0,0,0,0,0,0,0,0,0,0,0,0,0,0,0,0,0,0,0,0,0,0,0,0,0,0,0,0,0,0,0,0,0,0,0,0,0,0,0,0,0,0,0,0,0,0,0,0,0,0,0,0,0,0,0,0,0,0,0,0,0,0,0,0,0,0,0,0,0,0,0,0,0,0,0,0,0,0,0,0,0,0,0,0,0,0,0,0,0,0,0,0,0,0,0,0,0,0,0,0,
0,0,0,0,0,0,0,0,0,0,0,0,0,0,0,0,0,0,0,0,0,0,0,0,0,0,0,0,0,0,0,0,0,0,0,0,0,0,0,0,0,0,0,0,0,0,0,0,0,0,0,0,0,0,0,0,0,0,0,0,0,0,0,0,0,0,0,0,0,0,0,0,0,0,0,0,0,0,0,0,0,0,0,0,0,0,0,0,0,0,0,0,0,0,0,0,0,0,0,0,0,0,0,0,0,0,0,0,0,0,0,0,0,0,0,0,0,0,0,0,0,0,0,0,0,0,0,0,0,0,0,0,0,0,0,0,0,0,0,0,0,0,0,0,0,0,0,0,0,0,
0,0,0,0,0,0,0,0,0,0,0,0,0,0,0,0,0,0,0,0,0,0,0,0,0,0,0,0,0,0,0,0,0,0,0,0,0,0,0,0,0,0,0,0,0,0,0,0,0,0,0,0,0,0,0,0,0,0,0,0,0,0,0,0,0,0,0,0,0,0,0,0,0,0,0,0,0,0,0,0,0,0,0,0,0,0,0,0,0,0,0,0,0,0,0,0,0,0,0,0,0,0,0,0,0,0,0,0,0,0,0,0,0,0,0,0,0,0,0,0,0,0,0,0,0,0,0,0,0,0,0,0,0,0,0,0,0,0,0,0,0,0,0,0,0,0,0,0,0,0,
0,0,0,0,0,0,0,0,0,0,0,0,0,0,0,0,0,0,0,0,0,0,0,0,0,0,0,0,0,0,0,0,0,0,0,0,0,0,0,0,0,0,0,0,0,0,0,0,0,0,0,0,0,0,0,0,0,0,0,0,0,0,0,0,0,0,0,0,0,0,0,0,0,0,0,0,0,0,0,0,0,0,0,0,0,0,0,0,0,0,0,0,0,0,0,0,0,0,0,0,0,0,0,0,0,0,0,0,0,0,0,0,0,0,0,0,0,0,0,0,0,0,0,0,0,0,0,0,0,0,0,0,0,0,0,0,0,0,0,0,0,0,0,0,0,0,0,0,0,0,
0,0,0,0,0,0,0,0,0,0,0,0,0,0,0,0,0,0,0,0,0,0,0,0,0,0,0,0,0,0,0,0,0,0,0,0,0,0,0,0,0,0,0,0,0,0,0,0,0,0,0,0,0,0,0,0,0,0,0,0,0,0,0,0,0,0,0,0,0,0,0,0,0,0,0,0,0,0,0,0,0,0,0,0,0,0,0,0,0,0,0,0,0,0,0,0,0,0,0,0,0,0,0,0,0,0,0,0,0,0,0,0,0,0,0,0,0,0,0,0,0,0,0,0,0,0,0,0,0,0,0,0,0,0,0,0,0,0,0,0,0,0,0,0,0,0,0,0,0,0,
0,0,0,0,0,0,0,0,0,0,0,0,0,0,0,0,0,0,0,0,0,0,0,0,0,0,0,0,0,0,0,0,0,0,0,0,0,0,0,0,0,0,0,0,0,0,0,0,0,0,0,0,0,0,0,0,0,0,0,0,0,0,0,0,0,0,0,0,0,0,0,0,0,0,0,0,0,0,0,0,0,0,0,0,0,0,0,0,0,0,0,0,0,0,0,0,0,0,0,0,0,0,0,0,0,0,0,0,0,0,0,0,0,0,0,0,0,0,0,0,0,0,0,0,0,0,0,0,0,0,0,0,0,0,0,0,0,0,0,0,0,0,0,0,0,0,0,0,0,0,
0,0,0,0,0,0,0,0,0,0,0,0,0,0,0,0,0,0,0,0,0,0,0,0,0,0,0,0,0,0,0,0,0,0,0,0,0,0,0,0,0,0,0,0,0,0,0,0,0,0,0,0,0,0,0,0,0,0,0,0,0,0,0,0,0,0,0,0,0,0,0,0,0,0,0,0,0,0,0,0,0,0,0,0,0,0,0,0,0,0,0,0,0,0,0,0,0,0,0,0,0,0,0,0,0,0,0,0,0,0,0,0,0,0,0,0,0,0,0,0,0,0,0,0,0,0,0,0,0,0,0,0,0,0,0,0,0,0,0,0,0,0,0,0,0,0,0,0,0,0,
0,0,0,0,0,0,0,0,0,0,0,0,0,0,0,0,0,0,0,0,0,0,0,0,0,0,0,0,0,0,0,0,0,0,0,0,0,0,0,0,0,0,0,0,0,0,0,0,0,0,0,0,0,0,0,0,0,0,0,0,0,0,0,0,0,0,0,0,0,0,0,0,0,0,0,0,0,0,0,0,0,0,0,0,0,0,0,0,0,0,0,0,0,0,0,0,0,0,0,0,0,0,0,0,0,0,0,0,0,0,0,0,0,0,0,0,0,0,0,0,0,0,0,0,0,0,0,0,0,0,0,0,0,0,0,0,0,0,0,0,0,0,0,0,0,0,0,0,0,0,
0,0,0,0,0,0,0,0,0,0,0,0,0,0,0,0,0,0,0,0,0,0,0,0,0,0,0,0,0,0,0,0,0,0,0,0,0,0,0,0,0,0,0,0,0,0,0,0,0,0,0,0,0,0,0,0,0,0,0,0,0,0,0,0,0,0,0,0,0,0,0,0,0,0,0,0,0,0,0,0,0,0,0,0,0,0,0,0,0,0,0,0,0,0,0,0,0,0,0,0,0,0,0,0,0,0,0,0,0,0,0,0,0,0,0,0,0,0,0,0,0,0,0,0,0,0,0,0,0,0,0,0,0,0,0,0,0,0,0,0,0,0,0,0,0,0,0,0,0,0,
0,0,0,0,0,0,0,0,0,0,0,0,0,0,0,0,0,0,0,0,0,0,0,0,0,0,0,0,0,0,0,0,0,0,0,0,0,0,0,0,0,0,0,0,0,0,0,0,0,0,0,0,0,0,0,0,0,0,0,0,0,0,0,0,0,0,0,0,0,0,0,0,0,0,0,0,0,0,0,0,0,0,0,0,0,0,0,0,0,0,0,0,0,0,0,0,0,0,0,0,0,0,0,0,0,0,0,0,0,0,0,0,0,0,0,0,0,0,0,0,0,0,0,0,0,0,0,0,0,0,0,0,0,0,0,0,0,0,0,0,0,0,0,0,0,0,0,0,0,0,
0,0,0,0,0,0,0,0,0,0,0,0,0,0,0,0,0,0,0,0,0,0,0,0,0,0,0,0,0,0,0,0,0,0,0,0,0,0,0,0,0,0,0,0,0,0,0,0,0,0,0,0,0,0,0,0,0,0,0,0,0,0,0,0,0,0,0,0,0,0,0,0,0,0,0,0,0,0,0,0,0,0,0,0,0,0,0,0,0,0,0,0,0,0,0,0,0,0,0,0,0,0,0,0,0,0,0,0,0,0,0,0,0,0,0,0,0,0,0,0,0,0,0,0,0,0,0,0,0,0,0,0,0,0,0,0,0,0,0,0,0,0,0,0,0,0,0,0,0,0,
0,0,0,0,0,0,0,0,0,0,0,0,0,0,0,0,0,0,0,0,0,0,0,0,0,0,0,0,0,0,0,0,0,0,0,0,0,0,0,0,0,0,0,0,0,0,0,0,0,0,0,0,0,0,0,0,0,0,0,0,0,0,0,0,0,0,0,0,0,0,0,0,0,0,0,0,0,0,0,0,0,0,0,0,0,0,0,0,0,0,0,0,0,0,0,0,0,0,0,0,0,0,0,0,0,0,0,0,0,0,0,0,0,0,0,0,0,0,0,0,0,0,0,0,0,0,0,0,0,0,0,0,0,0,0,0,0,0,0,0,0,0,0,0,0,0,0,0,0,0,
0,0,0,0,0,0,0,0,0,0,0,0,0,0,0,0,0,0,0,0,0,0,0,0,0,0,0,0,0,0,0,0,0,0,0,0,0,0,0,0,0,0,0,0,0,0,0,0,0,0,0,0,0,0,0,0,0,0,0,0,0,0,0,0,0,0,0,0,0,0,0,0,0,0,0,0,0,0,0,0,0,0,0,0,0,0,0,0,0,0,0,0,0,0,0,0,0,0,0,0,0,0,0,0,0,0,0,0,0,0,0,0,0,0,0,0,0,0,0,0,0,0,0,0,0,0,0,0,0,0,0,0,0,0,0,0,0,0,0,0,0,0,0,0,0,0,0,0,0,0,
0,0,0,0,0,0,0,0,0,0,0,0,0,0,0,0,0,0,0,0,0,0,0,0,0,0,0,0,0,0,0,0,0,0,0,0,0,0,0,0,0,0,0,0,0,0,0,0,0,0,0,0,0,0,0,0,0,0,0,0,0,0,0,0,0,0,0,0,0,0,0,0,0,0,0,0,0,0,0,0,0,0,0,0,0,0,0,0,0,0,0,0,0,0,0,0,0,0,0,0,0,0,0,0,0,0,0,0,0,0,0,0,0,0,0,0,0,0,0,0,0,0,0,0,0,0,0,0,0,0,0,0,0,0,0,0,0,0,0,0,0,0,0,0,0,0,0,0,0,0,
0,0,0,0,0,0,0,0,0,0,0,0,0,0,0,0,0,0,0,0,0,0,0,0,0,0,0,0,0,0,0,0,0,0,0,0,0,0,0,0,0,0,0,0,0,0,0,0,0,0,0,0,0,0,0,0,0,0,0,0,0,0,0,0,0,0,0,0,0,0,0,0,5318,5319,5318,5319,5318,5318,5319,0,0,0,0,0,0,0,0,0,0,0,0,0,0,0,0,0,0,0,0,0,0,0,0,0,0,0,0,0,0,0,0,0,0,0,0,0,0,0,0,0,0,0,0,0,0,0,0,0,0,0,0,0,0,0,0,0,0,0,0,0,0,0,0,0,0,0,0,0,0,0,
0,0,0,0,0,0,0,0,0,0,0,0,0,0,0,0,0,0,0,0,0,0,0,0,0,0,0,0,0,0,0,0,0,0,0,0,0,0,0,0,0,0,0,0,0,0,0,0,0,0,0,0,0,0,0,0,0,0,0,0,0,0,0,0,0,0,0,0,0,0,0,0,0,0,0,0,0,0,0,0,0,0,0,0,0,0,0,0,0,0,0,0,0,0,0,0,0,0,0,0,0,0,0,0,0,0,0,0,0,0,0,0,0,0,0,0,0,0,0,0,0,0,0,0,0,0,0,0,0,0,0,0,0,0,0,0,0,0,0,0,0,0,0,0,0,0,0,0,0,0,
0,0,0,0,0,0,0,0,0,0,0,0,0,0,0,0,0,0,0,0,0,0,0,0,0,0,0,0,0,0,0,0,0,0,0,0,0,0,0,0,0,0,0,0,0,0,0,0,0,0,0,0,0,0,0,0,0,0,0,0,0,0,0,0,0,0,0,0,0,0,0,0,0,0,0,0,0,0,0,0,0,0,0,0,0,0,0,0,0,0,0,0,0,0,0,0,0,0,0,0,0,0,0,0,0,0,0,0,0,0,0,0,0,0,0,0,0,0,0,0,0,0,0,0,0,0,0,0,0,0,0,0,0,0,0,0,0,0,0,0,0,0,0,0,0,0,0,0,0,0,
0,0,0,0,0,0,0,0,0,0,0,0,0,0,0,0,0,0,0,0,0,0,0,0,0,0,0,0,0,0,0,0,0,0,0,0,0,0,0,0,0,0,0,0,0,0,0,0,0,0,0,0,0,0,0,0,0,0,0,0,0,0,0,0,0,0,0,0,0,0,0,0,0,0,0,0,0,0,0,0,0,0,0,0,0,0,0,0,0,0,0,0,0,0,0,0,0,0,0,0,0,0,0,0,0,0,0,0,0,0,0,0,0,0,0,0,0,0,0,0,0,0,0,0,0,0,0,0,0,0,0,0,0,0,0,0,0,0,0,0,0,0,0,0,0,0,0,0,0,0,
0,0,0,0,0,0,0,0,0,0,0,0,0,0,0,0,0,0,0,0,0,0,0,0,0,0,0,0,0,0,0,0,0,0,0,0,0,0,0,0,0,0,0,0,0,0,0,0,0,0,0,0,0,0,0,0,0,0,0,0,0,0,0,0,0,0,0,0,0,0,0,0,0,0,0,0,0,0,0,0,0,0,0,0,0,0,0,0,0,0,0,0,0,0,0,0,0,0,0,0,0,0,0,0,0,0,0,0,0,0,0,0,0,0,0,0,0,0,0,0,0,0,0,0,0,0,0,0,0,0,0,0,0,0,0,0,0,0,0,0,0,0,0,0,0,0,0,0,0,0,
0,0,0,0,0,0,0,0,0,0,0,0,0,0,0,0,0,0,0,0,0,0,0,0,0,0,0,0,0,0,0,0,0,0,0,0,0,0,0,0,0,0,0,0,0,0,0,0,0,0,0,0,0,0,0,0,0,0,0,0,0,0,0,0,0,0,0,0,0,0,0,0,0,0,0,0,0,0,0,0,0,0,0,0,0,0,0,0,0,0,0,0,0,0,0,0,0,0,0,0,0,0,0,0,0,0,0,0,0,0,0,0,0,0,0,0,0,0,0,0,0,0,0,0,0,0,0,0,0,0,0,0,0,0,0,0,0,0,0,0,0,0,0,0,0,0,0,0,0,0,
0,0,0,0,0,0,0,0,0,0,0,0,0,0,0,0,0,0,0,0,0,0,0,0,0,0,0,0,0,0,0,0,0,0,0,0,0,0,0,0,0,0,0,0,0,0,0,0,0,0,0,0,0,0,0,0,0,0,0,0,0,0,0,0,0,0,0,0,0,0,0,0,0,0,0,0,0,0,0,0,0,0,0,0,0,0,0,0,0,0,0,0,0,0,0,0,0,0,0,0,0,0,0,0,0,0,0,0,0,0,0,0,0,0,0,0,0,0,0,0,0,0,0,0,0,0,0,0,0,0,0,0,0,0,0,0,0,0,0,0,0,0,0,0,0,0,0,0,0,0,
0,0,0,0,0,0,0,0,0,0,0,0,0,0,0,0,0,0,0,0,0,0,0,0,0,0,0,0,0,0,0,0,0,0,0,0,0,0,0,0,0,0,0,0,0,0,0,0,0,0,0,0,0,0,0,0,0,0,0,0,0,0,0,0,0,0,0,0,0,0,0,0,0,0,0,0,0,0,0,0,0,0,0,0,0,0,0,0,0,0,0,0,0,0,0,0,0,0,0,0,0,0,0,0,0,0,0,0,0,0,0,0,0,0,0,0,0,0,0,0,0,0,0,0,0,0,0,0,0,0,0,0,0,0,0,0,0,0,0,0,0,0,0,0,0,0,0,0,0,0,
0,0,0,0,0,0,0,0,0,0,0,0,0,0,0,0,0,0,0,0,0,0,0,0,0,0,0,0,0,0,0,0,0,0,0,0,0,0,0,0,0,0,0,0,0,0,0,0,0,0,0,0,0,0,0,0,0,0,0,0,0,0,0,0,0,0,0,0,0,0,0,0,0,0,0,0,0,0,0,0,0,0,0,0,0,0,0,0,0,0,0,0,0,0,0,0,0,0,0,0,0,0,0,0,0,0,0,0,0,0,0,0,0,0,0,0,0,0,0,0,0,0,0,0,0,0,0,0,0,0,0,0,0,0,0,0,0,0,0,0,0,0,0,0,0,0,0,0,0,0,
0,0,0,0,0,0,0,0,0,0,0,0,0,0,0,0,0,0,0,0,0,0,0,0,0,0,0,0,0,0,0,0,0,0,0,0,0,0,0,0,0,0,0,0,0,0,0,0,0,0,0,0,0,0,0,0,0,0,0,0,0,0,0,0,0,0,0,0,0,0,0,0,0,0,0,0,0,0,0,0,0,0,0,0,0,0,0,0,0,0,0,0,0,0,0,0,0,0,0,0,0,0,0,0,0,0,0,0,0,0,0,0,0,0,0,0,0,0,0,0,0,0,0,0,0,0,0,0,0,0,0,0,0,0,0,0,0,0,0,0,0,0,0,0,0,0,0,0,0,0,
0,0,0,0,0,0,0,0,0,0,0,0,0,0,0,0,0,0,0,0,0,0,0,0,0,0,0,0,0,0,0,0,0,0,0,0,0,0,0,0,0,0,0,0,0,0,0,0,0,0,0,0,0,0,0,0,0,0,0,0,0,0,0,0,0,0,0,0,0,0,0,0,0,0,0,0,0,0,0,0,0,0,0,0,0,0,0,0,0,0,0,0,0,0,0,0,0,0,0,0,0,0,0,0,0,0,0,0,0,0,0,0,0,0,0,0,0,0,0,0,0,0,0,0,0,0,0,0,0,0,0,0,0,0,0,0,0,0,0,0,0,0,0,0,0,0,0,0,0,0,
0,0,0,0,0,0,0,0,0,0,0,0,0,0,0,0,0,0,0,0,0,0,0,0,0,0,0,0,0,0,0,0,0,0,0,0,0,0,0,0,0,0,0,0,0,0,0,0,0,0,0,0,0,0,0,0,0,0,0,0,0,0,0,0,0,0,0,0,0,0,0,0,0,0,0,0,0,0,0,0,0,0,0,0,0,0,0,0,0,0,0,0,0,0,0,0,0,0,0,0,0,0,0,0,0,0,0,0,0,0,0,0,0,0,0,0,0,0,0,0,0,0,0,0,0,0,0,0,0,0,0,0,0,0,0,0,0,0,0,0,0,0,0,0,0,0,0,0,0,0,
0,0,0,0,0,0,0,0,0,0,0,0,0,0,0,0,0,0,0,0,0,0,0,0,0,0,0,0,0,0,0,0,0,0,0,0,0,0,0,0,0,0,0,0,0,0,0,0,0,0,0,0,0,0,0,0,0,0,0,0,0,0,0,0,0,0,0,0,0,0,0,0,0,0,0,0,0,0,0,0,0,0,0,0,0,0,0,0,0,0,0,0,0,0,0,0,0,0,0,0,0,0,0,0,0,0,0,0,0,0,0,0,0,0,0,0,0,0,0,0,0,0,0,0,0,0,0,0,0,0,0,0,0,0,0,0,0,0,0,0,0,0,0,0,0,0,0,0,0,0,
0,0,0,0,0,0,0,0,0,0,0,0,0,0,0,0,0,0,0,0,0,0,0,0,0,0,0,0,0,0,0,0,0,0,0,0,0,0,0,0,0,0,0,0,0,0,0,0,0,0,0,0,0,0,0,0,0,0,0,0,0,0,0,0,0,0,0,0,0,0,0,0,0,0,0,0,0,0,0,0,0,0,0,0,0,0,0,0,0,0,0,0,0,0,0,0,0,0,0,0,0,0,0,0,0,0,0,0,0,0,0,0,0,0,0,0,0,0,0,0,0,0,0,0,0,0,0,0,0,0,0,0,0,0,0,0,0,0,0,0,0,0,0,0,0,0,0,0,0,0,
0,0,0,0,0,0,0,0,0,0,0,0,0,0,0,0,0,0,0,0,0,0,0,0,0,0,0,0,0,0,0,0,0,0,0,0,0,0,0,0,0,0,0,0,0,0,0,0,0,0,0,0,0,0,0,0,0,0,0,0,0,0,0,0,0,0,0,0,0,0,0,0,0,0,0,0,0,0,0,0,0,0,0,0,0,0,0,0,0,0,0,0,0,0,0,0,0,0,0,0,0,0,0,0,0,0,0,0,0,0,0,0,0,0,0,0,0,0,0,0,0,0,0,0,0,0,0,0,0,0,0,0,0,0,0,0,0,0,0,0,0,0,0,0,0,0,0,0,0,0,
0,0,0,0,0,0,0,0,0,0,0,0,0,0,0,0,0,0,0,0,0,0,0,0,0,0,0,0,0,0,0,0,0,0,0,0,0,0,0,0,0,0,0,0,0,0,0,0,0,0,0,0,0,0,0,0,0,0,0,0,0,0,0,0,0,0,0,0,0,0,0,0,0,0,0,0,0,0,0,0,0,0,0,0,0,0,0,0,0,0,0,0,0,0,0,0,0,0,0,0,0,0,0,0,0,0,0,0,0,0,0,0,0,0,0,0,0,0,0,0,0,0,0,0,0,0,0,0,0,0,0,0,0,0,0,0,0,0,0,0,0,0,0,0,0,0,0,0,0,0,
0,0,0,0,0,0,0,0,0,0,0,0,0,0,0,0,0,0,0,0,0,0,0,0,0,0,0,0,0,0,0,0,0,0,0,0,0,0,0,0,0,0,0,0,0,0,0,0,0,0,0,0,0,0,0,0,0,0,0,0,0,0,0,0,0,0,0,0,0,0,0,0,0,0,0,0,0,0,0,0,0,0,0,0,0,0,0,0,0,0,0,0,0,0,0,0,0,0,0,0,0,0,0,0,0,0,0,0,0,0,0,0,0,0,0,0,0,0,0,0,0,0,0,0,0,0,0,0,0,0,0,0,0,0,0,0,0,0,0,0,0,0,0,0,0,0,0,0,0,0,
0,0,0,0,0,0,0,0,0,0,0,0,0,0,0,0,0,0,0,0,0,0,0,0,0,0,0,0,0,0,0,0,0,0,0,0,0,0,0,0,0,0,0,0,0,0,0,0,0,0,0,0,0,0,0,0,0,0,0,0,0,0,0,0,0,0,0,0,0,0,0,0,0,0,0,0,0,0,0,0,0,0,0,0,0,0,0,0,0,0,0,0,0,0,0,0,0,0,0,0,0,0,0,0,0,0,0,0,0,0,0,0,0,0,0,0,0,0,0,0,0,0,0,0,0,0,0,0,0,0,0,0,0,0,0,0,0,0,0,0,0,0,0,0,0,0,0,0,0,0,
0,0,0,0,0,0,0,0,0,0,0,0,0,0,0,0,0,0,0,0,0,0,0,0,0,0,0,0,0,0,0,0,0,0,0,0,0,0,0,0,0,0,0,0,0,0,0,0,0,0,0,0,0,0,0,0,0,0,0,0,0,0,0,0,0,0,0,0,0,0,0,0,0,0,0,0,0,0,0,0,0,0,0,0,0,0,0,0,0,0,0,0,0,0,0,0,0,0,0,0,0,0,0,0,0,0,0,0,0,0,0,0,0,0,0,0,0,0,0,0,0,0,0,0,0,0,0,0,0,0,0,0,0,0,0,0,0,0,0,0,0,0,0,0,0,0,0,0,0,0,
0,0,0,0,0,0,0,0,0,0,0,0,0,0,0,0,0,0,0,0,0,0,0,0,0,0,0,0,0,0,0,0,0,0,0,0,0,0,0,0,0,0,0,0,0,0,0,0,0,0,0,0,0,0,0,0,0,0,0,0,0,0,0,0,0,0,0,0,0,0,0,0,0,0,0,0,0,0,0,0,0,0,0,0,0,0,0,0,0,0,0,0,0,0,0,0,0,0,0,0,0,0,0,0,0,0,0,0,0,0,0,0,0,0,0,0,0,0,0,0,0,0,0,0,0,0,0,0,0,0,0,0,0,0,0,0,0,0,0,0,0,0,0,0,0,0,0,0,0,0,
0,0,0,0,0,0,0,0,0,0,0,0,0,0,0,0,0,0,0,0,0,0,0,0,0,0,0,0,0,0,0,0,0,0,0,0,0,0,0,0,0,0,0,0,0,0,0,0,0,0,0,0,0,0,0,0,0,0,0,0,0,0,0,0,0,0,0,0,0,0,0,0,0,0,0,0,0,0,0,0,0,0,0,0,0,0,0,0,0,0,0,0,0,0,0,0,0,0,0,0,0,0,0,0,0,0,0,0,0,0,0,0,0,0,0,0,0,0,0,0,0,0,0,0,0,0,0,0,0,0,0,0,0,0,0,0,0,0,0,0,0,0,0,0,0,0,0,0,0,0,
0,0,0,0,0,0,0,0,0,0,0,0,0,0,0,0,0,0,0,0,0,0,0,0,0,0,0,0,0,0,0,0,0,0,0,0,0,0,0,0,0,0,0,0,0,0,0,0,0,0,0,0,0,0,0,0,0,0,0,0,0,0,0,0,0,0,0,0,0,0,0,0,0,0,0,0,0,0,0,0,0,0,0,0,0,0,0,0,0,0,0,0,0,0,0,0,0,0,0,0,0,0,0,0,0,0,0,0,0,0,0,0,0,0,0,0,0,0,0,0,0,0,0,0,0,0,0,0,0,0,0,0,0,0,0,0,0,0,0,0,0,0,0,0,0,0,0,0,0,0,
0,0,0,0,0,0,0,0,0,0,0,0,0,0,0,0,0,0,0,0,0,0,0,0,0,0,0,0,0,0,0,0,0,0,0,0,0,0,0,0,0,0,0,0,0,0,0,0,0,0,0,0,0,0,0,0,0,0,0,0,0,0,0,0,0,0,0,0,0,0,0,0,0,0,0,0,0,0,0,0,0,0,0,0,0,0,0,0,0,0,0,0,0,0,0,0,0,0,0,0,0,0,0,0,0,0,0,0,0,0,0,0,0,0,0,0,0,0,0,0,0,0,0,0,0,0,0,0,0,0,0,0,0,0,0,0,0,0,0,0,0,0,0,0,0,0,0,0,0,0,
0,0,0,0,0,0,0,0,0,0,0,0,0,0,0,0,0,0,0,0,0,0,0,0,0,0,0,0,0,0,0,0,0,0,0,0,0,0,0,0,0,0,0,0,0,0,0,0,0,0,0,0,0,0,0,0,0,0,0,0,0,0,0,0,0,0,0,0,0,0,0,0,0,0,0,0,0,0,0,0,0,0,0,0,0,0,0,0,0,0,0,0,0,0,0,0,0,0,0,0,0,0,0,0,0,0,0,0,0,0,0,0,0,0,0,0,0,0,0,0,0,0,0,0,0,0,0,0,0,0,0,0,0,0,0,0,0,0,0,0,0,0,0,0,0,0,0,0,0,0,
0,0,0,0,0,0,0,0,0,0,0,0,0,0,0,0,0,0,0,0,0,0,0,0,0,0,0,0,0,0,0,0,0,0,0,0,0,0,0,0,0,0,0,0,0,0,0,0,0,0,0,0,0,0,0,0,0,0,0,0,0,0,0,0,0,0,0,0,0,0,0,0,0,0,0,0,0,0,0,0,0,0,0,0,0,0,0,0,0,0,0,0,0,0,0,0,0,0,0,0,0,0,0,0,0,0,0,0,0,0,0,0,0,0,0,0,0,0,0,0,0,0,0,0,0,0,0,0,0,0,0,0,0,0,0,0,0,0,0,0,0,0,0,0,0,0,0,0,0,0,
0,0,0,0,0,0,0,0,0,0,0,0,0,0,0,0,0,0,0,0,0,0,0,0,0,0,0,0,0,0,0,0,0,0,0,0,0,0,0,0,0,0,0,0,0,0,0,0,0,0,0,0,0,0,0,0,0,0,0,0,0,0,0,0,0,0,0,0,0,0,0,0,0,0,0,0,0,0,0,0,0,0,0,0,0,0,0,0,0,0,0,0,0,0,0,0,0,0,0,0,0,0,0,0,0,0,0,0,0,0,0,0,0,0,0,0,0,0,0,0,0,0,0,0,0,0,0,0,0,0,0,0,0,0,0,0,0,0,0,0,0,0,0,0,0,0,0,0,0,0,
0,0,0,0,0,0,0,0,0,0,0,0,0,0,0,0,0,0,0,0,0,0,0,0,0,0,0,0,0,0,0,0,0,0,0,0,0,0,0,0,0,0,0,0,0,0,0,0,0,0,0,0,0,0,0,0,0,0,0,0,0,0,0,0,0,0,0,0,0,0,0,0,0,0,0,0,0,0,0,0,0,0,0,0,0,0,0,0,0,0,0,0,0,0,0,0,0,0,0,0,0,0,0,0,0,0,0,0,0,0,0,0,0,0,0,0,0,0,0,0,0,0,0,0,0,0,0,0,0,0,0,0,0,0,0,0,0,0,0,0,0,0,0,0,0,0,0,0,0,0,
0,0,0,0,0,0,0,0,0,0,0,0,0,0,0,0,0,0,0,0,0,0,0,0,0,0,0,0,0,0,0,0,0,0,0,0,0,0,0,0,0,0,0,0,0,0,0,0,0,0,0,0,0,0,0,0,0,0,0,0,0,0,0,0,0,0,0,0,0,0,0,0,0,0,0,0,0,0,0,0,0,0,0,0,0,0,0,0,0,0,0,0,0,0,0,0,0,0,0,0,0,0,0,0,0,0,0,0,0,0,0,0,0,0,0,0,0,0,0,0,0,0,0,0,0,0,0,0,0,0,0,0,0,0,0,0,0,0,0,0,0,0,0,0,0,0,0,0,0,0,
0,0,0,0,0,0,0,0,0,0,0,0,0,0,0,0,0,0,0,0,0,0,0,0,0,0,0,0,0,0,0,0,0,0,0,0,0,0,0,0,0,0,0,0,0,0,0,0,0,0,0,0,0,0,0,0,0,0,0,0,0,0,0,0,0,0,0,0,0,0,0,0,0,0,0,0,0,0,0,0,0,0,0,0,0,0,0,0,0,0,0,0,0,0,0,0,0,0,0,0,0,0,0,0,0,0,0,0,0,0,0,0,0,0,0,0,0,0,0,0,0,0,0,0,0,0,0,0,0,0,0,0,0,0,0,0,0,0,0,0,0,0,0,0,0,0,0,0,0,0,
0,0,0,0,0,0,0,0,0,0,0,0,0,0,0,0,0,0,0,0,0,0,0,0,0,0,0,0,0,0,0,0,0,0,0,0,0,0,0,0,0,0,0,0,0,0,0,0,0,0,0,0,0,0,0,0,0,0,0,0,0,0,0,0,0,0,0,0,0,0,0,0,0,0,0,0,0,0,0,0,0,0,0,0,0,0,0,0,0,0,0,0,0,0,0,0,0,0,0,0,0,0,0,0,0,0,0,0,0,0,0,0,0,0,0,0,0,0,0,0,0,0,0,0,0,0,0,0,0,0,0,0,0,0,0,0,0,0,0,0,0,0,0,0,0,0,0,0,0,0,
0,0,0,0,0,0,0,0,0,0,0,0,0,0,0,0,0,0,0,0,0,0,0,0,0,0,0,0,0,0,0,0,0,0,0,0,0,0,0,0,0,0,0,0,0,0,0,0,0,0,0,0,0,0,0,0,0,0,0,0,0,0,0,0,0,0,0,0,0,0,0,0,0,0,0,0,0,0,0,0,0,0,0,0,0,0,0,0,0,0,0,0,0,0,0,0,0,0,0,0,0,0,0,0,0,0,0,0,0,0,0,0,0,0,0,0,0,0,0,0,0,0,0,0,0,0,0,0,0,0,0,0,0,0,0,0,0,0,0,0,0,0,0,0,0,0,0,0,0,0,
0,0,0,0,0,0,0,0,0,0,0,0,0,0,0,0,0,0,0,0,0,0,0,0,0,0,0,0,0,0,0,0,0,0,0,0,0,0,0,0,0,0,0,0,0,0,0,0,0,0,0,0,0,0,0,0,0,0,0,0,0,0,0,0,0,0,0,0,0,0,0,0,0,0,0,0,0,0,0,0,0,0,0,0,0,0,0,0,0,0,0,0,0,0,0,0,0,0,0,0,0,0,0,0,0,0,0,0,0,0,0,0,0,0,0,0,0,0,0,0,0,0,0,0,0,0,0,0,0,0,0,0,0,0,0,0,0,0,0,0,0,0,0,0,0,0,0,0,0,0,
0,0,0,0,0,0,0,0,0,0,0,0,0,0,0,0,0,0,0,0,0,0,0,0,0,0,0,0,0,0,0,0,0,0,0,0,0,0,0,0,0,0,0,0,0,0,0,0,0,0,0,0,0,0,0,0,0,0,0,0,0,0,0,0,0,0,0,0,0,0,0,0,0,0,0,0,0,0,0,0,0,0,0,0,0,0,0,0,0,0,0,0,0,0,0,0,0,0,0,0,0,0,0,0,0,0,0,0,0,0,0,0,0,0,0,0,0,0,0,0,0,0,0,0,0,0,0,0,0,0,0,0,0,0,0,0,0,0,0,0,0,0,0,0,0,0,0,0,0,0,
0,0,0,0,0,0,0,0,0,0,0,0,0,0,0,0,0,0,0,0,0,0,0,0,0,0,0,0,0,0,0,0,0,0,0,0,0,0,0,0,0,0,0,0,0,0,0,0,0,0,0,0,0,0,0,0,0,0,0,0,0,0,0,0,0,0,0,0,0,0,0,0,0,0,0,0,0,0,0,0,0,0,0,0,0,0,0,0,0,0,0,0,0,0,0,0,0,0,0,0,0,0,0,0,0,0,0,0,0,0,0,0,0,0,0,0,0,0,0,0,0,0,0,0,0,0,0,0,0,0,0,0,0,0,0,0,0,0,0,0,0,0,0,0,0,0,0,0,0,0,
0,0,0,0,0,0,0,0,0,0,0,0,0,0,0,0,0,0,0,0,0,0,0,0,0,0,0,0,0,0,0,0,0,0,0,0,0,0,0,0,0,0,0,0,0,0,0,0,0,0,0,0,0,0,0,0,0,0,0,0,0,0,0,0,0,0,0,0,0,0,0,0,0,0,0,0,0,0,0,0,0,0,0,0,0,0,0,0,0,0,0,0,0,0,0,0,0,0,0,0,0,0,0,0,0,0,0,0,0,0,0,0,0,0,0,0,0,0,0,0,0,0,0,0,0,0,0,0,0,0,0,0,0,0,0,0,0,0,0,0,0,0,0,0,0,0,0,0,0,0,
0,0,0,0,0,0,0,0,0,0,0,0,0,0,0,0,0,0,0,0,0,0,0,0,0,0,0,0,0,0,0,0,0,0,0,0,0,0,0,0,0,0,0,0,0,0,0,0,0,0,0,0,0,0,0,0,0,0,0,0,0,0,0,0,0,0,0,0,0,0,0,0,0,0,0,0,0,0,0,0,0,0,0,0,0,0,0,0,0,0,0,0,0,0,0,0,0,0,0,0,0,0,0,0,0,0,0,0,0,0,0,0,0,0,0,0,0,0,0,0,0,0,0,0,0,0,0,0,0,0,0,0,0,0,0,0,0,0,0,0,0,0,0,0,0,0,0,0,0,0,
0,0,0,0,0,0,0,0,0,0,0,0,0,0,0,0,0,0,0,0,0,0,0,0,0,0,0,0,0,0,0,0,0,0,0,0,0,0,0,0,0,0,0,0,0,0,0,0,0,0,0,0,0,0,0,0,0,0,0,0,0,0,0,0,0,0,0,0,0,0,0,0,0,0,0,0,0,0,0,0,0,0,0,0,0,0,0,0,0,0,0,0,0,0,0,0,0,0,0,0,0,0,0,0,0,0,0,0,0,0,0,0,0,0,0,0,0,0,0,0,0,0,0,0,0,0,0,0,0,0,0,0,0,0,0,0,0,0,0,0,0,0,0,0,0,0,0,0,0,0,
0,0,0,0,0,0,0,0,0,0,0,0,0,0,0,0,0,0,0,0,0,0,0,0,0,0,0,0,0,0,0,0,0,0,0,0,0,0,0,0,0,0,0,0,0,0,0,0,0,0,0,0,0,0,0,0,0,0,0,0,0,0,0,0,0,0,0,0,0,0,0,0,0,0,0,0,0,0,0,0,0,0,0,0,0,0,0,0,0,0,0,0,0,0,0,0,0,0,0,0,0,0,0,0,0,0,0,0,0,0,0,0,0,0,0,0,0,0,0,0,0,0,0,0,0,0,0,0,0,0,0,0,0,0,0,0,0,0,0,0,0,0,0,0,0,0,0,0,0,0,
0,0,0,0,0,0,0,0,0,0,0,0,0,0,0,0,0,0,0,0,0,0,0,0,0,0,0,0,0,0,0,0,0,0,0,0,0,0,0,0,0,0,0,0,0,0,0,0,0,0,0,0,0,0,0,0,0,0,0,0,0,0,0,0,0,0,0,0,0,0,0,0,0,0,0,0,0,0,0,0,0,0,0,0,0,0,0,0,0,0,0,0,0,0,0,0,0,0,0,0,0,0,0,0,0,0,0,0,0,0,0,0,0,0,0,0,0,0,0,0,0,0,0,0,0,0,0,0,0,0,0,0,0,0,0,0,0,0,0,0,0,0,0,0,0,0,0,0,0,0,
0,0,0,0,0,0,0,0,0,0,0,0,0,0,0,0,0,0,0,0,0,0,0,0,0,0,0,0,0,0,0,0,0,0,0,0,0,0,0,0,0,0,0,0,0,0,0,0,0,0,0,0,0,0,0,0,0,0,0,0,0,0,0,0,0,0,0,0,0,0,0,0,0,0,0,0,0,0,0,0,0,0,0,0,0,0,0,0,0,0,0,0,0,0,0,0,0,0,0,0,0,0,0,0,0,0,0,0,0,0,0,0,0,0,0,0,0,0,0,0,0,0,0,0,0,0,0,0,0,0,0,0,0,0,0,0,0,0,0,0,0,0,0,0,0,0,0,0,0,0,
0,0,0,0,0,0,0,0,0,0,0,0,0,0,0,0,0,0,0,0,0,0,0,0,0,0,0,0,0,0,0,0,0,0,0,0,0,0,0,0,0,0,0,0,0,0,0,0,0,0,0,0,0,0,0,0,0,0,0,0,0,0,0,0,0,0,0,0,0,0,0,0,0,0,0,0,0,0,0,0,0,0,0,0,0,0,0,0,0,0,0,0,0,0,0,0,0,0,0,0,0,0,0,0,0,0,0,0,0,0,0,0,0,0,0,0,0,0,0,0,0,0,0,0,0,0,0,0,0,0,0,0,0,0,0,0,0,0,0,0,0,0,0,0,0,0,0,0,0,0,
0,0,0,0,0,0,0,0,0,0,0,0,0,0,0,0,0,0,0,0,0,0,0,0,0,0,0,0,0,0,0,0,0,0,0,0,0,0,0,0,0,0,0,0,0,0,0,0,0,0,0,0,0,0,0,0,0,0,0,0,0,0,0,0,0,0,0,0,0,0,0,0,0,0,0,0,0,0,0,0,0,0,0,0,0,0,0,0,0,0,0,0,0,0,0,0,0,0,0,0,0,0,0,0,0,0,0,0,0,0,0,0,0,0,0,0,0,0,0,0,0,0,0,0,0,0,0,0,0,0,0,0,0,0,0,0,0,0,0,0,0,0,0,0,0,0,0,0,0,0,
0,0,0,0,0,0,0,0,0,0,0,0,0,0,0,0,0,0,0,0,0,0,0,0,0,0,0,0,0,0,0,0,0,0,0,0,0,0,0,0,0,0,0,0,0,0,0,0,0,0,0,0,0,0,0,0,0,0,0,0,0,0,0,0,0,0,0,0,0,0,0,0,0,0,0,0,0,0,0,0,0,0,0,0,0,0,0,0,0,0,0,0,0,0,0,0,0,0,0,0,0,0,0,0,0,0,0,0,0,0,0,0,0,0,0,0,0,0,0,0,0,0,0,0,0,0,0,0,0,0,0,0,0,0,0,0,0,0,0,0,0,0,0,0,0,0,0,0,0,0,
0,0,0,0,0,0,0,0,0,0,0,0,0,0,0,0,0,0,0,0,0,0,0,0,0,0,0,0,0,0,0,0,0,0,0,0,0,0,0,0,0,0,0,0,0,0,0,0,0,0,0,0,0,0,0,0,0,0,0,0,0,0,0,0,0,0,0,0,0,0,0,0,0,0,0,0,0,0,0,0,0,0,0,0,0,0,0,0,0,0,0,0,0,0,0,0,0,0,0,0,0,0,0,0,0,0,0,0,0,0,0,0,0,0,0,0,0,0,0,0,0,0,0,0,0,0,0,0,0,0,0,0,0,0,0,0,0,0,0,0,0,0,0,0,0,0,0,0,0,0,
0,0,0,0,0,0,0,0,0,0,0,0,0,0,0,0,0,0,0,0,0,0,0,0,0,0,0,0,0,0,0,0,0,0,0,0,0,0,0,0,0,0,0,0,0,0,0,0,0,0,0,0,0,0,0,0,0,0,0,0,0,0,0,0,0,0,0,0,0,0,0,0,0,0,0,0,0,0,0,0,0,0,0,0,0,0,0,0,0,0,0,0,0,0,0,0,0,0,0,0,0,0,0,0,0,0,0,0,0,0,0,0,0,0,0,0,0,0,0,0,0,0,0,0,0,0,0,0,0,0,0,0,0,0,0,0,0,0,0,0,0,0,0,0,0,0,0,0,0,0,
0,0,0,0,0,0,0,0,0,0,0,0,0,0,0,0,0,0,0,0,0,0,0,0,0,0,0,0,0,0,0,0,0,0,0,0,0,0,0,0,0,0,0,0,0,0,0,0,0,0,0,0,0,0,0,0,0,0,0,0,0,0,0,0,0,0,0,0,0,0,0,0,0,0,0,0,0,0,0,0,0,0,0,0,0,0,0,0,0,0,0,0,0,0,0,0,0,0,0,0,0,0,0,0,0,0,0,0,0,0,0,0,0,0,0,0,0,0,0,0,0,0,0,0,0,0,0,0,0,0,0,0,0,0,0,0,0,0,0,0,0,0,0,0,0,0,0,0,0,0,
0,0,0,0,0,0,0,0,0,0,0,0,0,0,0,0,0,0,0,0,0,0,0,0,0,0,0,0,0,0,0,0,0,0,0,0,0,0,0,0,0,0,0,0,0,0,0,0,0,0,0,0,0,0,0,0,0,0,0,0,0,0,0,0,0,0,0,0,0,0,0,0,0,0,0,0,0,0,0,0,0,0,0,0,0,0,0,0,0,0,0,0,0,0,0,0,0,0,0,0,0,0,0,0,0,0,0,0,0,0,0,0,0,0,0,0,0,0,0,0,0,0,0,0,0,0,0,0,0,0,0,0,0,0,0,0,0,0,0,0,0,0,0,0,0,0,0,0,0,0,
0,0,0,0,0,0,0,0,0,0,0,0,0,0,0,0,0,0,0,0,0,0,0,0,0,0,0,0,0,0,0,0,0,0,0,0,0,0,0,0,0,0,0,0,0,0,0,0,0,0,0,0,0,0,0,0,0,0,0,0,0,0,0,0,0,0,0,0,0,0,0,0,0,0,0,0,0,0,0,0,0,0,0,0,0,0,0,0,0,0,0,0,0,0,0,0,0,0,0,0,0,0,0,0,0,0,0,0,0,0,0,0,0,0,0,0,0,0,0,0,0,0,0,0,0,0,0,0,0,0,0,0,0,0,0,0,0,0,0,0,0,0,0,0,0,0,0,0,0,0,
0,0,0,0,0,0,0,0,0,0,0,0,0,0,0,0,0,0,0,0,0,0,0,0,0,0,0,0,0,0,0,0,0,0,0,0,0,0,0,0,0,0,0,0,0,0,0,0,0,0,0,0,0,0,0,0,0,0,0,0,0,0,0,0,0,0,0,0,0,0,0,0,0,0,0,0,0,0,0,0,0,0,0,0,0,0,0,0,0,0,0,0,0,0,0,0,0,0,0,0,0,0,0,0,0,0,0,0,0,0,0,0,0,0,0,0,0,0,0,0,0,0,0,0,0,0,0,0,0,0,0,0,0,0,0,0,0,0,0,0,0,0,0,0,0,0,0,0,0,0,
0,0,0,0,0,0,0,0,0,0,0,0,0,0,0,0,0,0,0,0,0,0,0,0,0,0,0,0,0,0,0,0,0,0,0,0,0,0,0,0,0,0,0,0,0,0,0,0,0,0,0,0,0,0,0,0,0,0,0,0,0,0,0,0,0,0,0,0,0,0,0,0,0,0,0,0,0,0,0,0,0,0,0,0,0,0,0,0,0,0,0,0,0,0,0,0,0,0,0,0,0,0,0,0,0,0,0,0,0,0,0,0,0,0,0,0,0,0,0,0,0,0,0,0,0,0,0,0,0,0,0,0,0,0,0,0,0,0,0,0,0,0,0,0,0,0,0,0,0,0,
0,0,0,0,0,0,0,0,0,0,0,0,0,0,0,0,0,0,0,0,0,0,0,0,0,0,0,0,0,0,0,0,0,0,0,0,0,0,0,0,0,0,0,0,0,0,0,0,0,0,0,0,0,0,0,0,0,0,0,0,0,0,0,0,0,0,0,0,0,0,0,0,0,0,0,0,0,0,0,0,0,0,0,0,0,0,0,0,0,0,0,0,0,0,0,0,0,0,0,0,0,0,0,0,0,0,0,0,0,0,0,0,0,0,0,0,0,0,0,0,0,0,0,0,0,0,0,0,0,0,0,0,0,0,0,0,0,0,0,0,0,0,0,0,0,0,0,0,0,0,
0,0,0,0,0,0,0,0,0,0,0,0,0,0,0,0,0,0,0,0,0,0,0,0,0,0,0,0,0,0,0,0,0,0,0,0,0,0,0,0,0,0,0,0,0,0,0,0,0,0,0,0,0,0,0,0,0,0,0,0,0,0,0,0,0,0,0,0,0,0,0,0,0,0,0,0,0,0,0,0,0,0,0,0,0,0,0,0,0,0,0,0,0,0,0,0,0,0,0,0,0,0,0,0,0,0,0,0,0,0,0,0,0,0,0,0,0,0,0,0,0,0,0,0,0,0,0,0,0,0,0,0,0,0,0,0,0,0,0,0,0,0,0,0,0,0,0,0,0,0,
0,0,0,0,0,0,0,0,0,0,0,0,0,0,0,0,0,0,0,0,0,0,0,0,0,0,0,0,0,0,0,0,0,0,0,0,0,0,0,0,0,0,0,0,0,0,0,0,0,0,0,0,0,0,0,0,0,0,0,0,0,0,0,0,0,0,0,0,0,0,0,0,0,0,0,0,0,0,0,0,0,0,0,0,0,0,0,0,0,0,0,0,0,0,0,0,0,0,0,0,0,0,0,0,0,0,0,0,0,0,0,0,0,0,0,0,0,0,0,0,0,0,0,0,0,0,0,0,0,0,0,0,0,0,0,0,0,0,0,0,0,0,0,0,0,0,0,0,0,0,
0,0,0,0,0,0,0,0,0,0,0,0,0,0,0,0,0,0,0,0,0,0,0,0,0,0,0,0,0,0,0,0,0,0,0,0,0,0,0,0,0,0,0,0,0,0,0,0,0,0,0,0,0,0,0,0,0,0,0,0,0,0,0,0,0,0,0,0,0,0,0,0,0,0,0,0,0,0,0,0,0,0,0,0,0,0,0,0,0,0,0,0,0,0,0,0,0,0,0,0,0,0,0,0,0,0,0,0,0,0,0,0,0,0,0,0,0,0,0,0,0,0,0,0,0,0,0,0,0,0,0,0,0,0,0,0,0,0,0,0,0,0,0,0,0,0,0,0,0,0,
0,0,0,0,0,0,0,0,0,0,0,0,0,0,0,0,0,0,0,0,0,0,0,0,0,0,0,0,0,0,0,0,0,0,0,0,0,0,0,0,0,0,0,0,0,0,0,0,0,0,0,0,0,0,0,0,0,0,0,0,0,0,0,0,0,0,0,0,0,0,0,0,0,0,0,0,0,0,0,0,0,0,0,0,0,0,0,0,0,0,0,0,0,0,0,0,0,0,0,0,0,0,0,0,0,0,0,0,0,0,0,0,0,0,0,0,0,0,0,0,0,0,0,0,0,0,0,0,0,0,0,0,0,0,0,0,0,0,0,0,0,0,0,0,0,0,0,0,0,0,
0,0,0,0,0,0,0,0,0,0,0,0,0,0,0,0,0,0,0,0,0,0,0,0,0,0,0,0,0,0,0,0,0,0,0,0,0,0,0,0,0,0,0,0,0,0,0,0,0,0,0,0,0,0,0,0,0,0,0,0,0,0,0,0,0,0,0,0,0,0,0,0,0,0,0,0,0,0,0,0,0,0,0,0,0,0,0,0,0,0,0,0,0,0,0,0,0,0,0,0,0,0,0,0,0,0,0,0,0,0,0,0,0,0,0,0,0,0,0,0,0,0,0,0,0,0,0,0,0,0,0,0,0,0,0,0,0,0,0,0,0,0,0,0,0,0,0,0,0,0,
0,0,0,0,0,0,0,0,0,0,0,0,0,0,0,0,0,0,0,0,0,0,0,0,0,0,0,0,0,0,0,0,0,0,0,0,0,0,0,0,0,0,0,0,0,0,0,0,0,0,0,0,0,0,0,0,0,0,0,0,0,0,0,0,0,0,0,0,0,0,0,0,0,0,0,0,0,0,0,0,0,0,0,0,0,0,0,0,0,0,0,0,0,0,0,0,0,0,0,0,0,0,0,0,0,0,0,0,0,0,0,0,0,0,0,0,0,0,0,0,0,0,0,0,0,0,0,0,0,0,0,0,0,0,0,0,0,0,0,0,0,0,0,0,0,0,0,0,0,0,
0,0,0,0,0,0,0,0,0,0,0,0,0,0,0,0,0,0,0,0,0,0,0,0,0,0,0,0,0,0,0,0,0,0,0,0,0,0,0,0,0,0,0,0,0,0,0,0,0,0,0,0,0,0,0,0,0,0,0,0,0,0,0,0,0,0,0,0,0,0,0,0,0,0,0,0,0,0,0,0,0,0,0,0,0,0,0,0,0,0,0,0,0,0,0,0,0,0,0,0,0,0,0,0,0,0,0,0,0,0,0,0,0,0,0,0,0,0,0,0,0,0,0,0,0,0,0,0,0,0,0,0,0,0,0,0,0,0,0,0,0,0,0,0,0,0,0,0,0,0,
0,0,0,0,0,0,0,0,0,0,0,0,0,0,0,0,0,0,0,0,0,0,0,0,0,0,0,0,0,0,0,0,0,0,0,0,0,0,0,0,0,0,0,0,0,0,0,0,0,0,0,0,0,0,0,0,0,0,0,0,0,0,0,0,0,0,0,0,0,0,0,0,0,0,0,0,0,0,0,0,0,0,0,0,0,0,0,0,0,0,0,0,0,0,0,0,0,0,0,0,0,0,0,0,0,0,0,0,0,0,0,0,0,0,0,0,0,0,0,0,0,0,0,0,0,0,0,0,0,0,0,0,0,0,0,0,0,0,0,0,0,0,0,0,0,0,0,0,0,0,
0,0,0,0,0,0,0,0,0,0,0,0,0,0,0,0,0,0,0,0,0,0,0,0,0,0,0,0,0,0,0,0,0,0,0,0,0,0,0,0,0,0,0,0,0,0,0,0,0,0,0,0,0,0,0,0,0,0,0,0,0,0,0,0,0,0,0,0,0,0,0,0,0,0,0,0,0,0,0,0,0,0,0,0,0,0,0,0,0,0,0,0,0,0,0,0,0,0,0,0,0,0,0,0,0,0,0,0,0,0,0,0,0,0,0,0,0,0,0,0,0,0,0,0,0,0,0,0,0,0,0,0,0,0,0,0,0,0,0,0,0,0,0,0,0,0,0,0,0,0,
0,0,0,0,0,0,0,0,0,0,0,0,0,0,0,0,0,0,0,0,0,0,0,0,0,0,0,0,0,0,0,0,0,0,0,0,0,0,0,0,0,0,0,0,0,0,0,0,0,0,0,0,0,0,0,0,0,0,0,0,0,0,0,0,0,0,0,0,0,0,0,0,0,0,0,0,0,0,0,0,0,0,0,0,0,0,0,0,0,0,0,0,0,0,0,0,0,0,0,0,0,0,0,0,0,0,0,0,0,0,0,0,0,0,0,0,0,0,0,0,0,0,0,0,0,0,0,0,0,0,0,0,0,0,0,0,0,0,0,0,0,0,0,0,0,0,0,0,0,0,
0,0,0,0,0,0,0,0,0,0,0,0,0,0,0,0,0,0,0,0,0,0,0,0,0,0,0,0,0,0,0,0,0,0,0,0,0,0,0,0,0,0,0,0,0,0,0,0,0,0,0,0,0,0,0,0,0,0,0,0,0,0,0,0,0,0,0,0,0,0,0,0,0,0,0,0,0,0,0,0,0,0,0,0,0,0,0,0,0,0,0,0,0,0,0,0,0,0,0,0,0,0,0,0,0,0,0,0,0,0,0,0,0,0,0,0,0,0,0,0,0,0,0,0,0,0,0,0,0,0,0,0,0,0,0,0,0,0,0,0,0,0,0,0,0,0,0,0,0,0,
0,0,0,0,0,0,0,0,0,0,0,0,0,0,0,0,0,0,0,0,0,0,0,0,0,0,0,0,0,0,0,0,0,0,0,0,0,0,0,0,0,0,0,0,0,0,0,0,0,0,0,0,0,0,0,0,0,0,0,0,0,0,0,0,0,0,0,0,0,0,0,0,0,0,0,0,0,0,0,0,0,0,0,0,0,0,0,0,0,0,0,0,0,0,0,0,0,0,0,0,0,0,0,0,0,0,0,0,0,0,0,0,0,0,0,0,0,0,0,0,0,0,0,0,0,0,0,0,0,0,0,0,0,0,0,0,0,0,0,0,0,0,0,0,0,0,0,0,0,0,
0,0,0,0,0,0,0,0,0,0,0,0,0,0,0,0,0,0,0,0,0,0,0,0,0,0,0,0,0,0,0,0,0,0,0,0,0,0,0,0,0,0,0,0,0,0,0,0,0,0,0,0,0,0,0,0,0,0,0,0,0,0,0,0,0,0,0,0,0,0,0,0,0,0,0,0,0,0,0,0,0,0,0,0,0,0,0,0,0,0,0,0,0,0,0,0,0,0,0,0,0,0,0,0,0,0,0,0,0,0,0,0,0,0,0,0,0,0,0,0,0,0,0,0,0,0,0,0,0,0,0,0,0,0,0,0,0,0,0,0,0,0,0,0,0,0,0,0,0,0,
0,0,0,0,0,0,0,0,0,0,0,0,0,0,0,0,0,0,0,0,0,0,0,0,0,0,0,0,0,0,0,0,0,0,0,0,0,0,0,0,0,0,0,0,0,0,0,0,0,0,0,0,0,0,0,0,0,0,0,0,0,0,0,0,0,0,0,0,0,0,0,0,0,0,0,0,0,0,0,0,0,0,0,0,0,0,0,0,0,0,0,0,0,0,0,0,0,0,0,0,0,0,0,0,0,0,0,0,0,0,0,0,0,0,0,0,0,0,0,0,0,0,0,0,0,0,0,0,0,0,0,0,0,0,0,0,0,0,0,0,0,0,0,0,0,0,0,0,0,0,
0,0,0,0,0,0,0,0,0,0,0,0,0,0,0,0,0,0,0,0,0,0,0,0,0,0,0,0,0,0,0,0,0,0,0,0,0,0,0,0,0,0,0,0,0,0,0,0,0,0,0,0,0,0,0,0,0,0,0,0,0,0,0,0,0,0,0,0,0,0,0,0,0,0,0,0,0,0,0,0,0,0,0,0,0,0,0,0,0,0,0,0,0,0,0,0,0,0,0,0,0,0,0,0,0,0,0,0,0,0,0,0,0,0,0,0,0,0,0,0,0,0,0,0,0,0,0,0,0,0,0,0,0,0,0,0,0,0,0,0,0,0,0,0,0,0,0,0,0,0,
0,0,0,0,0,0,0,0,0,0,0,0,0,0,0,0,0,0,0,0,0,0,0,0,0,0,0,0,0,0,0,0,0,0,0,0,0,0,0,0,0,0,0,0,0,0,0,0,0,0,0,0,0,0,0,0,0,0,0,0,0,0,0,0,0,0,0,0,0,0,0,0,0,0,0,0,0,0,0,0,0,0,0,0,0,0,0,0,0,0,0,0,0,0,0,0,0,0,0,0,0,0,0,0,0,0,0,0,0,0,0,0,0,0,0,0,0,0,0,0,0,0,0,0,0,0,0,0,0,0,0,0,0,0,0,0,0,0,0,0,0,0,0,0,0,0,0,0,0,0,
0,0,0,0,0,0,0,0,0,0,0,0,0,0,0,0,0,0,0,0,0,0,0,0,0,0,0,0,0,0,0,0,0,0,0,0,0,0,0,0,0,0,0,0,0,0,0,0,0,0,0,0,0,0,0,0,0,0,0,0,0,0,0,0,0,0,0,0,0,0,0,0,0,0,0,0,0,0,0,0,0,0,0,0,0,0,0,0,0,0,0,0,0,0,0,0,0,0,0,0,0,0,0,0,0,0,0,0,0,0,0,0,0,0,0,0,0,0,0,0,0,0,0,0,0,0,0,0,0,0,0,0,0,0,0,0,0,0,0,0,0,0,0,0,0,0,0,0,0,0,
0,0,0,0,0,0,0,0,0,0,0,0,0,0,0,0,0,0,0,0,0,0,0,0,0,0,0,0,0,0,0,0,0,0,0,0,0,0,0,0,0,0,0,0,0,0,0,0,0,0,0,0,0,0,0,0,0,0,0,0,0,0,0,0,0,0,0,0,0,0,0,0,0,0,0,0,0,0,0,0,0,0,0,0,0,0,0,0,0,0,0,0,0,0,0,0,0,0,0,0,0,0,0,0,0,0,0,0,0,0,0,0,0,0,0,0,0,0,0,0,0,0,0,0,0,0,0,0,0,0,0,0,0,0,0,0,0,0,0,0,0,0,0,0,0,0,0,0,0,0,
0,0,0,0,0,0,0,0,0,0,0,0,0,0,0,0,0,0,0,0,0,0,0,0,0,0,0,0,0,0,0,0,0,0,0,0,0,0,0,0,0,0,0,0,0,0,0,0,0,0,0,0,0,0,0,0,0,0,0,0,0,0,0,0,0,0,0,0,0,0,0,0,0,0,0,0,0,0,0,0,0,0,0,0,0,0,0,0,0,0,0,0,0,0,0,0,0,0,0,0,0,0,0,0,0,0,0,0,0,0,0,0,0,0,0,0,0,0,0,0,0,0,0,0,0,0,0,0,0,0,0,0,0,0,0,0,0,0,0,0,0,0,0,0,0,0,0,0,0,0,
0,0,0,0,0,0,0,0,0,0,0,0,0,0,0,0,0,0,0,0,0,0,0,0,0,0,0,0,0,0,0,0,0,0,0,0,0,0,0,0,0,0,0,0,0,0,0,0,0,0,0,0,0,0,0,0,0,0,0,0,0,0,0,0,0,0,0,0,0,0,0,0,0,0,0,0,0,0,0,0,0,0,0,0,0,0,0,0,0,0,0,0,0,0,0,0,0,0,0,0,0,0,0,0,0,0,0,0,0,0,0,0,0,0,0,0,0,0,0,0,0,0,0,0,0,0,0,0,0,0,0,0,0,0,0,0,0,0,0,0,0,0,0,0,0,0,0,0,0,0,
0,0,0,0,0,0,0,0,0,0,0,0,0,0,0,0,0,0,0,0,0,0,0,0,0,0,0,0,0,0,0,0,0,0,0,0,0,0,0,0,0,0,0,0,0,0,0,0,0,0,0,0,0,0,0,0,0,0,0,0,0,0,0,0,0,0,0,0,0,0,0,0,0,0,0,0,0,0,0,0,0,0,0,0,0,0,0,0,0,0,0,0,0,0,0,0,0,0,0,0,0,0,0,0,0,0,0,0,0,0,0,0,0,0,0,0,0,0,0,0,0,0,0,0,0,0,0,0,0,0,0,0,0,0,0,0,0,0,0,0,0,0,0,0,0,0,0,0,0,0,
0,0,0,0,0,0,0,0,0,0,0,0,0,0,0,0,0,0,0,0,0,0,0,0,0,0,0,0,0,0,0,0,0,0,0,0,0,0,0,0,0,0,0,0,0,0,0,0,0,0,0,0,0,0,0,0,0,0,0,0,0,0,0,0,0,0,0,0,0,0,0,0,0,0,0,0,0,0,0,0,0,0,0,0,0,0,0,0,0,0,0,0,0,0,0,0,0,0,0,0,0,0,0,0,0,0,0,0,0,0,0,0,0,0,0,0,0,0,0,0,0,0,0,0,0,0,0,0,0,0,0,0,0,0,0,0,0,0,0,0,0,0,0,0,0,0,0,0,0,0,
0,0,0,0,0,0,0,0,0,0,0,0,0,0,0,0,0,0,0,0,0,0,0,0,0,0,0,0,0,0,0,0,0,0,0,0,0,0,0,0,0,0,0,0,0,0,0,0,0,0,0,0,0,0,0,0,0,0,0,0,0,0,0,0,0,0,0,0,0,0,0,0,0,0,0,0,0,0,0,0,0,0,0,0,0,0,0,0,0,0,0,0,0,0,0,0,0,0,0,0,0,0,0,0,0,0,0,0,0,0,0,0,0,0,0,0,0,0,0,0,0,0,0,0,0,0,0,0,0,0,0,0,0,0,0,0,0,0,0,0,0,0,0,0,0,0,0,0,0,0,
0,0,0,0,0,0,0,0,0,0,0,0,0,0,0,0,0,0,0,0,0,0,0,0,0,0,0,0,0,0,0,0,0,0,0,0,0,0,0,0,0,0,0,0,0,0,0,0,0,0,0,0,0,0,0,0,0,0,0,0,0,0,0,0,0,0,0,0,0,0,0,0,0,0,0,0,0,0,0,0,0,0,0,0,0,0,0,0,0,0,0,0,0,0,0,0,0,0,0,0,0,0,0,0,0,0,0,0,0,0,0,0,0,0,0,0,0,0,0,0,0,0,0,0,0,0,0,0,0,0,0,0,0,0,0,0,0,0,0,0,0,0,0,0,0,0,0,0,0,0,
0,0,0,0,0,0,0,0,0,0,0,0,0,0,0,0,0,0,0,0,0,0,0,0,0,0,0,0,0,0,0,0,0,0,0,0,0,0,0,0,0,0,0,0,0,0,0,0,0,0,0,0,0,0,0,0,0,0,0,0,0,0,0,0,0,0,0,0,0,0,0,0,0,0,0,0,0,0,0,0,0,0,0,0,0,0,0,0,0,0,0,0,0,0,0,0,0,0,0,0,0,0,0,0,0,0,0,0,0,0,0,0,0,0,0,0,0,0,0,0,0,0,0,0,0,0,0,0,0,0,0,0,0,0,0,0,0,0,0,0,0,0,0,0,0,0,0,0,0,0,
0,0,0,0,0,0,0,0,0,0,0,0,0,0,0,0,0,0,0,0,0,0,0,0,0,0,0,0,0,0,0,0,0,0,0,0,0,0,0,0,0,0,0,0,0,0,0,0,0,0,0,0,0,0,0,0,0,0,0,0,0,0,0,0,0,0,0,0,0,0,0,0,0,0,0,0,0,0,0,0,0,0,0,0,0,0,0,0,0,0,0,0,0,0,0,0,0,0,0,0,0,0,0,0,0,0,0,0,0,0,0,0,0,0,0,0,0,0,0,0,0,0,0,0,0,0,0,0,0,0,0,0,0,0,0,0,0,0,0,0,0,0,0,0,0,0,0,0,0,0,
0,0,0,0,0,0,0,0,0,0,0,0,0,0,0,0,0,0,0,0,0,0,0,0,0,0,0,0,0,0,0,0,0,0,0,0,0,0,0,0,0,0,0,0,0,0,0,0,0,0,0,0,0,0,0,0,0,0,0,0,0,0,0,0,0,0,0,0,0,0,0,0,0,0,0,0,0,0,0,0,0,0,0,0,0,0,0,0,0,0,0,0,0,0,0,0,0,0,0,0,0,0,0,0,0,0,0,0,0,0,0,0,0,0,0,0,0,0,0,0,0,0,0,0,0,0,0,0,0,0,0,0,0,0,0,0,0,0,0,0,0,0,0,0,0,0,0,0,0,0,
0,0,0,0,0,0,0,0,0,0,0,0,0,0,0,0,0,0,0,0,0,0,0,0,0,0,0,0,0,0,0,0,0,0,0,0,0,0,0,0,0,0,0,0,0,0,0,0,0,0,0,0,0,0,0,0,0,0,0,0,0,0,0,0,0,0,0,0,0,0,0,0,0,0,0,0,0,0,0,0,0,0,0,0,0,0,0,0,0,0,0,0,0,0,0,0,0,0,0,0,0,0,0,0,0,0,0,0,0,0,0,0,0,0,0,0,0,0,0,0,0,0,0,0,0,0,0,0,0,0,0,0,0,0,0,0,0,0,0,0,0,0,0,0,0,0,0,0,0,0,
0,0,0,0,0,0,0,0,0,0,0,0,0,0,0,0,0,0,0,0,0,0,0,0,0,0,0,0,0,0,0,0,0,0,0,0,0,0,0,0,0,0,0,0,0,0,0,0,0,0,0,0,0,0,0,0,0,0,0,0,0,0,0,0,0,0,0,0,0,0,0,0,0,0,0,0,0,0,0,0,0,0,0,0,0,0,0,0,0,0,0,0,0,0,0,0,0,0,0,0,0,0,0,0,0,0,0,0,0,0,0,0,0,0,0,0,0,0,0,0,0,0,0,0,0,0,0,0,0,0,0,0,0,0,0,0,0,0,0,0,0,0,0,0,0,0,0,0,0,0,
0,0,0,0,0,0,0,0,0,0,0,0,0,0,0,0,0,0,0,0,0,0,0,0,0,0,0,0,0,0,0,0,0,0,0,0,0,0,0,0,0,0,0,0,0,0,0,0,0,0,0,0,0,0,0,0,0,0,0,0,0,0,0,0,0,0,0,0,0,0,0,0,0,0,0,0,0,0,0,0,0,0,0,0,0,0,0,0,0,0,0,0,0,0,0,0,0,0,0,0,0,0,0,0,0,0,0,0,0,0,0,0,0,0,0,0,0,0,0,0,0,0,0,0,0,0,0,0,0,0,0,0,0,0,0,0,0,0,0,0,0,0,0,0,0,0,0,0,0,0,
0,0,0,0,0,0,0,0,0,0,0,0,0,0,0,0,0,0,0,0,0,0,0,0,0,0,0,0,0,0,0,0,0,0,0,0,0,0,0,0,0,0,0,0,0,0,0,0,0,0,0,0,0,0,0,0,0,0,0,0,0,0,0,0,0,0,0,0,0,0,0,0,0,0,0,0,0,0,0,0,0,0,0,0,0,0,0,0,0,0,0,0,0,0,0,0,0,0,0,0,0,0,0,0,0,0,0,0,0,0,0,0,0,0,0,0,0,0,0,0,0,0,0,0,0,0,0,0,0,0,0,0,0,0,0,0,0,0,0,0,0,0,0,0,0,0,0,0,0,0,
0,0,0,0,0,0,0,0,0,0,0,0,0,0,0,0,0,0,0,0,0,0,0,0,0,0,0,0,0,0,0,0,0,0,0,0,0,0,0,0,0,0,0,0,0,0,0,0,0,0,0,0,0,0,0,0,0,0,0,0,0,0,0,0,0,0,0,0,0,0,0,0,0,0,0,0,0,0,0,0,0,0,0,0,0,0,0,0,0,0,0,0,0,0,0,0,0,0,0,0,0,0,0,0,0,0,0,0,0,0,0,0,0,0,0,0,0,0,0,0,0,0,0,0,0,0,0,0,0,0,0,0,0,0,0,0,0,0,0,0,0,0,0,0,0,0,0,0,0,0,
0,0,0,0,0,0,0,0,0,0,0,0,0,0,0,0,0,0,0,0,0,0,0,0,0,0,0,0,0,0,0,0,0,0,0,0,0,0,0,0,0,0,0,0,0,0,0,0,0,0,0,0,0,0,0,0,0,0,0,0,0,0,0,0,0,0,0,0,0,0,0,0,0,0,0,0,0,0,0,0,0,0,0,0,0,0,0,0,0,0,0,0,0,0,0,0,0,0,0,0,0,0,0,0,0,0,0,0,0,0,0,0,0,0,0,0,0,0,0,0,0,0,0,0,0,0,0,0,0,0,0,0,0,0,0,0,0,0,0,0,0,0,0,0,0,0,0,0,0,0,
0,0,0,0,0,0,0,0,0,0,0,0,0,0,0,0,0,0,0,0,0,0,0,0,0,0,0,0,0,0,0,0,0,0,0,0,0,0,0,0,0,0,0,0,0,0,0,0,0,0,0,0,0,0,0,0,0,0,0,0,0,0,0,0,0,0,0,0,0,0,0,0,0,0,0,0,0,0,0,0,0,0,0,0,0,0,0,0,0,0,0,0,0,0,0,0,0,0,0,0,0,0,0,0,0,0,0,0,0,0,0,0,0,0,0,0,0,0,0,0,0,0,0,0,0,0,0,0,0,0,0,0,0,0,0,0,0,0,0,0,0,0,0,0,0,0,0,0,0,0,
0,0,0,0,0,0,0,0,0,0,0,0,0,0,0,0,0,0,0,0,0,0,0,0,0,0,0,0,0,0,0,0,0,0,0,0,0,0,0,0,0,0,0,0,0,0,0,0,0,0,0,0,0,0,0,0,0,0,0,0,0,0,0,0,0,0,0,0,0,0,0,0,0,0,0,0,0,0,0,0,0,0,0,0,0,0,0,0,0,0,0,0,0,0,0,0,0,0,0,0,0,0,0,0,0,0,0,0,0,0,0,0,0,0,0,0,0,0,0,0,0,0,0,0,0,0,0,0,0,0,0,0,0,0,0,0,0,0,0,0,0,0,0,0,0,0,0,0,0,0,
0,0,0,0,0,0,0,0,0,0,0,0,0,0,0,0,0,0,0,0,0,0,0,0,0,0,0,0,0,0,0,0,0,0,0,0,0,0,0,0,0,0,0,0,0,0,0,0,0,0,0,0,0,0,0,0,0,0,0,0,0,0,0,0,0,0,0,0,0,0,0,0,0,0,0,0,0,0,0,0,0,0,0,0,0,0,0,0,0,0,0,0,0,0,0,0,0,0,0,0,0,0,0,0,0,0,0,0,0,0,0,0,0,0,0,0,0,0,0,0,0,0,0,0,0,0,0,0,0,0,0,0,0,0,0,0,0,0,0,0,0,0,0,0,0,0,0,0,0,0,
0,0,0,0,0,0,0,0,0,0,0,0,0,0,0,0,0,0,0,0,0,0,0,0,0,0,0,0,0,0,0,0,0,0,0,0,0,0,0,0,0,0,0,0,0,0,0,0,0,0,0,0,0,0,0,0,0,0,0,0,0,0,0,0,0,0,0,0,0,0,0,0,0,0,0,0,0,0,0,0,0,0,0,0,0,0,0,0,0,0,0,0,0,0,0,0,0,0,0,0,0,0,0,0,0,0,0,0,0,0,0,0,0,0,0,0,0,0,0,0,0,0,0,0,0,0,0,0,0,0,0,0,0,0,0,0,0,0,0,0,0,0,0,0,0,0,0,0,0,0,
0,0,0,0,0,0,0,0,0,0,0,0,0,0,0,0,0,0,0,0,0,0,0,0,0,0,0,0,0,0,0,0,0,0,0,0,0,0,0,0,0,0,0,0,0,0,0,0,0,0,0,0,0,0,0,0,0,0,0,0,0,0,0,0,0,0,0,0,0,0,0,0,0,0,0,0,0,0,0,0,0,0,0,0,0,0,0,0,0,0,0,0,0,0,0,0,0,0,0,0,0,0,0,0,0,0,0,0,0,0,0,0,0,0,0,0,0,0,0,0,0,0,0,0,0,0,0,0,0,0,0,0,0,0,0,0,0,0,0,0,0,0,0,0,0,0,0,0,0,0,
0,0,0,0,0,0,0,0,0,0,0,0,0,0,0,0,0,0,0,0,0,0,0,0,0,0,0,0,0,0,0,0,0,0,0,0,0,0,0,0,0,0,0,0,0,0,0,0,0,0,0,0,0,0,0,0,0,0,0,0,0,0,0,0,0,0,0,0,0,0,0,0,0,0,0,0,0,0,0,0,0,0,0,0,0,0,0,0,0,0,0,0,0,0,0,0,0,0,0,0,0,0,0,0,0,0,0,0,0,0,0,0,0,0,0,0,0,0,0,0,0,0,0,0,0,0,0,0,0,0,0,0,0,0,0,0,0,0,0,0,0,0,0,0,0,0,0,0,0,0,
0,0,0,0,0,0,0,0,0,0,0,0,0,0,0,0,0,0,0,0,0,0,0,0,0,0,0,0,0,0,0,0,0,0,0,0,0,0,0,0,0,0,0,0,0,0,0,0,0,0,0,0,0,0,0,0,0,0,0,0,0,0,0,0,0,0,0,0,0,0,0,0,0,0,0,0,0,0,0,0,0,0,0,0,0,0,0,0,0,0,0,0,0,0,0,0,0,0,0,0,0,0,0,0,0,0,0,0,0,0,0,0,0,0,0,0,0,0,0,0,0,0,0,0,0,0,0,0,0,0,0,0,0,0,0,0,0,0,0,0,0,0,0,0,0,0,0,0,0,0,
0,0,0,0,0,0,0,0,0,0,0,0,0,0,0,0,0,0,0,0,0,0,0,0,0,0,0,0,0,0,0,0,0,0,0,0,0,0,0,0,0,0,0,0,0,0,0,0,0,0,0,0,0,0,0,0,0,0,0,0,0,0,0,0,0,0,0,0,0,0,0,0,0,0,0,0,0,0,0,0,0,0,0,0,0,0,0,0,0,0,0,0,0,0,0,0,0,0,0,0,0,0,0,0,0,0,0,0,0,0,0,0,0,0,0,0,0,0,0,0,0,0,0,0,0,0,0,0,0,0,0,0,0,0,0,0,0,0,0,0,0,0,0,0,0,0,0,0,0,0,
0,0,0,0,0,0,0,0,0,0,0,0,0,0,0,0,0,0,0,0,0,0,0,0,0,0,0,0,0,0,0,0,0,0,0,0,0,0,0,0,0,0,0,0,0,0,0,0,0,0,0,0,0,0,0,0,0,0,0,0,0,0,0,0,0,0,0,0,0,0,0,0,0,0,0,0,0,0,0,0,0,0,0,0,0,0,0,0,0,0,0,0,0,0,0,0,0,0,0,0,0,0,0,0,0,0,0,0,0,0,0,0,0,0,0,0,0,0,0,0,0,0,0,0,0,0,0,0,0,0,0,0,0,0,0,0,0,0,0,0,0,0,0,0,0,0,0,0,0,0,
0,0,0,0,0,0,0,0,0,0,0,0,0,0,0,0,0,0,0,0,0,0,0,0,0,0,0,0,0,0,0,0,0,0,0,0,0,0,0,0,0,0,0,0,0,0,0,0,0,0,0,0,0,0,0,0,0,0,0,0,0,0,0,0,0,0,0,0,0,0,0,0,0,0,0,0,0,0,0,0,0,0,0,0,0,0,0,0,0,0,0,0,0,0,0,0,0,0,0,0,0,0,0,0,0,0,0,0,0,0,0,0,0,0,0,0,0,0,0,0,0,0,0,0,0,0,0,0,0,0,0,0,0,0,0,0,0,0,0,0,0,0,0,0,0,0,0,0,0,0,
0,0,0,0,0,0,0,0,0,0,0,0,0,0,0,0,0,0,0,0,0,0,0,0,0,0,0,0,0,0,0,0,0,0,0,0,0,0,0,0,0,0,0,0,0,0,0,0,0,0,0,0,0,0,0,0,0,0,0,0,0,0,0,0,0,0,0,0,0,0,0,0,0,0,0,0,0,0,0,0,0,0,0,0,0,0,0,0,0,0,0,0,0,0,0,0,0,0,0,0,0,0,0,0,0,0,0,0,0,0,0,0,0,0,0,0,0,0,0,0,0,0,0,0,0,0,0,0,0,0,0,0,0,0,0,0,0,0,0,0,0,0,0,0,0,0,0,0,0,0,
0,0,0,0,0,0,0,0,0,0,0,0,0,0,0,0,0,0,0,0,0,0,0,0,0,0,0,0,0,0,0,0,0,0,0,0,0,0,0,0,0,0,0,0,0,0,0,0,0,0,0,0,0,0,0,0,0,0,0,0,0,0,0,0,0,0,0,0,0,0,0,0,0,0,0,0,0,0,0,0,0,0,0,0,0,0,0,0,0,0,0,0,0,0,0,0,0,0,0,0,0,0,0,0,0,0,0,0,0,0,0,0,0,0,0,0,0,0,0,0,0,0,0,0,0,0,0,0,0,0,0,0,0,0,0,0,0,0,0,0,0,0,0,0,0,0,0,0,0,0,
0,0,0,0,0,0,0,0,0,0,0,0,0,0,0,0,0,0,0,0,0,0,0,0,0,0,0,0,0,0,0,0,0,0,0,0,0,0,0,0,0,0,0,0,0,0,0,0,0,0,0,0,0,0,0,0,0,0,0,0,0,0,0,0,0,0,0,0,0,0,0,0,0,0,0,0,0,0,0,0,0,0,0,0,0,0,0,0,0,0,0,0,0,0,0,0,0,0,0,0,0,0,0,0,0,0,0,0,0,0,0,0,0,0,0,0,0,0,0,0,0,0,0,0,0,0,0,0,0,0,0,0,0,0,0,0,0,0,0,0,0,0,0,0,0,0,0,0,0,0,
0,0,0,0,0,0,0,0,0,0,0,0,0,0,0,0,0,0,0,0,0,0,0,0,0,0,0,0,0,0,0,0,0,0,0,0,0,0,0,0,0,0,0,0,0,0,0,0,0,0,0,0,0,0,0,0,0,0,0,0,0,0,0,0,0,0,0,0,0,0,0,0,0,0,0,0,0,0,0,0,0,0,0,0,0,0,0,0,0,0,0,0,0,0,0,0,0,0,0,0,0,0,0,0,0,0,0,0,0,0,0,0,0,0,0,0,0,0,0,0,0,0,0,0,0,0,0,0,0,0,0,0,0,0,0,0,0,0,0,0,0,0,0,0,0,0,0,0,0,0,
0,0,0,0,0,0,0,0,0,0,0,0,0,0,0,0,0,0,0,0,0,0,0,0,0,0,0,0,0,0,0,0,0,0,0,0,0,0,0,0,0,0,0,0,0,0,0,0,0,0,0,0,0,0,0,0,0,0,0,0,0,0,0,0,0,0,0,0,0,0,0,0,0,0,0,0,0,0,0,0,0,0,0,0,0,0,0,0,0,0,0,0,0,0,0,0,0,0,0,0,0,0,0,0,0,0,0,0,0,0,0,0,0,0,0,0,0,0,0,0,0,0,0,0,0,0,0,0,0,0,0,0,0,0,0,0,0,0,0,0,0,0,0,0,0,0,0,0,0,0,
0,0,0,0,0,0,0,0,0,0,0,0,0,0,0,0,0,0,0,0,0,0,0,0,0,0,0,0,0,0,0,0,0,0,0,0,0,0,0,0,0,0,0,0,0,0,0,0,0,0,0,0,0,0,0,0,0,0,0,0,0,0,0,0,0,0,0,0,0,0,0,0,0,0,0,0,0,0,0,0,0,0,0,0,0,0,0,0,0,0,0,0,0,0,0,0,0,0,0,0,0,0,0,0,0,0,0,0,0,0,0,0,0,0,0,0,0,0,0,0,0,0,0,0,0,0,0,0,0,0,0,0,0,0,0,0,0,0,0,0,0,0,0,0,0,0,0,0,0,0,
0,0,0,0,0,0,0,0,0,0,0,0,0,0,0,0,0,0,0,0,0,0,0,0,0,0,0,0,0,0,0,0,0,0,0,0,0,0,0,0,0,0,0,0,0,0,0,0,0,0,0,0,0,0,0,0,0,0,0,0,0,0,0,0,0,0,0,0,0,0,0,0,0,0,0,0,0,0,0,0,0,0,0,0,0,0,0,0,0,0,0,0,0,0,0,0,0,0,0,0,0,0,0,0,0,0,0,0,0,0,0,0,0,0,0,0,0,0,0,0,0,0,0,0,0,0,0,0,0,0,0,0,0,0,0,0,0,0,0,0,0,0,0,0,0,0,0,0,0,0,
0,0,0,0,0,0,0,0,0,0,0,0,0,0,0,0,0,0,0,0,0,0,0,0,0,0,0,0,0,0,0,0,0,0,0,0,0,0,0,0,0,0,0,0,0,0,0,0,0,0,0,0,0,0,0,0,0,0,0,0,0,0,0,0,0,0,0,0,0,0,0,0,0,0,0,0,0,0,0,0,0,0,0,0,0,0,0,0,0,0,0,0,0,0,0,0,0,0,0,0,0,0,0,0,0,0,0,0,0,0,0,0,0,0,0,0,0,0,0,0,0,0,0,0,0,0,0,0,0,0,0,0,0,0,0,0,0,0,0,0,0,0,0,0,0,0,0,0,0,0,
0,0,0,0,0,0,0,0,0,0,0,0,0,0,0,0,0,0,0,0,0,0,0,0,0,0,0,0,0,0,0,0,0,0,0,0,0,0,0,0,0,0,0,0,0,0,0,0,0,0,0,0,0,0,0,0,0,0,0,0,0,0,0,0,0,0,0,0,0,0,0,0,0,0,0,0,0,0,0,0,0,0,0,0,0,0,0,0,0,0,0,0,0,0,0,0,0,0,0,0,0,0,0,0,0,0,0,0,0,0,0,0,0,0,0,0,0,0,0,0,0,0,0,0,0,0,0,0,0,0,0,0,0,0,0,0,0,0,0,0,0,0,0,0,0,0,0,0,0,0
</data>
 </layer>
 <objectgroup id="9" name="object">
  <object id="1" name="player" x="951.333" y="30.0683">
   <point/>
  </object>
  <object id="80" name="collision" x="860.636" y="-0.606061" width="36.3636" height="511.636">
   <properties>
    <property name="Blocked" type="bool" value="true"/>
    <property name="Type" value="collision"/>
   </properties>
  </object>
  <object id="81" name="collision" x="1009.12" y="-0.242424" width="34.303" height="510.667">
   <properties>
    <property name="Blocked" type="bool" value="true"/>
    <property name="Type" value="collision"/>
   </properties>
  </object>
  <object id="82" name="collision" x="1044.21" y="471.485" width="460.909" height="38.6061">
   <properties>
    <property name="Blocked" type="bool" value="true"/>
    <property name="Type" value="collision"/>
   </properties>
  </object>
  <object id="83" name="collision" x="63.697" y="474.727" width="800.182" height="36.3636">
   <properties>
    <property name="Blocked" type="bool" value="true"/>
    <property name="Type" value="collision"/>
   </properties>
  </object>
  <object id="84" name="collision" x="65.6667" y="506.212" width="30.2424" height="1080.3">
   <properties>
    <property name="Blocked" type="bool" value="true"/>
    <property name="Type" value="collision"/>
   </properties>
  </object>
  <object id="85" name="collision" x="95.0606" y="1551.42" width="1057.03" height="35.4545">
   <properties>
    <property name="Blocked" type="bool" value="true"/>
    <property name="Type" value="collision"/>
   </properties>
  </object>
  <object id="86" name="collision" x="1263.36" y="1552.58" width="239.636" height="30.303">
   <properties>
    <property name="Blocked" type="bool" value="true"/>
    <property name="Type" value="collision"/>
   </properties>
  </object>
  <object id="87" name="collision" x="1472.73" y="512.121" width="27.2727" height="1041.7">
   <properties>
    <property name="Blocked" type="bool" value="true"/>
    <property name="Type" value="collision"/>
   </properties>
  </object>
  <object id="88" name="collision" x="1120.52" y="1587.36" width="31.9394" height="507.455">
   <properties>
    <property name="Blocked" type="bool" value="true"/>
    <property name="Type" value="collision"/>
   </properties>
  </object>
  <object id="89" name="collision" x="1263.58" y="1583.06" width="33.3333" height="512.788">
   <properties>
    <property name="Blocked" type="bool" value="true"/>
    <property name="Type" value="collision"/>
   </properties>
  </object>
  <object id="90" name="collision" x="913.182" y="2058.58" width="207.455" height="36.303">
   <properties>
    <property name="Blocked" type="bool" value="true"/>
    <property name="Type" value="collision"/>
   </properties>
  </object>
  <object id="91" name="collision" x="914.455" y="2088.67" width="28" height="1079.33">
   <properties>
    <property name="Blocked" type="bool" value="true"/>
    <property name="Type" value="collision"/>
   </properties>
  </object>
  <object id="92" name="collision" x="942.515" y="3136.36" width="1408" height="30.303">
   <properties>
    <property name="Blocked" type="bool" value="true"/>
    <property name="Type" value="collision"/>
   </properties>
  </object>
  <object id="93" name="collision" x="2320.12" y="2056.24" width="30.303" height="1085.27">
   <properties>
    <property name="Blocked" type="bool" value="true"/>
    <property name="Type" value="collision"/>
   </properties>
  </object>
  <object id="94" name="collision" x="1287.88" y="2056.91" width="1034.48" height="38.9697">
   <properties>
    <property name="Blocked" type="bool" value="true"/>
    <property name="Type" value="collision"/>
   </properties>
  </object>
  <object id="95" name="collision" x="1040.24" y="2256" width="191.697" height="16.1212">
   <properties>
    <property name="Blocked" type="bool" value="true"/>
    <property name="Type" value="collision"/>
   </properties>
  </object>
  <object id="96" name="collision" x="1055.33" y="2559.67" width="128.848" height="16.4848">
   <properties>
    <property name="Blocked" type="bool" value="true"/>
    <property name="Type" value="collision"/>
   </properties>
  </object>
  <object id="97" name="collision" x="1471.76" y="2592" width="128.242" height="16.4848">
   <properties>
    <property name="Blocked" type="bool" value="true"/>
    <property name="Type" value="collision"/>
   </properties>
  </object>
  <object id="98" name="collision" x="1599.33" y="2335.67" width="129.091" height="16.3636">
   <properties>
    <property name="Blocked" type="bool" value="true"/>
    <property name="Type" value="collision"/>
   </properties>
  </object>
  <object id="99" name="collision" x="1936" y="2671.94" width="128.667" height="16.7273">
   <properties>
    <property name="Blocked" type="bool" value="true"/>
    <property name="Type" value="collision"/>
   </properties>
  </object>
  <object id="100" name="collision" x="2112.33" y="2303.67" width="128" height="16.5455">
   <properties>
    <property name="Blocked" type="bool" value="true"/>
    <property name="Type" value="collision"/>
   </properties>
  </object>
  <object id="101" name="collision" x="2032" y="2976" width="64" height="16">
   <properties>
    <property name="Blocked" type="bool" value="true"/>
    <property name="Type" value="collision"/>
   </properties>
  </object>
  <object id="102" name="collision" x="1439.67" y="2847.76" width="128.545" height="16.9091">
   <properties>
    <property name="Blocked" type="bool" value="true"/>
    <property name="Type" value="collision"/>
   </properties>
  </object>
  <object id="103" name="collision" x="192" y="1359.76" width="128.242" height="16.2424">
   <properties>
    <property name="Blocked" type="bool" value="true"/>
    <property name="Type" value="collision"/>
   </properties>
  </object>
  <object id="104" name="collision" x="591.667" y="1312" width="128.788" height="16">
   <properties>
    <property name="Blocked" type="bool" value="true"/>
    <property name="Type" value="collision"/>
   </properties>
  </object>
  <object id="105" name="collision" x="1055.67" y="1199.33" width="128" height="16.5455">
   <properties>
    <property name="Blocked" type="bool" value="true"/>
    <property name="Type" value="collision"/>
   </properties>
  </object>
  <object id="106" name="collision" x="1231.94" y="672.061" width="128.182" height="16.303">
   <properties>
    <property name="Blocked" type="bool" value="true"/>
    <property name="Type" value="collision"/>
   </properties>
  </object>
  <object id="107" name="collision" x="911.333" y="783.667" width="128.667" height="16.6667">
   <properties>
    <property name="Blocked" type="bool" value="true"/>
    <property name="Type" value="collision"/>
   </properties>
  </object>
  <object id="108" name="collision" x="480.333" y="880" width="192.121" height="16.2424">
   <properties>
    <property name="Blocked" type="bool" value="true"/>
    <property name="Type" value="collision"/>
   </properties>
  </object>
  <object id="109" name="collision" x="95.7576" y="768.212" width="128.667" height="16.1212">
   <properties>
    <property name="Blocked" type="bool" value="true"/>
    <property name="Type" value="collision"/>
   </properties>
  </object>
  <object id="110" name="monster" x="268" y="1476">
   <properties>
    <property name="group" value="salle1"/>
   </properties>
   <point/>
  </object>
  <object id="111" name="monster" x="806" y="1156">
   <properties>
    <property name="group" value="salle1"/>
   </properties>
   <point/>
  </object>
  <object id="112" name="monster" x="1368" y="1378">
   <properties>
    <property name="group" value="salle1"/>
   </properties>
   <point/>
  </object>
  <object id="153" name="monster" x="1938.67" y="2194">
   <properties>
    <property name="group" value="salle2"/>
   </properties>
   <point/>
  </object>
  <object id="154" name="monster" x="1272" y="2807.33">
   <properties>
    <property name="group" value="salle2"/>
   </properties>
   <point/>
  </object>
  <object id="113" name="monster" x="1302" y="904">
   <properties>
    <property name="group" value="salle1"/>
   </properties>
   <point/>
  </object>
  <object id="114" name="final_boss" x="1794" y="2996">
   <properties>
    <property name="group" value="salle2"/>
   </properties>
   <point/>
  </object>
  <object id="116" name="salle1_zone" x="97.3333" y="513" width="1373.33" height="1037.33"/>
  <object id="117" name="salle2_zone" x="944.667" y="2100" width="1373.33" height="1037.33"/>
  <object id="118" name="destructible_wall" x="1151.33" y="1551.25" width="114" height="33.5">
   <properties>
    <property name="Blocked" type="bool" value="true"/>
    <property name="Type" value="destructible_wall"/>
   </properties>
  </object>
  <object id="119" name="destructible_wall" x="898.333" y="478.583" width="112" height="33.5">
   <properties>
    <property name="Blocked" type="bool" value="true"/>
    <property name="Type" value="destructible_wall"/>
   </properties>
  </object>
  <object id="120" name="collectible" x="960.667" y="120" width="32" height="32">
   <properties>
    <property name="element_type" value="coin"/>
    <property name="score_value" type="int" value="10"/>
   </properties>
  </object>
  <object id="121" name="collectible" x="907.333" y="224" width="32" height="32">
   <properties>
    <property name="element_type" value="coin"/>
    <property name="score_value" type="int" value="10"/>
   </properties>
  </object>
  <object id="122" name="collectible" x="972" y="350.667" width="32" height="32">
   <properties>
    <property name="element_type" value="coin"/>
    <property name="score_value" type="int" value="10"/>
   </properties>
  </object>
  <object id="123" name="collectible" x="904.667" y="418.667" width="32" height="32">
   <properties>
    <property name="element_type" value="coin"/>
    <property name="score_value" type="int" value="10"/>
   </properties>
  </object>
  <object id="124" name="collectible" x="1236" y="586.667" width="32" height="32">
   <properties>
    <property name="element_type" value="coin"/>
    <property name="score_value" type="int" value="10"/>
   </properties>
  </object>
  <object id="125" name="collectible" x="801.333" y="778" width="32" height="32">
   <properties>
    <property name="element_type" value="coin"/>
    <property name="score_value" type="int" value="10"/>
   </properties>
  </object>
  <object id="140" name="collectible" x="665.333" y="606" width="32" height="32">
   <properties>
    <property name="element_type" value="coin"/>
    <property name="score_value" type="int" value="10"/>
   </properties>
  </object>
  <object id="127" name="collectible" x="278" y="568" width="32" height="32">
   <properties>
    <property name="element_type" value="coin"/>
    <property name="score_value" type="int" value="10"/>
   </properties>
  </object>
  <object id="129" name="collectible" x="181.333" y="934.667" width="32" height="32">
   <properties>
    <property name="element_type" value="coin"/>
    <property name="score_value" type="int" value="10"/>
   </properties>
  </object>
  <object id="130" name="collectible" x="591.333" y="1107.33" width="32" height="32">
   <properties>
    <property name="element_type" value="coin"/>
    <property name="score_value" type="int" value="10"/>
   </properties>
  </object>
  <object id="131" name="collectible" x="441.333" y="1367.33" width="32" height="32">
   <properties>
    <property name="element_type" value="coin"/>
    <property name="score_value" type="int" value="10"/>
   </properties>
  </object>
  <object id="132" name="collectible" x="850.667" y="1406.67" width="32" height="32">
   <properties>
    <property name="element_type" value="coin"/>
    <property name="score_value" type="int" value="10"/>
   </properties>
  </object>
  <object id="133" name="collectible" x="1187.33" y="1296" width="32" height="32">
   <properties>
    <property name="element_type" value="coin"/>
    <property name="score_value" type="int" value="10"/>
   </properties>
  </object>
  <object id="139" name="collectible" x="1371.33" y="1124" width="32" height="32">
   <properties>
    <property name="element_type" value="coin"/>
    <property name="score_value" type="int" value="10"/>
   </properties>
  </object>
  <object id="134" name="collectible" x="976" y="961.333" width="32" height="32">
   <properties>
    <property name="element_type" value="coin"/>
    <property name="score_value" type="int" value="10"/>
   </properties>
  </object>
  <object id="126" name="collectible" x="1362" y="974" width="32" height="32">
   <properties>
    <property name="element_type" value="coin"/>
    <property name="score_value" type="int" value="10"/>
   </properties>
  </object>
  <object id="135" name="collectible" x="1171.33" y="1643.33" width="32" height="32">
   <properties>
    <property name="element_type" value="coin"/>
    <property name="score_value" type="int" value="10"/>
   </properties>
  </object>
  <object id="136" name="collectible" x="1216" y="1746.67" width="32" height="32">
   <properties>
    <property name="element_type" value="coin"/>
    <property name="score_value" type="int" value="10"/>
   </properties>
  </object>
  <object id="138" name="collectible" x="1208.67" y="1977.33" width="32" height="32">
   <properties>
    <property name="element_type" value="coin"/>
    <property name="score_value" type="int" value="10"/>
   </properties>
  </object>
  <object id="142" name="collectible" x="1007.33" y="2149.33" width="32" height="32">
   <properties>
    <property name="element_type" value="coin"/>
    <property name="score_value" type="int" value="10"/>
   </properties>
  </object>
  <object id="143" name="collectible" x="1302" y="2425.33" width="32" height="32">
   <properties>
    <property name="element_type" value="coin"/>
    <property name="score_value" type="int" value="10"/>
   </properties>
  </object>
  <object id="145" name="collectible" x="1728.67" y="2213.33" width="32" height="32">
   <properties>
    <property name="element_type" value="coin"/>
    <property name="score_value" type="int" value="10"/>
   </properties>
  </object>
  <object id="144" name="collectible" x="1720.67" y="2754.67" width="32" height="32">
   <properties>
    <property name="element_type" value="coin"/>
    <property name="score_value" type="int" value="10"/>
   </properties>
  </object>
  <object id="146" name="collectible" x="1059.33" y="2760" width="32" height="32">
   <properties>
    <property name="element_type" value="coin"/>
    <property name="score_value" type="int" value="10"/>
   </properties>
  </object>
  <object id="147" name="collectible" x="2020.67" y="3076" width="32" height="32">
   <properties>
    <property name="element_type" value="coin"/>
    <property name="score_value" type="int" value="10"/>
   </properties>
  </object>
  <object id="148" name="collectible" x="2014" y="2468" width="32" height="32">
   <properties>
    <property name="element_type" value="coin"/>
    <property name="score_value" type="int" value="10"/>
   </properties>
  </object>
  <object id="150" name="collectible" x="2162" y="2830.67" width="32" height="32">
   <properties>
    <property name="element_type" value="coin"/>
    <property name="score_value" type="int" value="10"/>
   </properties>
  </object>
  <object id="151" name="collectible" x="1575.33" y="3025.33" width="32" height="32">
   <properties>
    <property name="element_type" value="coin"/>
    <property name="score_value" type="int" value="10"/>
   </properties>
  </object>
  <object id="152" name="collectible" x="1138" y="2984" width="32" height="32">
   <properties>
    <property name="element_type" value="coin"/>
    <property name="score_value" type="int" value="10"/>
   </properties>
  </object>
  <object id="149" name="collectible" x="2190" y="2165.33" width="32" height="32">
   <properties>
    <property name="element_type" value="coin"/>
    <property name="score_value" type="int" value="10"/>
   </properties>
  </object>
  <object id="141" name="collectible" x="1159.33" y="1862.67" width="32" height="32">
   <properties>
    <property name="element_type" value="coin"/>
    <property name="score_value" type="int" value="10"/>
   </properties>
  </object>
 </objectgroup>
</map>
